CONST robtarget Target_1:=[[-50.0, 550.0, 603.0],[0,0.383,0.924,0],[0,0,0,0],[9E+09,9E+09,9E+09,9E+09,9E+09,9E+09]];
CONST robtarget Target_2:=[[-47.34604478921182, 549.1153482630706, 597.6920895784236],[0,0.383,0.924,0],[0,0,0,0],[9E+09,9E+09,9E+09,9E+09,9E+09,9E+09]];
CONST robtarget Target_3:=[[-44.69208957842369, 548.2306965261412, 592.3841791568474],[0,0.383,0.924,0],[0,0,0,0],[9E+09,9E+09,9E+09,9E+09,9E+09,9E+09]];
CONST robtarget Target_4:=[[-42.038134367635564, 547.3460447892119, 587.0762687352711],[0,0.383,0.924,0],[0,0,0,0],[9E+09,9E+09,9E+09,9E+09,9E+09,9E+09]];
CONST robtarget Target_5:=[[-39.38417915684744, 546.4613930522825, 581.7683583136949],[0,0.383,0.924,0],[0,0,0,0],[9E+09,9E+09,9E+09,9E+09,9E+09,9E+09]];
CONST robtarget Target_6:=[[-36.730223946059255, 545.576741315353, 576.4604478921185],[0,0.383,0.924,0],[0,0,0,0],[9E+09,9E+09,9E+09,9E+09,9E+09,9E+09]];
CONST robtarget Target_7:=[[-34.07626873527107, 544.6920895784237, 571.1525374705421],[0,0.383,0.924,0],[0,0,0,0],[9E+09,9E+09,9E+09,9E+09,9E+09,9E+09]];
CONST robtarget Target_8:=[[-31.422313524482945, 543.8074378414943, 565.8446270489659],[0,0.383,0.924,0],[0,0,0,0],[9E+09,9E+09,9E+09,9E+09,9E+09,9E+09]];
CONST robtarget Target_9:=[[-28.76835831369482, 542.9227861045649, 560.5367166273896],[0,0.383,0.924,0],[0,0,0,0],[9E+09,9E+09,9E+09,9E+09,9E+09,9E+09]];
CONST robtarget Target_10:=[[-26.114403102906635, 542.0381343676356, 555.2288062058133],[0,0.383,0.924,0],[0,0,0,0],[9E+09,9E+09,9E+09,9E+09,9E+09,9E+09]];
CONST robtarget Target_11:=[[-23.46044789211851, 541.1534826307062, 549.920895784237],[0,0.383,0.924,0],[0,0,0,0],[9E+09,9E+09,9E+09,9E+09,9E+09,9E+09]];
CONST robtarget Target_12:=[[-20.806492681330383, 540.2688308937768, 544.6129853626608],[0,0.383,0.924,0],[0,0,0,0],[9E+09,9E+09,9E+09,9E+09,9E+09,9E+09]];
CONST robtarget Target_13:=[[-18.152537470542256, 539.3841791568474, 539.3050749410845],[0,0.383,0.924,0],[0,0,0,0],[9E+09,9E+09,9E+09,9E+09,9E+09,9E+09]];
CONST robtarget Target_14:=[[-15.498582259754073, 538.499527419918, 533.9971645195081],[0,0.383,0.924,0],[0,0,0,0],[9E+09,9E+09,9E+09,9E+09,9E+09,9E+09]];
CONST robtarget Target_15:=[[-12.84462704896589, 537.6148756829887, 528.6892540979318],[0,0.383,0.924,0],[0,0,0,0],[9E+09,9E+09,9E+09,9E+09,9E+09,9E+09]];
CONST robtarget Target_16:=[[-10.190671838177764, 536.7302239460593, 523.3813436763555],[0,0.383,0.924,0],[0,0,0,0],[9E+09,9E+09,9E+09,9E+09,9E+09,9E+09]];
CONST robtarget Target_17:=[[-7.536716627389637, 535.8455722091298, 518.0734332547793],[0,0.383,0.924,0],[0,0,0,0],[9E+09,9E+09,9E+09,9E+09,9E+09,9E+09]];
CONST robtarget Target_18:=[[-4.8827614166014826, 534.9609204722005, 512.765522833203],[0,0.383,0.924,0],[0,0,0,0],[9E+09,9E+09,9E+09,9E+09,9E+09,9E+09]];
CONST robtarget Target_19:=[[-2.228806205813328, 534.0762687352711, 507.45761241162666],[0,0.383,0.924,0],[0,0,0,0],[9E+09,9E+09,9E+09,9E+09,9E+09,9E+09]];
CONST robtarget Target_20:=[[0.425149004974827, 533.1916169983417, 502.14970199005035],[0,0.383,0.924,0],[0,0,0,0],[9E+09,9E+09,9E+09,9E+09,9E+09,9E+09]];
CONST robtarget Target_21:=[[3.0791042157629533, 532.3069652614124, 496.8417915684741],[0,0.383,0.924,0],[0,0,0,0],[9E+09,9E+09,9E+09,9E+09,9E+09,9E+09]];
CONST robtarget Target_22:=[[5.7330594265511365, 531.4223135244829, 491.5338811468977],[0,0.383,0.924,0],[0,0,0,0],[9E+09,9E+09,9E+09,9E+09,9E+09,9E+09]];
CONST robtarget Target_23:=[[8.387014637339263, 530.5376617875536, 486.2259707253215],[0,0.383,0.924,0],[0,0,0,0],[9E+09,9E+09,9E+09,9E+09,9E+09,9E+09]];
CONST robtarget Target_24:=[[11.040969848127418, 529.6530100506242, 480.91806030374516],[0,0.383,0.924,0],[0,0,0,0],[9E+09,9E+09,9E+09,9E+09,9E+09,9E+09]];
CONST robtarget Target_25:=[[13.694925058915572, 528.7683583136948, 475.61014988216886],[0,0.383,0.924,0],[0,0,0,0],[9E+09,9E+09,9E+09,9E+09,9E+09,9E+09]];
CONST robtarget Target_26:=[[16.3488802697037, 527.8837065767655, 470.3022394605926],[0,0.383,0.924,0],[0,0,0,0],[9E+09,9E+09,9E+09,9E+09,9E+09,9E+09]];
CONST robtarget Target_27:=[[19.002835480491854, 526.999054839836, 464.9943290390163],[0,0.383,0.924,0],[0,0,0,0],[9E+09,9E+09,9E+09,9E+09,9E+09,9E+09]];
CONST robtarget Target_28:=[[21.656790691280037, 526.1144031029066, 459.6864186174399],[0,0.383,0.924,0],[0,0,0,0],[9E+09,9E+09,9E+09,9E+09,9E+09,9E+09]];
CONST robtarget Target_29:=[[24.310745902068163, 525.2297513659773, 454.3785081958637],[0,0.383,0.924,0],[0,0,0,0],[9E+09,9E+09,9E+09,9E+09,9E+09,9E+09]];
CONST robtarget Target_30:=[[26.964701112856318, 524.3450996290479, 449.07059777428736],[0,0.383,0.924,0],[0,0,0,0],[9E+09,9E+09,9E+09,9E+09,9E+09,9E+09]];
CONST robtarget Target_31:=[[29.618656323644444, 523.4604478921185, 443.7626873527111],[0,0.383,0.924,0],[0,0,0,0],[9E+09,9E+09,9E+09,9E+09,9E+09,9E+09]];
CONST robtarget Target_32:=[[32.2726115344326, 522.5757961551892, 438.4547769311348],[0,0.383,0.924,0],[0,0,0,0],[9E+09,9E+09,9E+09,9E+09,9E+09,9E+09]];
CONST robtarget Target_33:=[[34.926566745220754, 521.6911444182597, 433.1468665095585],[0,0.383,0.924,0],[0,0,0,0],[9E+09,9E+09,9E+09,9E+09,9E+09,9E+09]];
CONST robtarget Target_34:=[[37.58052195600891, 520.8064926813304, 427.8389560879822],[0,0.383,0.924,0],[0,0,0,0],[9E+09,9E+09,9E+09,9E+09,9E+09,9E+09]];
CONST robtarget Target_35:=[[40.23447716679706, 519.921840944401, 422.5310456664059],[0,0.383,0.924,0],[0,0,0,0],[9E+09,9E+09,9E+09,9E+09,9E+09,9E+09]];
CONST robtarget Target_36:=[[42.88843237758519, 519.0371892074716, 417.2231352448296],[0,0.383,0.924,0],[0,0,0,0],[9E+09,9E+09,9E+09,9E+09,9E+09,9E+09]];
CONST robtarget Target_37:=[[45.542387588373344, 518.1525374705423, 411.9152248232533],[0,0.383,0.924,0],[0,0,0,0],[9E+09,9E+09,9E+09,9E+09,9E+09,9E+09]];
CONST robtarget Target_38:=[[48.1963427991615, 517.2678857336128, 406.607314401677],[0,0.383,0.924,0],[0,0,0,0],[9E+09,9E+09,9E+09,9E+09,9E+09,9E+09]];
CONST robtarget Target_39:=[[50.850298009949626, 516.3832339966834, 401.29940398010075],[0,0.383,0.924,0],[0,0,0,0],[9E+09,9E+09,9E+09,9E+09,9E+09,9E+09]];
CONST robtarget Target_40:=[[53.50425322073781, 515.4985822597541, 395.9914935585244],[0,0.383,0.924,0],[0,0,0,0],[9E+09,9E+09,9E+09,9E+09,9E+09,9E+09]];
CONST robtarget Target_41:=[[56.15820843152596, 514.6139305228246, 390.6835831369481],[0,0.383,0.924,0],[0,0,0,0],[9E+09,9E+09,9E+09,9E+09,9E+09,9E+09]];
CONST robtarget Target_42:=[[58.81216364231409, 513.7292787858953, 385.3756727153718],[0,0.383,0.924,0],[0,0,0,0],[9E+09,9E+09,9E+09,9E+09,9E+09,9E+09]];
CONST robtarget Target_43:=[[61.466118853102245, 512.8446270489659, 380.0677622937955],[0,0.383,0.924,0],[0,0,0,0],[9E+09,9E+09,9E+09,9E+09,9E+09,9E+09]];
CONST robtarget Target_44:=[[64.12007406389037, 511.95997531203653, 374.75985187221926],[0,0.383,0.924,0],[0,0,0,0],[9E+09,9E+09,9E+09,9E+09,9E+09,9E+09]];
CONST robtarget Target_45:=[[66.77402927467853, 511.0753235751072, 369.45194145064295],[0,0.383,0.924,0],[0,0,0,0],[9E+09,9E+09,9E+09,9E+09,9E+09,9E+09]];
CONST robtarget Target_46:=[[69.42798448546671, 510.19067183817776, 364.1440310290666],[0,0.383,0.924,0],[0,0,0,0],[9E+09,9E+09,9E+09,9E+09,9E+09,9E+09]];
CONST robtarget Target_47:=[[72.08193969625484, 509.3060201012484, 358.83612060749033],[0,0.383,0.924,0],[0,0,0,0],[9E+09,9E+09,9E+09,9E+09,9E+09,9E+09]];
CONST robtarget Target_48:=[[74.73589490704299, 508.421368364319, 353.528210185914],[0,0.383,0.924,0],[0,0,0,0],[9E+09,9E+09,9E+09,9E+09,9E+09,9E+09]];
CONST robtarget Target_49:=[[77.38985011783112, 507.53671662738964, 348.22029976433777],[0,0.383,0.924,0],[0,0,0,0],[9E+09,9E+09,9E+09,9E+09,9E+09,9E+09]];
CONST robtarget Target_50:=[[80.04380532861927, 506.6520648904602, 342.91238934276146],[0,0.383,0.924,0],[0,0,0,0],[9E+09,9E+09,9E+09,9E+09,9E+09,9E+09]];
CONST robtarget Target_51:=[[82.69776053940743, 505.76741315353087, 337.60447892118515],[0,0.383,0.924,0],[0,0,0,0],[9E+09,9E+09,9E+09,9E+09,9E+09,9E+09]];
CONST robtarget Target_52:=[[85.35171575019558, 504.8827614166015, 332.29656849960884],[0,0.383,0.924,0],[0,0,0,0],[9E+09,9E+09,9E+09,9E+09,9E+09,9E+09]];
CONST robtarget Target_53:=[[88.00567096098374, 503.9981096796721, 326.98865807803253],[0,0.383,0.924,0],[0,0,0,0],[9E+09,9E+09,9E+09,9E+09,9E+09,9E+09]];
CONST robtarget Target_54:=[[90.65962617177189, 503.1134579427427, 321.6807476564562],[0,0.383,0.924,0],[0,0,0,0],[9E+09,9E+09,9E+09,9E+09,9E+09,9E+09]];
CONST robtarget Target_55:=[[93.31358138256002, 502.2288062058133, 316.37283723487997],[0,0.383,0.924,0],[0,0,0,0],[9E+09,9E+09,9E+09,9E+09,9E+09,9E+09]];
CONST robtarget Target_56:=[[95.96753659334817, 501.34415446888397, 311.06492681330366],[0,0.383,0.924,0],[0,0,0,0],[9E+09,9E+09,9E+09,9E+09,9E+09,9E+09]];
CONST robtarget Target_57:=[[98.6214918041363, 500.45950273195456, 305.7570163917274],[0,0.383,0.924,0],[0,0,0,0],[9E+09,9E+09,9E+09,9E+09,9E+09,9E+09]];
CONST robtarget Target_58:=[[101.27544701492448, 499.57485099502514, 300.44910597015104],[0,0.383,0.924,0],[0,0,0,0],[9E+09,9E+09,9E+09,9E+09,9E+09,9E+09]];
CONST robtarget Target_59:=[[103.92940222571261, 498.6901992580958, 295.1411955485748],[0,0.383,0.924,0],[0,0,0,0],[9E+09,9E+09,9E+09,9E+09,9E+09,9E+09]];
CONST robtarget Target_60:=[[106.58335743650076, 497.80554752116643, 289.8332851269985],[0,0.383,0.924,0],[0,0,0,0],[9E+09,9E+09,9E+09,9E+09,9E+09,9E+09]];
CONST robtarget Target_61:=[[109.23731264728892, 496.920895784237, 284.52537470542217],[0,0.383,0.924,0],[0,0,0,0],[9E+09,9E+09,9E+09,9E+09,9E+09,9E+09]];
CONST robtarget Target_62:=[[111.89126785807707, 496.03624404730766, 279.21746428384586],[0,0.383,0.924,0],[0,0,0,0],[9E+09,9E+09,9E+09,9E+09,9E+09,9E+09]];
CONST robtarget Target_63:=[[114.5452230688652, 495.15159231037825, 273.9095538622696],[0,0.383,0.924,0],[0,0,0,0],[9E+09,9E+09,9E+09,9E+09,9E+09,9E+09]];
CONST robtarget Target_64:=[[117.19917827965335, 494.2669405734489, 268.6016434406933],[0,0.383,0.924,0],[0,0,0,0],[9E+09,9E+09,9E+09,9E+09,9E+09,9E+09]];
CONST robtarget Target_65:=[[119.85313349044151, 493.3822888365195, 263.293733019117],[0,0.383,0.924,0],[0,0,0,0],[9E+09,9E+09,9E+09,9E+09,9E+09,9E+09]];
CONST robtarget Target_66:=[[122.50708870122968, 492.4976370995901, 257.9858225975407],[0,0.383,0.924,0],[0,0,0,0],[9E+09,9E+09,9E+09,9E+09,9E+09,9E+09]];
CONST robtarget Target_67:=[[125.16104391201782, 491.61298536266077, 252.6779121759644],[0,0.383,0.924,0],[0,0,0,0],[9E+09,9E+09,9E+09,9E+09,9E+09,9E+09]];
CONST robtarget Target_68:=[[127.81499912280596, 490.72833362573135, 247.3700017543881],[0,0.383,0.924,0],[0,0,0,0],[9E+09,9E+09,9E+09,9E+09,9E+09,9E+09]];
CONST robtarget Target_69:=[[130.46895433359413, 489.84368188880194, 242.0620913328118],[0,0.383,0.924,0],[0,0,0,0],[9E+09,9E+09,9E+09,9E+09,9E+09,9E+09]];
CONST robtarget Target_70:=[[133.12290954438225, 488.9590301518726, 236.7541809112355],[0,0.383,0.924,0],[0,0,0,0],[9E+09,9E+09,9E+09,9E+09,9E+09,9E+09]];
CONST robtarget Target_71:=[[135.77686475517044, 488.0743784149432, 231.44627048965918],[0,0.383,0.924,0],[0,0,0,0],[9E+09,9E+09,9E+09,9E+09,9E+09,9E+09]];
CONST robtarget Target_72:=[[138.43081996595856, 487.1897266780138, 226.1383600680829],[0,0.383,0.924,0],[0,0,0,0],[9E+09,9E+09,9E+09,9E+09,9E+09,9E+09]];
CONST robtarget Target_73:=[[141.0847751767467, 486.3050749410844, 220.83044964650662],[0,0.383,0.924,0],[0,0,0,0],[9E+09,9E+09,9E+09,9E+09,9E+09,9E+09]];
CONST robtarget Target_74:=[[143.73873038753487, 485.42042320415504, 215.52253922493028],[0,0.383,0.924,0],[0,0,0,0],[9E+09,9E+09,9E+09,9E+09,9E+09,9E+09]];
CONST robtarget Target_75:=[[146.392685598323, 484.5357714672257, 210.214628803354],[0,0.383,0.924,0],[0,0,0,0],[9E+09,9E+09,9E+09,9E+09,9E+09,9E+09]];
CONST robtarget Target_76:=[[149.04664080911115, 483.6511197302963, 204.90671838177772],[0,0.383,0.924,0],[0,0,0,0],[9E+09,9E+09,9E+09,9E+09,9E+09,9E+09]];
CONST robtarget Target_77:=[[151.7005960198993, 482.7664679933669, 199.59880796020144],[0,0.383,0.924,0],[0,0,0,0],[9E+09,9E+09,9E+09,9E+09,9E+09,9E+09]];
CONST robtarget Target_78:=[[154.35455123068743, 481.88181625643756, 194.29089753862513],[0,0.383,0.924,0],[0,0,0,0],[9E+09,9E+09,9E+09,9E+09,9E+09,9E+09]];
CONST robtarget Target_79:=[[157.00850644147562, 480.99716451950815, 188.98298711704882],[0,0.383,0.924,0],[0,0,0,0],[9E+09,9E+09,9E+09,9E+09,9E+09,9E+09]];
CONST robtarget Target_80:=[[159.66246165226374, 480.11251278257873, 183.6750766954725],[0,0.383,0.924,0],[0,0,0,0],[9E+09,9E+09,9E+09,9E+09,9E+09,9E+09]];
CONST robtarget Target_81:=[[162.3164168630519, 479.2278610456494, 178.36716627389623],[0,0.383,0.924,0],[0,0,0,0],[9E+09,9E+09,9E+09,9E+09,9E+09,9E+09]];
CONST robtarget Target_82:=[[164.97037207384005, 478.34320930872, 173.05925585231995],[0,0.383,0.924,0],[0,0,0,0],[9E+09,9E+09,9E+09,9E+09,9E+09,9E+09]];
CONST robtarget Target_83:=[[167.6243272846282, 477.4585575717906, 167.7513454307436],[0,0.383,0.924,0],[0,0,0,0],[9E+09,9E+09,9E+09,9E+09,9E+09,9E+09]];
CONST robtarget Target_84:=[[170.27828249541636, 476.5739058348612, 162.44343500916733],[0,0.383,0.924,0],[0,0,0,0],[9E+09,9E+09,9E+09,9E+09,9E+09,9E+09]];
CONST robtarget Target_85:=[[172.9322377062045, 475.68925409793184, 157.13552458759105],[0,0.383,0.924,0],[0,0,0,0],[9E+09,9E+09,9E+09,9E+09,9E+09,9E+09]];
CONST robtarget Target_86:=[[175.58619291699264, 474.8046023610025, 151.82761416601474],[0,0.383,0.924,0],[0,0,0,0],[9E+09,9E+09,9E+09,9E+09,9E+09,9E+09]];
CONST robtarget Target_87:=[[178.2401481277808, 473.91995062407307, 146.51970374443846],[0,0.383,0.924,0],[0,0,0,0],[9E+09,9E+09,9E+09,9E+09,9E+09,9E+09]];
CONST robtarget Target_88:=[[180.89410333856893, 473.03529888714365, 141.21179332286215],[0,0.383,0.924,0],[0,0,0,0],[9E+09,9E+09,9E+09,9E+09,9E+09,9E+09]];
CONST robtarget Target_89:=[[183.5480585493571, 472.1506471502143, 135.90388290128584],[0,0.383,0.924,0],[0,0,0,0],[9E+09,9E+09,9E+09,9E+09,9E+09,9E+09]];
CONST robtarget Target_90:=[[186.20201376014523, 471.26599541328494, 130.59597247970956],[0,0.383,0.924,0],[0,0,0,0],[9E+09,9E+09,9E+09,9E+09,9E+09,9E+09]];
CONST robtarget Target_91:=[[188.8559689709334, 470.3813436763555, 125.28806205813326],[0,0.383,0.924,0],[0,0,0,0],[9E+09,9E+09,9E+09,9E+09,9E+09,9E+09]];
CONST robtarget Target_92:=[[191.50992418172154, 469.49669193942617, 119.98015163655697],[0,0.383,0.924,0],[0,0,0,0],[9E+09,9E+09,9E+09,9E+09,9E+09,9E+09]];
CONST robtarget Target_93:=[[194.16387939250967, 468.6120402024968, 114.67224121498066],[0,0.383,0.924,0],[0,0,0,0],[9E+09,9E+09,9E+09,9E+09,9E+09,9E+09]];
CONST robtarget Target_94:=[[196.81783460329783, 467.7273884655674, 109.36433079340438],[0,0.383,0.924,0],[0,0,0,0],[9E+09,9E+09,9E+09,9E+09,9E+09,9E+09]];
CONST robtarget Target_95:=[[199.47178981408598, 466.842736728638, 104.05642037182807],[0,0.383,0.924,0],[0,0,0,0],[9E+09,9E+09,9E+09,9E+09,9E+09,9E+09]];
CONST robtarget Target_96:=[[202.12574502487413, 465.95808499170863, 98.74850995025177],[0,0.383,0.924,0],[0,0,0,0],[9E+09,9E+09,9E+09,9E+09,9E+09,9E+09]];
CONST robtarget Target_97:=[[204.7797002356623, 465.0734332547793, 93.44059952867546],[0,0.383,0.924,0],[0,0,0,0],[9E+09,9E+09,9E+09,9E+09,9E+09,9E+09]];
CONST robtarget Target_98:=[[207.43365544645042, 464.18878151784986, 88.13268910709918],[0,0.383,0.924,0],[0,0,0,0],[9E+09,9E+09,9E+09,9E+09,9E+09,9E+09]];
CONST robtarget Target_99:=[[210.08761065723857, 463.30412978092045, 82.82477868552289],[0,0.383,0.924,0],[0,0,0,0],[9E+09,9E+09,9E+09,9E+09,9E+09,9E+09]];
CONST robtarget Target_100:=[[212.74156586802673, 462.4194780439911, 77.51686826394658],[0,0.383,0.924,0],[0,0,0,0],[9E+09,9E+09,9E+09,9E+09,9E+09,9E+09]];
CONST robtarget Target_101:=[[215.39552107881488, 461.53482630706173, 72.20895784237028],[0,0.383,0.924,0],[0,0,0,0],[9E+09,9E+09,9E+09,9E+09,9E+09,9E+09]];
CONST robtarget Target_102:=[[218.049476289603, 460.6501745701323, 66.90104742079399],[0,0.383,0.924,0],[0,0,0,0],[9E+09,9E+09,9E+09,9E+09,9E+09,9E+09]];
CONST robtarget Target_103:=[[220.70343150039116, 459.7655228332029, 61.59313699921769],[0,0.383,0.924,0],[0,0,0,0],[9E+09,9E+09,9E+09,9E+09,9E+09,9E+09]];
CONST robtarget Target_104:=[[223.35738671117932, 458.88087109627355, 56.2852265776414],[0,0.383,0.924,0],[0,0,0,0],[9E+09,9E+09,9E+09,9E+09,9E+09,9E+09]];
CONST robtarget Target_105:=[[226.01134192196747, 457.9962193593442, 50.9773161560651],[0,0.383,0.924,0],[0,0,0,0],[9E+09,9E+09,9E+09,9E+09,9E+09,9E+09]];
CONST robtarget Target_106:=[[228.6652971327556, 457.1115676224148, 45.669405734488805],[0,0.383,0.924,0],[0,0,0,0],[9E+09,9E+09,9E+09,9E+09,9E+09,9E+09]];
CONST robtarget Target_107:=[[231.31925234354375, 456.2269158854854, 40.36149531291251],[0,0.383,0.924,0],[0,0,0,0],[9E+09,9E+09,9E+09,9E+09,9E+09,9E+09]];
CONST robtarget Target_108:=[[233.9732075543319, 455.34226414855607, 35.05358489133621],[0,0.383,0.924,0],[0,0,0,0],[9E+09,9E+09,9E+09,9E+09,9E+09,9E+09]];
CONST robtarget Target_109:=[[236.62716276512006, 454.45761241162666, 29.745674469759912],[0,0.383,0.924,0],[0,0,0,0],[9E+09,9E+09,9E+09,9E+09,9E+09,9E+09]];
CONST robtarget Target_110:=[[239.28111797590822, 453.57296067469724, 24.437764048183613],[0,0.383,0.924,0],[0,0,0,0],[9E+09,9E+09,9E+09,9E+09,9E+09,9E+09]];
CONST robtarget Target_111:=[[241.93507318669634, 452.6883089377679, 19.129853626607318],[0,0.383,0.924,0],[0,0,0,0],[9E+09,9E+09,9E+09,9E+09,9E+09,9E+09]];
CONST robtarget Target_112:=[[244.5890283974845, 451.80365720083853, 13.821943205031019],[0,0.383,0.924,0],[0,0,0,0],[9E+09,9E+09,9E+09,9E+09,9E+09,9E+09]];
CONST robtarget Target_113:=[[247.24298360827265, 450.9190054639091, 8.514032783454724],[0,0.383,0.924,0],[0,0,0,0],[9E+09,9E+09,9E+09,9E+09,9E+09,9E+09]];
CONST robtarget Target_114:=[[249.8969388190608, 450.0343537269797, 3.2061223618784265],[0,0.383,0.924,0],[0,0,0,0],[9E+09,9E+09,9E+09,9E+09,9E+09,9E+09]];
CONST robtarget Target_115:=[[248.0941119371402, 449.7490850764025, 3.0],[0,0.383,0.924,0],[0,0,0,0],[9E+09,9E+09,9E+09,9E+09,9E+09,9E+09]];
CONST robtarget Target_116:=[[246.1112222143926, 449.4880326919624, 3.0],[0,0.383,0.924,0],[0,0,0,0],[9E+09,9E+09,9E+09,9E+09,9E+09,9E+09]];
CONST robtarget Target_117:=[[244.12833249164498, 449.2269803075223, 3.0],[0,0.383,0.924,0],[0,0,0,0],[9E+09,9E+09,9E+09,9E+09,9E+09,9E+09]];
CONST robtarget Target_118:=[[242.14544276889734, 448.9659279230822, 3.0],[0,0.383,0.924,0],[0,0,0,0],[9E+09,9E+09,9E+09,9E+09,9E+09,9E+09]];
CONST robtarget Target_119:=[[240.16255304614972, 448.7048755386421, 3.0],[0,0.383,0.924,0],[0,0,0,0],[9E+09,9E+09,9E+09,9E+09,9E+09,9E+09]];
CONST robtarget Target_120:=[[238.1796633234021, 448.443823154202, 3.0],[0,0.383,0.924,0],[0,0,0,0],[9E+09,9E+09,9E+09,9E+09,9E+09,9E+09]];
CONST robtarget Target_121:=[[236.1967736006545, 448.1827707697619, 3.0],[0,0.383,0.924,0],[0,0,0,0],[9E+09,9E+09,9E+09,9E+09,9E+09,9E+09]];
CONST robtarget Target_122:=[[234.21388387790688, 447.9217183853218, 3.0],[0,0.383,0.924,0],[0,0,0,0],[9E+09,9E+09,9E+09,9E+09,9E+09,9E+09]];
CONST robtarget Target_123:=[[232.23099415515924, 447.6606660008817, 3.0],[0,0.383,0.924,0],[0,0,0,0],[9E+09,9E+09,9E+09,9E+09,9E+09,9E+09]];
CONST robtarget Target_124:=[[230.24810443241162, 447.39961361644157, 3.0],[0,0.383,0.924,0],[0,0,0,0],[9E+09,9E+09,9E+09,9E+09,9E+09,9E+09]];
CONST robtarget Target_125:=[[228.265214709664, 447.1385612320015, 3.0],[0,0.383,0.924,0],[0,0,0,0],[9E+09,9E+09,9E+09,9E+09,9E+09,9E+09]];
CONST robtarget Target_126:=[[226.2823249869164, 446.87750884756133, 3.0],[0,0.383,0.924,0],[0,0,0,0],[9E+09,9E+09,9E+09,9E+09,9E+09,9E+09]];
CONST robtarget Target_127:=[[224.29943526416878, 446.61645646312127, 3.0],[0,0.383,0.924,0],[0,0,0,0],[9E+09,9E+09,9E+09,9E+09,9E+09,9E+09]];
CONST robtarget Target_128:=[[222.31654554142114, 446.35540407868115, 3.0],[0,0.383,0.924,0],[0,0,0,0],[9E+09,9E+09,9E+09,9E+09,9E+09,9E+09]];
CONST robtarget Target_129:=[[220.33365581867352, 446.094351694241, 3.0],[0,0.383,0.924,0],[0,0,0,0],[9E+09,9E+09,9E+09,9E+09,9E+09,9E+09]];
CONST robtarget Target_130:=[[218.3507660959259, 445.83329930980096, 3.0],[0,0.383,0.924,0],[0,0,0,0],[9E+09,9E+09,9E+09,9E+09,9E+09,9E+09]];
CONST robtarget Target_131:=[[216.3678763731783, 445.57224692536084, 3.0],[0,0.383,0.924,0],[0,0,0,0],[9E+09,9E+09,9E+09,9E+09,9E+09,9E+09]];
CONST robtarget Target_132:=[[214.38498665043068, 445.3111945409207, 3.0],[0,0.383,0.924,0],[0,0,0,0],[9E+09,9E+09,9E+09,9E+09,9E+09,9E+09]];
CONST robtarget Target_133:=[[212.40209692768303, 445.05014215648066, 3.0],[0,0.383,0.924,0],[0,0,0,0],[9E+09,9E+09,9E+09,9E+09,9E+09,9E+09]];
CONST robtarget Target_134:=[[210.41920720493545, 444.78908977204054, 3.0],[0,0.383,0.924,0],[0,0,0,0],[9E+09,9E+09,9E+09,9E+09,9E+09,9E+09]];
CONST robtarget Target_135:=[[208.4363174821878, 444.5280373876004, 3.0],[0,0.383,0.924,0],[0,0,0,0],[9E+09,9E+09,9E+09,9E+09,9E+09,9E+09]];
CONST robtarget Target_136:=[[206.4534277594402, 444.26698500316036, 3.0],[0,0.383,0.924,0],[0,0,0,0],[9E+09,9E+09,9E+09,9E+09,9E+09,9E+09]];
CONST robtarget Target_137:=[[204.47053803669257, 444.00593261872024, 3.0],[0,0.383,0.924,0],[0,0,0,0],[9E+09,9E+09,9E+09,9E+09,9E+09,9E+09]];
CONST robtarget Target_138:=[[202.48764831394496, 443.7448802342801, 3.0],[0,0.383,0.924,0],[0,0,0,0],[9E+09,9E+09,9E+09,9E+09,9E+09,9E+09]];
CONST robtarget Target_139:=[[200.50475859119734, 443.48382784984005, 3.0],[0,0.383,0.924,0],[0,0,0,0],[9E+09,9E+09,9E+09,9E+09,9E+09,9E+09]];
CONST robtarget Target_140:=[[198.5218688684497, 443.2227754653999, 3.0],[0,0.383,0.924,0],[0,0,0,0],[9E+09,9E+09,9E+09,9E+09,9E+09,9E+09]];
CONST robtarget Target_141:=[[196.65464132739996, 442.5300659423491, 3.0],[0,0.383,0.924,0],[0,0,0,0],[9E+09,9E+09,9E+09,9E+09,9E+09,9E+09]];
CONST robtarget Target_142:=[[194.8068822623774, 441.7646990776189, 3.0],[0,0.383,0.924,0],[0,0,0,0],[9E+09,9E+09,9E+09,9E+09,9E+09,9E+09]];
CONST robtarget Target_143:=[[192.9591231973548, 440.9993322128887, 3.0],[0,0.383,0.924,0],[0,0,0,0],[9E+09,9E+09,9E+09,9E+09,9E+09,9E+09]];
CONST robtarget Target_144:=[[191.11136413233226, 440.23396534815856, 3.0],[0,0.383,0.924,0],[0,0,0,0],[9E+09,9E+09,9E+09,9E+09,9E+09,9E+09]];
CONST robtarget Target_145:=[[189.26360506730967, 439.46859848342837, 3.0],[0,0.383,0.924,0],[0,0,0,0],[9E+09,9E+09,9E+09,9E+09,9E+09,9E+09]];
CONST robtarget Target_146:=[[187.41584600228708, 438.70323161869817, 3.0],[0,0.383,0.924,0],[0,0,0,0],[9E+09,9E+09,9E+09,9E+09,9E+09,9E+09]];
CONST robtarget Target_147:=[[185.56808693726452, 437.93786475396803, 3.0],[0,0.383,0.924,0],[0,0,0,0],[9E+09,9E+09,9E+09,9E+09,9E+09,9E+09]];
CONST robtarget Target_148:=[[183.72032787224194, 437.17249788923783, 3.0],[0,0.383,0.924,0],[0,0,0,0],[9E+09,9E+09,9E+09,9E+09,9E+09,9E+09]];
CONST robtarget Target_149:=[[181.87256880721935, 436.40713102450763, 3.0],[0,0.383,0.924,0],[0,0,0,0],[9E+09,9E+09,9E+09,9E+09,9E+09,9E+09]];
CONST robtarget Target_150:=[[180.0248097421968, 435.6417641597775, 3.0],[0,0.383,0.924,0],[0,0,0,0],[9E+09,9E+09,9E+09,9E+09,9E+09,9E+09]];
CONST robtarget Target_151:=[[178.17705067717424, 434.8763972950473, 3.0],[0,0.383,0.924,0],[0,0,0,0],[9E+09,9E+09,9E+09,9E+09,9E+09,9E+09]];
CONST robtarget Target_152:=[[176.32929161215165, 434.1110304303171, 3.0],[0,0.383,0.924,0],[0,0,0,0],[9E+09,9E+09,9E+09,9E+09,9E+09,9E+09]];
CONST robtarget Target_153:=[[174.48153254712906, 433.34566356558696, 3.0],[0,0.383,0.924,0],[0,0,0,0],[9E+09,9E+09,9E+09,9E+09,9E+09,9E+09]];
CONST robtarget Target_154:=[[172.6337734821065, 432.58029670085676, 3.0],[0,0.383,0.924,0],[0,0,0,0],[9E+09,9E+09,9E+09,9E+09,9E+09,9E+09]];
CONST robtarget Target_155:=[[170.78601441708392, 431.81492983612657, 3.0],[0,0.383,0.924,0],[0,0,0,0],[9E+09,9E+09,9E+09,9E+09,9E+09,9E+09]];
CONST robtarget Target_156:=[[168.93825535206133, 431.0495629713964, 3.0],[0,0.383,0.924,0],[0,0,0,0],[9E+09,9E+09,9E+09,9E+09,9E+09,9E+09]];
CONST robtarget Target_157:=[[167.09049628703877, 430.2841961066662, 3.0],[0,0.383,0.924,0],[0,0,0,0],[9E+09,9E+09,9E+09,9E+09,9E+09,9E+09]];
CONST robtarget Target_158:=[[165.24273722201622, 429.51882924193603, 3.0],[0,0.383,0.924,0],[0,0,0,0],[9E+09,9E+09,9E+09,9E+09,9E+09,9E+09]];
CONST robtarget Target_159:=[[163.39497815699363, 428.7534623772059, 3.0],[0,0.383,0.924,0],[0,0,0,0],[9E+09,9E+09,9E+09,9E+09,9E+09,9E+09]];
CONST robtarget Target_160:=[[161.54721909197104, 427.98809551247564, 3.0],[0,0.383,0.924,0],[0,0,0,0],[9E+09,9E+09,9E+09,9E+09,9E+09,9E+09]];
CONST robtarget Target_161:=[[159.6994600269485, 427.2227286477455, 3.0],[0,0.383,0.924,0],[0,0,0,0],[9E+09,9E+09,9E+09,9E+09,9E+09,9E+09]];
CONST robtarget Target_162:=[[157.8517009619259, 426.45736178301536, 3.0],[0,0.383,0.924,0],[0,0,0,0],[9E+09,9E+09,9E+09,9E+09,9E+09,9E+09]];
CONST robtarget Target_163:=[[156.0039418969033, 425.6919949182851, 3.0],[0,0.383,0.924,0],[0,0,0,0],[9E+09,9E+09,9E+09,9E+09,9E+09,9E+09]];
CONST robtarget Target_164:=[[154.15618283188076, 424.92662805355496, 3.0],[0,0.383,0.924,0],[0,0,0,0],[9E+09,9E+09,9E+09,9E+09,9E+09,9E+09]];
CONST robtarget Target_165:=[[152.3084237668582, 424.16126118882477, 3.0],[0,0.383,0.924,0],[0,0,0,0],[9E+09,9E+09,9E+09,9E+09,9E+09,9E+09]];
CONST robtarget Target_166:=[[150.4606647018356, 423.39589432409457, 3.0],[0,0.383,0.924,0],[0,0,0,0],[9E+09,9E+09,9E+09,9E+09,9E+09,9E+09]];
CONST robtarget Target_167:=[[148.8088750669232, 422.29109844968326, 3.0],[0,0.383,0.924,0],[0,0,0,0],[9E+09,9E+09,9E+09,9E+09,9E+09,9E+09]];
CONST robtarget Target_168:=[[147.22216838634074, 421.0735755916658, 3.0],[0,0.383,0.924,0],[0,0,0,0],[9E+09,9E+09,9E+09,9E+09,9E+09,9E+09]];
CONST robtarget Target_169:=[[145.63546170575827, 419.8560527336484, 3.0],[0,0.383,0.924,0],[0,0,0,0],[9E+09,9E+09,9E+09,9E+09,9E+09,9E+09]];
CONST robtarget Target_170:=[[144.0487550251758, 418.638529875631, 3.0],[0,0.383,0.924,0],[0,0,0,0],[9E+09,9E+09,9E+09,9E+09,9E+09,9E+09]];
CONST robtarget Target_171:=[[142.46204834459334, 417.42100701761353, 3.0],[0,0.383,0.924,0],[0,0,0,0],[9E+09,9E+09,9E+09,9E+09,9E+09,9E+09]];
CONST robtarget Target_172:=[[140.87534166401088, 416.2034841595961, 3.0],[0,0.383,0.924,0],[0,0,0,0],[9E+09,9E+09,9E+09,9E+09,9E+09,9E+09]];
CONST robtarget Target_173:=[[139.28863498342838, 414.98596130157864, 3.0],[0,0.383,0.924,0],[0,0,0,0],[9E+09,9E+09,9E+09,9E+09,9E+09,9E+09]];
CONST robtarget Target_174:=[[137.70192830284591, 413.7684384435612, 3.0],[0,0.383,0.924,0],[0,0,0,0],[9E+09,9E+09,9E+09,9E+09,9E+09,9E+09]];
CONST robtarget Target_175:=[[136.11522162226345, 412.55091558554375, 3.0],[0,0.383,0.924,0],[0,0,0,0],[9E+09,9E+09,9E+09,9E+09,9E+09,9E+09]];
CONST robtarget Target_176:=[[134.52851494168098, 411.3333927275263, 3.0],[0,0.383,0.924,0],[0,0,0,0],[9E+09,9E+09,9E+09,9E+09,9E+09,9E+09]];
CONST robtarget Target_177:=[[132.94180826109852, 410.11586986950886, 3.0],[0,0.383,0.924,0],[0,0,0,0],[9E+09,9E+09,9E+09,9E+09,9E+09,9E+09]];
CONST robtarget Target_178:=[[131.35510158051602, 408.8983470114914, 3.0],[0,0.383,0.924,0],[0,0,0,0],[9E+09,9E+09,9E+09,9E+09,9E+09,9E+09]];
CONST robtarget Target_179:=[[129.76839489993358, 407.68082415347396, 3.0],[0,0.383,0.924,0],[0,0,0,0],[9E+09,9E+09,9E+09,9E+09,9E+09,9E+09]];
CONST robtarget Target_180:=[[128.1816882193511, 406.4633012954565, 3.0],[0,0.383,0.924,0],[0,0,0,0],[9E+09,9E+09,9E+09,9E+09,9E+09,9E+09]];
CONST robtarget Target_181:=[[126.59498153876862, 405.24577843743907, 3.0],[0,0.383,0.924,0],[0,0,0,0],[9E+09,9E+09,9E+09,9E+09,9E+09,9E+09]];
CONST robtarget Target_182:=[[125.00827485818616, 404.0282555794216, 3.0],[0,0.383,0.924,0],[0,0,0,0],[9E+09,9E+09,9E+09,9E+09,9E+09,9E+09]];
CONST robtarget Target_183:=[[123.42156817760369, 402.8107327214042, 3.0],[0,0.383,0.924,0],[0,0,0,0],[9E+09,9E+09,9E+09,9E+09,9E+09,9E+09]];
CONST robtarget Target_184:=[[121.83486149702122, 401.59320986338673, 3.0],[0,0.383,0.924,0],[0,0,0,0],[9E+09,9E+09,9E+09,9E+09,9E+09,9E+09]];
CONST robtarget Target_185:=[[120.24815481643876, 400.3756870053693, 3.0],[0,0.383,0.924,0],[0,0,0,0],[9E+09,9E+09,9E+09,9E+09,9E+09,9E+09]];
CONST robtarget Target_186:=[[118.66144813585626, 399.15816414735184, 3.0],[0,0.383,0.924,0],[0,0,0,0],[9E+09,9E+09,9E+09,9E+09,9E+09,9E+09]];
CONST robtarget Target_187:=[[117.0747414552738, 397.9406412893344, 3.0],[0,0.383,0.924,0],[0,0,0,0],[9E+09,9E+09,9E+09,9E+09,9E+09,9E+09]];
CONST robtarget Target_188:=[[115.48803477469133, 396.723118431317, 3.0],[0,0.383,0.924,0],[0,0,0,0],[9E+09,9E+09,9E+09,9E+09,9E+09,9E+09]];
CONST robtarget Target_189:=[[113.90132809410886, 395.50559557329956, 3.0],[0,0.383,0.924,0],[0,0,0,0],[9E+09,9E+09,9E+09,9E+09,9E+09,9E+09]];
CONST robtarget Target_190:=[[112.3146214135264, 394.2880727152821, 3.0],[0,0.383,0.924,0],[0,0,0,0],[9E+09,9E+09,9E+09,9E+09,9E+09,9E+09]];
CONST robtarget Target_191:=[[110.72791473294393, 393.07054985726467, 3.0],[0,0.383,0.924,0],[0,0,0,0],[9E+09,9E+09,9E+09,9E+09,9E+09,9E+09]];
CONST robtarget Target_192:=[[109.14120805236143, 391.8530269992472, 3.0],[0,0.383,0.924,0],[0,0,0,0],[9E+09,9E+09,9E+09,9E+09,9E+09,9E+09]];
CONST robtarget Target_193:=[[107.79279166661078, 390.39721384639796, 3.0],[0,0.383,0.924,0],[0,0,0,0],[9E+09,9E+09,9E+09,9E+09,9E+09,9E+09]];
CONST robtarget Target_194:=[[106.57526880859336, 388.81050716581547, 3.0],[0,0.383,0.924,0],[0,0,0,0],[9E+09,9E+09,9E+09,9E+09,9E+09,9E+09]];
CONST robtarget Target_195:=[[105.35774595057592, 387.223800485233, 3.0],[0,0.383,0.924,0],[0,0,0,0],[9E+09,9E+09,9E+09,9E+09,9E+09,9E+09]];
CONST robtarget Target_196:=[[104.14022309255847, 385.6370938046506, 3.0],[0,0.383,0.924,0],[0,0,0,0],[9E+09,9E+09,9E+09,9E+09,9E+09,9E+09]];
CONST robtarget Target_197:=[[102.92270023454103, 384.0503871240681, 3.0],[0,0.383,0.924,0],[0,0,0,0],[9E+09,9E+09,9E+09,9E+09,9E+09,9E+09]];
CONST robtarget Target_198:=[[101.70517737652358, 382.4636804434856, 3.0],[0,0.383,0.924,0],[0,0,0,0],[9E+09,9E+09,9E+09,9E+09,9E+09,9E+09]];
CONST robtarget Target_199:=[[100.48765451850613, 380.87697376290316, 3.0],[0,0.383,0.924,0],[0,0,0,0],[9E+09,9E+09,9E+09,9E+09,9E+09,9E+09]];
CONST robtarget Target_200:=[[99.27013166048869, 379.2902670823207, 3.0],[0,0.383,0.924,0],[0,0,0,0],[9E+09,9E+09,9E+09,9E+09,9E+09,9E+09]];
CONST robtarget Target_201:=[[98.05260880247127, 377.70356040173823, 3.0],[0,0.383,0.924,0],[0,0,0,0],[9E+09,9E+09,9E+09,9E+09,9E+09,9E+09]];
CONST robtarget Target_202:=[[96.83508594445382, 376.11685372115574, 3.0],[0,0.383,0.924,0],[0,0,0,0],[9E+09,9E+09,9E+09,9E+09,9E+09,9E+09]];
CONST robtarget Target_203:=[[95.61756308643638, 374.5301470405733, 3.0],[0,0.383,0.924,0],[0,0,0,0],[9E+09,9E+09,9E+09,9E+09,9E+09,9E+09]];
CONST robtarget Target_204:=[[94.40004022841893, 372.9434403599908, 3.0],[0,0.383,0.924,0],[0,0,0,0],[9E+09,9E+09,9E+09,9E+09,9E+09,9E+09]];
CONST robtarget Target_205:=[[93.18251737040148, 371.3567336794083, 3.0],[0,0.383,0.924,0],[0,0,0,0],[9E+09,9E+09,9E+09,9E+09,9E+09,9E+09]];
CONST robtarget Target_206:=[[91.96499451238404, 369.77002699882587, 3.0],[0,0.383,0.924,0],[0,0,0,0],[9E+09,9E+09,9E+09,9E+09,9E+09,9E+09]];
CONST robtarget Target_207:=[[90.74747165436662, 368.18332031824343, 3.0],[0,0.383,0.924,0],[0,0,0,0],[9E+09,9E+09,9E+09,9E+09,9E+09,9E+09]];
CONST robtarget Target_208:=[[89.52994879634917, 366.59661363766094, 3.0],[0,0.383,0.924,0],[0,0,0,0],[9E+09,9E+09,9E+09,9E+09,9E+09,9E+09]];
CONST robtarget Target_209:=[[88.31242593833173, 365.00990695707844, 3.0],[0,0.383,0.924,0],[0,0,0,0],[9E+09,9E+09,9E+09,9E+09,9E+09,9E+09]];
CONST robtarget Target_210:=[[87.09490308031428, 363.423200276496, 3.0],[0,0.383,0.924,0],[0,0,0,0],[9E+09,9E+09,9E+09,9E+09,9E+09,9E+09]];
CONST robtarget Target_211:=[[85.87738022229684, 361.8364935959135, 3.0],[0,0.383,0.924,0],[0,0,0,0],[9E+09,9E+09,9E+09,9E+09,9E+09,9E+09]];
CONST robtarget Target_212:=[[84.65985736427939, 360.2497869153311, 3.0],[0,0.383,0.924,0],[0,0,0,0],[9E+09,9E+09,9E+09,9E+09,9E+09,9E+09]];
CONST robtarget Target_213:=[[83.44233450626194, 358.6630802347486, 3.0],[0,0.383,0.924,0],[0,0,0,0],[9E+09,9E+09,9E+09,9E+09,9E+09,9E+09]];
CONST robtarget Target_214:=[[82.22481164824453, 357.07637355416614, 3.0],[0,0.383,0.924,0],[0,0,0,0],[9E+09,9E+09,9E+09,9E+09,9E+09,9E+09]];
CONST robtarget Target_215:=[[81.00728879022708, 355.48966687358364, 3.0],[0,0.383,0.924,0],[0,0,0,0],[9E+09,9E+09,9E+09,9E+09,9E+09,9E+09]];
CONST robtarget Target_216:=[[79.78976593220963, 353.90296019300115, 3.0],[0,0.383,0.924,0],[0,0,0,0],[9E+09,9E+09,9E+09,9E+09,9E+09,9E+09]];
CONST robtarget Target_217:=[[78.57224307419219, 352.3162535124187, 3.0],[0,0.383,0.924,0],[0,0,0,0],[9E+09,9E+09,9E+09,9E+09,9E+09,9E+09]];
CONST robtarget Target_218:=[[77.35472021617474, 350.7295468318363, 3.0],[0,0.383,0.924,0],[0,0,0,0],[9E+09,9E+09,9E+09,9E+09,9E+09,9E+09]];
CONST robtarget Target_219:=[[76.38145798147147, 349.00181621463094, 3.0],[0,0.383,0.924,0],[0,0,0,0],[9E+09,9E+09,9E+09,9E+09,9E+09,9E+09]];
CONST robtarget Target_220:=[[75.6160911167413, 347.1540571496083, 3.0],[0,0.383,0.924,0],[0,0,0,0],[9E+09,9E+09,9E+09,9E+09,9E+09,9E+09]];
CONST robtarget Target_221:=[[74.8507242520111, 345.30629808458576, 3.0],[0,0.383,0.924,0],[0,0,0,0],[9E+09,9E+09,9E+09,9E+09,9E+09,9E+09]];
CONST robtarget Target_222:=[[74.08535738728094, 343.4585390195632, 3.0],[0,0.383,0.924,0],[0,0,0,0],[9E+09,9E+09,9E+09,9E+09,9E+09,9E+09]];
CONST robtarget Target_223:=[[73.31999052255077, 341.6107799545406, 3.0],[0,0.383,0.924,0],[0,0,0,0],[9E+09,9E+09,9E+09,9E+09,9E+09,9E+09]];
CONST robtarget Target_224:=[[72.55462365782057, 339.76302088951803, 3.0],[0,0.383,0.924,0],[0,0,0,0],[9E+09,9E+09,9E+09,9E+09,9E+09,9E+09]];
CONST robtarget Target_225:=[[71.7892567930904, 337.9152618244955, 3.0],[0,0.383,0.924,0],[0,0,0,0],[9E+09,9E+09,9E+09,9E+09,9E+09,9E+09]];
CONST robtarget Target_226:=[[71.02388992836023, 336.06750275947286, 3.0],[0,0.383,0.924,0],[0,0,0,0],[9E+09,9E+09,9E+09,9E+09,9E+09,9E+09]];
CONST robtarget Target_227:=[[70.25852306363004, 334.2197436944503, 3.0],[0,0.383,0.924,0],[0,0,0,0],[9E+09,9E+09,9E+09,9E+09,9E+09,9E+09]];
CONST robtarget Target_228:=[[69.49315619889987, 332.37198462942774, 3.0],[0,0.383,0.924,0],[0,0,0,0],[9E+09,9E+09,9E+09,9E+09,9E+09,9E+09]];
CONST robtarget Target_229:=[[68.72778933416967, 330.5242255644052, 3.0],[0,0.383,0.924,0],[0,0,0,0],[9E+09,9E+09,9E+09,9E+09,9E+09,9E+09]];
CONST robtarget Target_230:=[[67.9624224694395, 328.6764664993826, 3.0],[0,0.383,0.924,0],[0,0,0,0],[9E+09,9E+09,9E+09,9E+09,9E+09,9E+09]];
CONST robtarget Target_231:=[[67.1970556047093, 326.82870743436, 3.0],[0,0.383,0.924,0],[0,0,0,0],[9E+09,9E+09,9E+09,9E+09,9E+09,9E+09]];
CONST robtarget Target_232:=[[66.43168873997914, 324.98094836933745, 3.0],[0,0.383,0.924,0],[0,0,0,0],[9E+09,9E+09,9E+09,9E+09,9E+09,9E+09]];
CONST robtarget Target_233:=[[65.66632187524897, 323.1331893043149, 3.0],[0,0.383,0.924,0],[0,0,0,0],[9E+09,9E+09,9E+09,9E+09,9E+09,9E+09]];
CONST robtarget Target_234:=[[64.90095501051877, 321.2854302392923, 3.0],[0,0.383,0.924,0],[0,0,0,0],[9E+09,9E+09,9E+09,9E+09,9E+09,9E+09]];
CONST robtarget Target_235:=[[64.1355881457886, 319.4376711742697, 3.0],[0,0.383,0.924,0],[0,0,0,0],[9E+09,9E+09,9E+09,9E+09,9E+09,9E+09]];
CONST robtarget Target_236:=[[63.370221281058406, 317.58991210924717, 3.0],[0,0.383,0.924,0],[0,0,0,0],[9E+09,9E+09,9E+09,9E+09,9E+09,9E+09]];
CONST robtarget Target_237:=[[62.60485441632824, 315.74215304422455, 3.0],[0,0.383,0.924,0],[0,0,0,0],[9E+09,9E+09,9E+09,9E+09,9E+09,9E+09]];
CONST robtarget Target_238:=[[61.83948755159804, 313.894393979202, 3.0],[0,0.383,0.924,0],[0,0,0,0],[9E+09,9E+09,9E+09,9E+09,9E+09,9E+09]];
CONST robtarget Target_239:=[[61.07412068686787, 312.04663491417944, 3.0],[0,0.383,0.924,0],[0,0,0,0],[9E+09,9E+09,9E+09,9E+09,9E+09,9E+09]];
CONST robtarget Target_240:=[[60.3087538221377, 310.1988758491569, 3.0],[0,0.383,0.924,0],[0,0,0,0],[9E+09,9E+09,9E+09,9E+09,9E+09,9E+09]];
CONST robtarget Target_241:=[[59.543386957407506, 308.35111678413426, 3.0],[0,0.383,0.924,0],[0,0,0,0],[9E+09,9E+09,9E+09,9E+09,9E+09,9E+09]];
CONST robtarget Target_242:=[[58.77802009267734, 306.5033577191117, 3.0],[0,0.383,0.924,0],[0,0,0,0],[9E+09,9E+09,9E+09,9E+09,9E+09,9E+09]];
CONST robtarget Target_243:=[[58.01265322794714, 304.65559865408915, 3.0],[0,0.383,0.924,0],[0,0,0,0],[9E+09,9E+09,9E+09,9E+09,9E+09,9E+09]];
CONST robtarget Target_244:=[[57.24728636321697, 302.8078395890666, 3.0],[0,0.383,0.924,0],[0,0,0,0],[9E+09,9E+09,9E+09,9E+09,9E+09,9E+09]];
CONST robtarget Target_245:=[[56.70128355230713, 300.9013021029744, 3.0],[0,0.383,0.924,0],[0,0,0,0],[9E+09,9E+09,9E+09,9E+09,9E+09,9E+09]];
CONST robtarget Target_246:=[[56.44023116786704, 298.9184123802268, 3.0],[0,0.383,0.924,0],[0,0,0,0],[9E+09,9E+09,9E+09,9E+09,9E+09,9E+09]];
CONST robtarget Target_247:=[[56.17917878342695, 296.93552265747917, 3.0],[0,0.383,0.924,0],[0,0,0,0],[9E+09,9E+09,9E+09,9E+09,9E+09,9E+09]];
CONST robtarget Target_248:=[[55.91812639898683, 294.9526329347315, 3.0],[0,0.383,0.924,0],[0,0,0,0],[9E+09,9E+09,9E+09,9E+09,9E+09,9E+09]];
CONST robtarget Target_249:=[[55.65707401454674, 292.96974321198394, 3.0],[0,0.383,0.924,0],[0,0,0,0],[9E+09,9E+09,9E+09,9E+09,9E+09,9E+09]];
CONST robtarget Target_250:=[[55.39602163010662, 290.9868534892363, 3.0],[0,0.383,0.924,0],[0,0,0,0],[9E+09,9E+09,9E+09,9E+09,9E+09,9E+09]];
CONST robtarget Target_251:=[[55.134969245666525, 289.0039637664887, 3.0],[0,0.383,0.924,0],[0,0,0,0],[9E+09,9E+09,9E+09,9E+09,9E+09,9E+09]];
CONST robtarget Target_252:=[[54.873916861226434, 287.02107404374107, 3.0],[0,0.383,0.924,0],[0,0,0,0],[9E+09,9E+09,9E+09,9E+09,9E+09,9E+09]];
CONST robtarget Target_253:=[[54.612864476786314, 285.0381843209934, 3.0],[0,0.383,0.924,0],[0,0,0,0],[9E+09,9E+09,9E+09,9E+09,9E+09,9E+09]];
CONST robtarget Target_254:=[[54.35181209234622, 283.05529459824584, 3.0],[0,0.383,0.924,0],[0,0,0,0],[9E+09,9E+09,9E+09,9E+09,9E+09,9E+09]];
CONST robtarget Target_255:=[[54.0907597079061, 281.0724048754982, 3.0],[0,0.383,0.924,0],[0,0,0,0],[9E+09,9E+09,9E+09,9E+09,9E+09,9E+09]];
CONST robtarget Target_256:=[[53.82970732346601, 279.08951515275055, 3.0],[0,0.383,0.924,0],[0,0,0,0],[9E+09,9E+09,9E+09,9E+09,9E+09,9E+09]];
CONST robtarget Target_257:=[[53.56865493902592, 277.10662543000296, 3.0],[0,0.383,0.924,0],[0,0,0,0],[9E+09,9E+09,9E+09,9E+09,9E+09,9E+09]];
CONST robtarget Target_258:=[[53.3076025545858, 275.1237357072553, 3.0],[0,0.383,0.924,0],[0,0,0,0],[9E+09,9E+09,9E+09,9E+09,9E+09,9E+09]];
CONST robtarget Target_259:=[[53.04655017014571, 273.14084598450773, 3.0],[0,0.383,0.924,0],[0,0,0,0],[9E+09,9E+09,9E+09,9E+09,9E+09,9E+09]];
CONST robtarget Target_260:=[[52.78549778570559, 271.1579562617601, 3.0],[0,0.383,0.924,0],[0,0,0,0],[9E+09,9E+09,9E+09,9E+09,9E+09,9E+09]];
CONST robtarget Target_261:=[[52.524445401265496, 269.17506653901245, 3.0],[0,0.383,0.924,0],[0,0,0,0],[9E+09,9E+09,9E+09,9E+09,9E+09,9E+09]];
CONST robtarget Target_262:=[[52.263393016825376, 267.19217681626486, 3.0],[0,0.383,0.924,0],[0,0,0,0],[9E+09,9E+09,9E+09,9E+09,9E+09,9E+09]];
CONST robtarget Target_263:=[[52.002340632385284, 265.2092870935172, 3.0],[0,0.383,0.924,0],[0,0,0,0],[9E+09,9E+09,9E+09,9E+09,9E+09,9E+09]];
CONST robtarget Target_264:=[[51.74128824794519, 263.22639737076963, 3.0],[0,0.383,0.924,0],[0,0,0,0],[9E+09,9E+09,9E+09,9E+09,9E+09,9E+09]];
CONST robtarget Target_265:=[[51.48023586350507, 261.243507648022, 3.0],[0,0.383,0.924,0],[0,0,0,0],[9E+09,9E+09,9E+09,9E+09,9E+09,9E+09]];
CONST robtarget Target_266:=[[51.21918347906498, 259.26061792527435, 3.0],[0,0.383,0.924,0],[0,0,0,0],[9E+09,9E+09,9E+09,9E+09,9E+09,9E+09]];
CONST robtarget Target_267:=[[50.95813109462486, 257.27772820252676, 3.0],[0,0.383,0.924,0],[0,0,0,0],[9E+09,9E+09,9E+09,9E+09,9E+09,9E+09]];
CONST robtarget Target_268:=[[50.69707871018477, 255.29483847977912, 3.0],[0,0.383,0.924,0],[0,0,0,0],[9E+09,9E+09,9E+09,9E+09,9E+09,9E+09]];
CONST robtarget Target_269:=[[50.43602632574468, 253.3119487570315, 3.0],[0,0.383,0.924,0],[0,0,0,0],[9E+09,9E+09,9E+09,9E+09,9E+09,9E+09]];
CONST robtarget Target_270:=[[50.17497394130456, 251.3290590342839, 3.0],[0,0.383,0.924,0],[0,0,0,0],[9E+09,9E+09,9E+09,9E+09,9E+09,9E+09]];
CONST robtarget Target_271:=[[50.086078443135534, 249.34616931153624, 3.0],[0,0.383,0.924,0],[0,0,0,0],[9E+09,9E+09,9E+09,9E+09,9E+09,9E+09]];
CONST robtarget Target_272:=[[50.347130827575654, 247.36327958878863, 3.0],[0,0.383,0.924,0],[0,0,0,0],[9E+09,9E+09,9E+09,9E+09,9E+09,9E+09]];
CONST robtarget Target_273:=[[50.608183212015746, 245.380389866041, 3.0],[0,0.383,0.924,0],[0,0,0,0],[9E+09,9E+09,9E+09,9E+09,9E+09,9E+09]];
CONST robtarget Target_274:=[[50.86923559645584, 243.3975001432934, 3.0],[0,0.383,0.924,0],[0,0,0,0],[9E+09,9E+09,9E+09,9E+09,9E+09,9E+09]];
CONST robtarget Target_275:=[[51.13028798089596, 241.41461042054578, 3.0],[0,0.383,0.924,0],[0,0,0,0],[9E+09,9E+09,9E+09,9E+09,9E+09,9E+09]];
CONST robtarget Target_276:=[[51.39134036533605, 239.43172069779814, 3.0],[0,0.383,0.924,0],[0,0,0,0],[9E+09,9E+09,9E+09,9E+09,9E+09,9E+09]];
CONST robtarget Target_277:=[[51.65239274977617, 237.44883097505053, 3.0],[0,0.383,0.924,0],[0,0,0,0],[9E+09,9E+09,9E+09,9E+09,9E+09,9E+09]];
CONST robtarget Target_278:=[[51.91344513421626, 235.4659412523029, 3.0],[0,0.383,0.924,0],[0,0,0,0],[9E+09,9E+09,9E+09,9E+09,9E+09,9E+09]];
CONST robtarget Target_279:=[[52.17449751865635, 233.4830515295553, 3.0],[0,0.383,0.924,0],[0,0,0,0],[9E+09,9E+09,9E+09,9E+09,9E+09,9E+09]];
CONST robtarget Target_280:=[[52.43554990309647, 231.50016180680768, 3.0],[0,0.383,0.924,0],[0,0,0,0],[9E+09,9E+09,9E+09,9E+09,9E+09,9E+09]];
CONST robtarget Target_281:=[[52.696602287536564, 229.51727208406004, 3.0],[0,0.383,0.924,0],[0,0,0,0],[9E+09,9E+09,9E+09,9E+09,9E+09,9E+09]];
CONST robtarget Target_282:=[[52.957654671976684, 227.53438236131242, 3.0],[0,0.383,0.924,0],[0,0,0,0],[9E+09,9E+09,9E+09,9E+09,9E+09,9E+09]];
CONST robtarget Target_283:=[[53.218707056416775, 225.5514926385648, 3.0],[0,0.383,0.924,0],[0,0,0,0],[9E+09,9E+09,9E+09,9E+09,9E+09,9E+09]];
CONST robtarget Target_284:=[[53.47975944085687, 223.5686029158172, 3.0],[0,0.383,0.924,0],[0,0,0,0],[9E+09,9E+09,9E+09,9E+09,9E+09,9E+09]];
CONST robtarget Target_285:=[[53.74081182529699, 221.58571319306958, 3.0],[0,0.383,0.924,0],[0,0,0,0],[9E+09,9E+09,9E+09,9E+09,9E+09,9E+09]];
CONST robtarget Target_286:=[[54.00186420973708, 219.60282347032194, 3.0],[0,0.383,0.924,0],[0,0,0,0],[9E+09,9E+09,9E+09,9E+09,9E+09,9E+09]];
CONST robtarget Target_287:=[[54.26291659417717, 217.61993374757432, 3.0],[0,0.383,0.924,0],[0,0,0,0],[9E+09,9E+09,9E+09,9E+09,9E+09,9E+09]];
CONST robtarget Target_288:=[[54.52396897861729, 215.6370440248267, 3.0],[0,0.383,0.924,0],[0,0,0,0],[9E+09,9E+09,9E+09,9E+09,9E+09,9E+09]];
CONST robtarget Target_289:=[[54.78502136305738, 213.6541543020791, 3.0],[0,0.383,0.924,0],[0,0,0,0],[9E+09,9E+09,9E+09,9E+09,9E+09,9E+09]];
CONST robtarget Target_290:=[[55.0460737474975, 211.67126457933148, 3.0],[0,0.383,0.924,0],[0,0,0,0],[9E+09,9E+09,9E+09,9E+09,9E+09,9E+09]];
CONST robtarget Target_291:=[[55.30712613193759, 209.68837485658383, 3.0],[0,0.383,0.924,0],[0,0,0,0],[9E+09,9E+09,9E+09,9E+09,9E+09,9E+09]];
CONST robtarget Target_292:=[[55.568178516377685, 207.70548513383622, 3.0],[0,0.383,0.924,0],[0,0,0,0],[9E+09,9E+09,9E+09,9E+09,9E+09,9E+09]];
CONST robtarget Target_293:=[[55.829230900817805, 205.7225954110886, 3.0],[0,0.383,0.924,0],[0,0,0,0],[9E+09,9E+09,9E+09,9E+09,9E+09,9E+09]];
CONST robtarget Target_294:=[[56.0902832852579, 203.739705688341, 3.0],[0,0.383,0.924,0],[0,0,0,0],[9E+09,9E+09,9E+09,9E+09,9E+09,9E+09]];
CONST robtarget Target_295:=[[56.35133566969802, 201.75681596559338, 3.0],[0,0.383,0.924,0],[0,0,0,0],[9E+09,9E+09,9E+09,9E+09,9E+09,9E+09]];
CONST robtarget Target_296:=[[56.61238805413811, 199.77392624284573, 3.0],[0,0.383,0.924,0],[0,0,0,0],[9E+09,9E+09,9E+09,9E+09,9E+09,9E+09]];
CONST robtarget Target_297:=[[56.98665795000338, 197.82137306085357, 3.0],[0,0.383,0.924,0],[0,0,0,0],[9E+09,9E+09,9E+09,9E+09,9E+09,9E+09]];
CONST robtarget Target_298:=[[57.752024814733545, 195.973613995831, 3.0],[0,0.383,0.924,0],[0,0,0,0],[9E+09,9E+09,9E+09,9E+09,9E+09,9E+09]];
CONST robtarget Target_299:=[[58.517391679463714, 194.12585493080843, 3.0],[0,0.383,0.924,0],[0,0,0,0],[9E+09,9E+09,9E+09,9E+09,9E+09,9E+09]];
CONST robtarget Target_300:=[[59.28275854419391, 192.27809586578584, 3.0],[0,0.383,0.924,0],[0,0,0,0],[9E+09,9E+09,9E+09,9E+09,9E+09,9E+09]];
CONST robtarget Target_301:=[[60.04812540892408, 190.43033680076326, 3.0],[0,0.383,0.924,0],[0,0,0,0],[9E+09,9E+09,9E+09,9E+09,9E+09,9E+09]];
CONST robtarget Target_302:=[[60.81349227365425, 188.5825777357407, 3.0],[0,0.383,0.924,0],[0,0,0,0],[9E+09,9E+09,9E+09,9E+09,9E+09,9E+09]];
CONST robtarget Target_303:=[[61.578859138384445, 186.73481867071814, 3.0],[0,0.383,0.924,0],[0,0,0,0],[9E+09,9E+09,9E+09,9E+09,9E+09,9E+09]];
CONST robtarget Target_304:=[[62.34422600311461, 184.88705960569555, 3.0],[0,0.383,0.924,0],[0,0,0,0],[9E+09,9E+09,9E+09,9E+09,9E+09,9E+09]];
CONST robtarget Target_305:=[[63.10959286784481, 183.039300540673, 3.0],[0,0.383,0.924,0],[0,0,0,0],[9E+09,9E+09,9E+09,9E+09,9E+09,9E+09]];
CONST robtarget Target_306:=[[63.87495973257498, 181.1915414756504, 3.0],[0,0.383,0.924,0],[0,0,0,0],[9E+09,9E+09,9E+09,9E+09,9E+09,9E+09]];
CONST robtarget Target_307:=[[64.64032659730515, 179.34378241062785, 3.0],[0,0.383,0.924,0],[0,0,0,0],[9E+09,9E+09,9E+09,9E+09,9E+09,9E+09]];
CONST robtarget Target_308:=[[65.40569346203534, 177.49602334560527, 3.0],[0,0.383,0.924,0],[0,0,0,0],[9E+09,9E+09,9E+09,9E+09,9E+09,9E+09]];
CONST robtarget Target_309:=[[66.17106032676551, 175.6482642805827, 3.0],[0,0.383,0.924,0],[0,0,0,0],[9E+09,9E+09,9E+09,9E+09,9E+09,9E+09]];
CONST robtarget Target_310:=[[66.93642719149568, 173.80050521556012, 3.0],[0,0.383,0.924,0],[0,0,0,0],[9E+09,9E+09,9E+09,9E+09,9E+09,9E+09]];
CONST robtarget Target_311:=[[67.70179405622588, 171.95274615053756, 3.0],[0,0.383,0.924,0],[0,0,0,0],[9E+09,9E+09,9E+09,9E+09,9E+09,9E+09]];
CONST robtarget Target_312:=[[68.46716092095605, 170.10498708551498, 3.0],[0,0.383,0.924,0],[0,0,0,0],[9E+09,9E+09,9E+09,9E+09,9E+09,9E+09]];
CONST robtarget Target_313:=[[69.23252778568622, 168.2572280204924, 3.0],[0,0.383,0.924,0],[0,0,0,0],[9E+09,9E+09,9E+09,9E+09,9E+09,9E+09]];
CONST robtarget Target_314:=[[69.99789465041641, 166.40946895546983, 3.0],[0,0.383,0.924,0],[0,0,0,0],[9E+09,9E+09,9E+09,9E+09,9E+09,9E+09]];
CONST robtarget Target_315:=[[70.76326151514658, 164.56170989044728, 3.0],[0,0.383,0.924,0],[0,0,0,0],[9E+09,9E+09,9E+09,9E+09,9E+09,9E+09]];
CONST robtarget Target_316:=[[71.52862837987675, 162.7139508254247, 3.0],[0,0.383,0.924,0],[0,0,0,0],[9E+09,9E+09,9E+09,9E+09,9E+09,9E+09]];
CONST robtarget Target_317:=[[72.29399524460695, 160.8661917604021, 3.0],[0,0.383,0.924,0],[0,0,0,0],[9E+09,9E+09,9E+09,9E+09,9E+09,9E+09]];
CONST robtarget Target_318:=[[73.05936210933712, 159.01843269537954, 3.0],[0,0.383,0.924,0],[0,0,0,0],[9E+09,9E+09,9E+09,9E+09,9E+09,9E+09]];
CONST robtarget Target_319:=[[73.82472897406728, 157.170673630357, 3.0],[0,0.383,0.924,0],[0,0,0,0],[9E+09,9E+09,9E+09,9E+09,9E+09,9E+09]];
CONST robtarget Target_320:=[[74.59009583879748, 155.3229145653344, 3.0],[0,0.383,0.924,0],[0,0,0,0],[9E+09,9E+09,9E+09,9E+09,9E+09,9E+09]];
CONST robtarget Target_321:=[[75.35546270352765, 153.4751555003118, 3.0],[0,0.383,0.924,0],[0,0,0,0],[9E+09,9E+09,9E+09,9E+09,9E+09,9E+09]];
CONST robtarget Target_322:=[[76.12082956825782, 151.62739643528926, 3.0],[0,0.383,0.924,0],[0,0,0,0],[9E+09,9E+09,9E+09,9E+09,9E+09,9E+09]];
CONST robtarget Target_323:=[[76.9401202835682, 149.81077031991492, 3.0],[0,0.383,0.924,0],[0,0,0,0],[9E+09,9E+09,9E+09,9E+09,9E+09,9E+09]];
CONST robtarget Target_324:=[[78.15764314158565, 148.22406363933243, 3.0],[0,0.383,0.924,0],[0,0,0,0],[9E+09,9E+09,9E+09,9E+09,9E+09,9E+09]];
CONST robtarget Target_325:=[[79.3751659996031, 146.63735695874996, 3.0],[0,0.383,0.924,0],[0,0,0,0],[9E+09,9E+09,9E+09,9E+09,9E+09,9E+09]];
CONST robtarget Target_326:=[[80.59268885762052, 145.0506502781675, 3.0],[0,0.383,0.924,0],[0,0,0,0],[9E+09,9E+09,9E+09,9E+09,9E+09,9E+09]];
CONST robtarget Target_327:=[[81.81021171563796, 143.46394359758503, 3.0],[0,0.383,0.924,0],[0,0,0,0],[9E+09,9E+09,9E+09,9E+09,9E+09,9E+09]];
CONST robtarget Target_328:=[[83.02773457365541, 141.87723691700256, 3.0],[0,0.383,0.924,0],[0,0,0,0],[9E+09,9E+09,9E+09,9E+09,9E+09,9E+09]];
CONST robtarget Target_329:=[[84.24525743167285, 140.29053023642007, 3.0],[0,0.383,0.924,0],[0,0,0,0],[9E+09,9E+09,9E+09,9E+09,9E+09,9E+09]];
CONST robtarget Target_330:=[[85.4627802896903, 138.70382355583763, 3.0],[0,0.383,0.924,0],[0,0,0,0],[9E+09,9E+09,9E+09,9E+09,9E+09,9E+09]];
CONST robtarget Target_331:=[[86.68030314770772, 137.11711687525514, 3.0],[0,0.383,0.924,0],[0,0,0,0],[9E+09,9E+09,9E+09,9E+09,9E+09,9E+09]];
CONST robtarget Target_332:=[[87.89782600572516, 135.53041019467267, 3.0],[0,0.383,0.924,0],[0,0,0,0],[9E+09,9E+09,9E+09,9E+09,9E+09,9E+09]];
CONST robtarget Target_333:=[[89.11534886374261, 133.9437035140902, 3.0],[0,0.383,0.924,0],[0,0,0,0],[9E+09,9E+09,9E+09,9E+09,9E+09,9E+09]];
CONST robtarget Target_334:=[[90.33287172176006, 132.35699683350774, 3.0],[0,0.383,0.924,0],[0,0,0,0],[9E+09,9E+09,9E+09,9E+09,9E+09,9E+09]];
CONST robtarget Target_335:=[[91.5503945797775, 130.77029015292527, 3.0],[0,0.383,0.924,0],[0,0,0,0],[9E+09,9E+09,9E+09,9E+09,9E+09,9E+09]];
CONST robtarget Target_336:=[[92.76791743779495, 129.18358347234278, 3.0],[0,0.383,0.924,0],[0,0,0,0],[9E+09,9E+09,9E+09,9E+09,9E+09,9E+09]];
CONST robtarget Target_337:=[[93.98544029581237, 127.59687679176031, 3.0],[0,0.383,0.924,0],[0,0,0,0],[9E+09,9E+09,9E+09,9E+09,9E+09,9E+09]];
CONST robtarget Target_338:=[[95.20296315382981, 126.01017011117784, 3.0],[0,0.383,0.924,0],[0,0,0,0],[9E+09,9E+09,9E+09,9E+09,9E+09,9E+09]];
CONST robtarget Target_339:=[[96.42048601184726, 124.42346343059538, 3.0],[0,0.383,0.924,0],[0,0,0,0],[9E+09,9E+09,9E+09,9E+09,9E+09,9E+09]];
CONST robtarget Target_340:=[[97.6380088698647, 122.83675675001291, 3.0],[0,0.383,0.924,0],[0,0,0,0],[9E+09,9E+09,9E+09,9E+09,9E+09,9E+09]];
CONST robtarget Target_341:=[[98.85553172788215, 121.25005006943044, 3.0],[0,0.383,0.924,0],[0,0,0,0],[9E+09,9E+09,9E+09,9E+09,9E+09,9E+09]];
CONST robtarget Target_342:=[[100.07305458589957, 119.66334338884798, 3.0],[0,0.383,0.924,0],[0,0,0,0],[9E+09,9E+09,9E+09,9E+09,9E+09,9E+09]];
CONST robtarget Target_343:=[[101.29057744391702, 118.07663670826548, 3.0],[0,0.383,0.924,0],[0,0,0,0],[9E+09,9E+09,9E+09,9E+09,9E+09,9E+09]];
CONST robtarget Target_344:=[[102.50810030193446, 116.48993002768302, 3.0],[0,0.383,0.924,0],[0,0,0,0],[9E+09,9E+09,9E+09,9E+09,9E+09,9E+09]];
CONST robtarget Target_345:=[[103.72562315995191, 114.90322334710055, 3.0],[0,0.383,0.924,0],[0,0,0,0],[9E+09,9E+09,9E+09,9E+09,9E+09,9E+09]];
CONST robtarget Target_346:=[[104.94314601796935, 113.31651666651808, 3.0],[0,0.383,0.924,0],[0,0,0,0],[9E+09,9E+09,9E+09,9E+09,9E+09,9E+09]];
CONST robtarget Target_347:=[[106.16066887598677, 111.72980998593562, 3.0],[0,0.383,0.924,0],[0,0,0,0],[9E+09,9E+09,9E+09,9E+09,9E+09,9E+09]];
CONST robtarget Target_348:=[[107.37819173400422, 110.14310330535315, 3.0],[0,0.383,0.924,0],[0,0,0,0],[9E+09,9E+09,9E+09,9E+09,9E+09,9E+09]];
CONST robtarget Target_349:=[[108.60089090061035, 108.56157293335934, 3.0],[0,0.383,0.924,0],[0,0,0,0],[9E+09,9E+09,9E+09,9E+09,9E+09,9E+09]];
CONST robtarget Target_350:=[[110.18759758119282, 107.3440500753419, 3.0],[0,0.383,0.924,0],[0,0,0,0],[9E+09,9E+09,9E+09,9E+09,9E+09,9E+09]];
CONST robtarget Target_351:=[[111.77430426177528, 106.12652721732445, 3.0],[0,0.383,0.924,0],[0,0,0,0],[9E+09,9E+09,9E+09,9E+09,9E+09,9E+09]];
CONST robtarget Target_352:=[[113.36101094235775, 104.909004359307, 3.0],[0,0.383,0.924,0],[0,0,0,0],[9E+09,9E+09,9E+09,9E+09,9E+09,9E+09]];
CONST robtarget Target_353:=[[114.94771762294022, 103.69148150128956, 3.0],[0,0.383,0.924,0],[0,0,0,0],[9E+09,9E+09,9E+09,9E+09,9E+09,9E+09]];
CONST robtarget Target_354:=[[116.53442430352268, 102.47395864327211, 3.0],[0,0.383,0.924,0],[0,0,0,0],[9E+09,9E+09,9E+09,9E+09,9E+09,9E+09]];
CONST robtarget Target_355:=[[118.12113098410515, 101.2564357852547, 3.0],[0,0.383,0.924,0],[0,0,0,0],[9E+09,9E+09,9E+09,9E+09,9E+09,9E+09]];
CONST robtarget Target_356:=[[119.70783766468764, 100.03891292723725, 3.0],[0,0.383,0.924,0],[0,0,0,0],[9E+09,9E+09,9E+09,9E+09,9E+09,9E+09]];
CONST robtarget Target_357:=[[121.29454434527011, 98.8213900692198, 3.0],[0,0.383,0.924,0],[0,0,0,0],[9E+09,9E+09,9E+09,9E+09,9E+09,9E+09]];
CONST robtarget Target_358:=[[122.88125102585258, 97.60386721120236, 3.0],[0,0.383,0.924,0],[0,0,0,0],[9E+09,9E+09,9E+09,9E+09,9E+09,9E+09]];
CONST robtarget Target_359:=[[124.46795770643504, 96.38634435318491, 3.0],[0,0.383,0.924,0],[0,0,0,0],[9E+09,9E+09,9E+09,9E+09,9E+09,9E+09]];
CONST robtarget Target_360:=[[126.05466438701751, 95.16882149516746, 3.0],[0,0.383,0.924,0],[0,0,0,0],[9E+09,9E+09,9E+09,9E+09,9E+09,9E+09]];
CONST robtarget Target_361:=[[127.64137106759999, 93.95129863715002, 3.0],[0,0.383,0.924,0],[0,0,0,0],[9E+09,9E+09,9E+09,9E+09,9E+09,9E+09]];
CONST robtarget Target_362:=[[129.22807774818244, 92.73377577913257, 3.0],[0,0.383,0.924,0],[0,0,0,0],[9E+09,9E+09,9E+09,9E+09,9E+09,9E+09]];
CONST robtarget Target_363:=[[130.81478442876494, 91.51625292111515, 3.0],[0,0.383,0.924,0],[0,0,0,0],[9E+09,9E+09,9E+09,9E+09,9E+09,9E+09]];
CONST robtarget Target_364:=[[132.4014911093474, 90.29873006309771, 3.0],[0,0.383,0.924,0],[0,0,0,0],[9E+09,9E+09,9E+09,9E+09,9E+09,9E+09]];
CONST robtarget Target_365:=[[133.98819778992987, 89.08120720508026, 3.0],[0,0.383,0.924,0],[0,0,0,0],[9E+09,9E+09,9E+09,9E+09,9E+09,9E+09]];
CONST robtarget Target_366:=[[135.57490447051234, 87.86368434706282, 3.0],[0,0.383,0.924,0],[0,0,0,0],[9E+09,9E+09,9E+09,9E+09,9E+09,9E+09]];
CONST robtarget Target_367:=[[137.1616111510948, 86.64616148904537, 3.0],[0,0.383,0.924,0],[0,0,0,0],[9E+09,9E+09,9E+09,9E+09,9E+09,9E+09]];
CONST robtarget Target_368:=[[138.7483178316773, 85.42863863102792, 3.0],[0,0.383,0.924,0],[0,0,0,0],[9E+09,9E+09,9E+09,9E+09,9E+09,9E+09]];
CONST robtarget Target_369:=[[140.33502451225974, 84.21111577301048, 3.0],[0,0.383,0.924,0],[0,0,0,0],[9E+09,9E+09,9E+09,9E+09,9E+09,9E+09]];
CONST robtarget Target_370:=[[141.92173119284223, 82.99359291499303, 3.0],[0,0.383,0.924,0],[0,0,0,0],[9E+09,9E+09,9E+09,9E+09,9E+09,9E+09]];
CONST robtarget Target_371:=[[143.5084378734247, 81.77607005697558, 3.0],[0,0.383,0.924,0],[0,0,0,0],[9E+09,9E+09,9E+09,9E+09,9E+09,9E+09]];
CONST robtarget Target_372:=[[145.09514455400716, 80.55854719895817, 3.0],[0,0.383,0.924,0],[0,0,0,0],[9E+09,9E+09,9E+09,9E+09,9E+09,9E+09]];
CONST robtarget Target_373:=[[146.68185123458963, 79.34102434094072, 3.0],[0,0.383,0.924,0],[0,0,0,0],[9E+09,9E+09,9E+09,9E+09,9E+09,9E+09]];
CONST robtarget Target_374:=[[148.2685579151721, 78.12350148292327, 3.0],[0,0.383,0.924,0],[0,0,0,0],[9E+09,9E+09,9E+09,9E+09,9E+09,9E+09]];
CONST robtarget Target_375:=[[149.8552645957546, 76.90597862490583, 3.0],[0,0.383,0.924,0],[0,0,0,0],[9E+09,9E+09,9E+09,9E+09,9E+09,9E+09]];
CONST robtarget Target_376:=[[151.67921111693806, 76.09936722438889, 3.0],[0,0.383,0.924,0],[0,0,0,0],[9E+09,9E+09,9E+09,9E+09,9E+09,9E+09]];
CONST robtarget Target_377:=[[153.52697018196062, 75.33400035965869, 3.0],[0,0.383,0.924,0],[0,0,0,0],[9E+09,9E+09,9E+09,9E+09,9E+09,9E+09]];
CONST robtarget Target_378:=[[155.3747292469832, 74.56863349492852, 3.0],[0,0.383,0.924,0],[0,0,0,0],[9E+09,9E+09,9E+09,9E+09,9E+09,9E+09]];
CONST robtarget Target_379:=[[157.2224883120058, 73.80326663019832, 3.0],[0,0.383,0.924,0],[0,0,0,0],[9E+09,9E+09,9E+09,9E+09,9E+09,9E+09]];
CONST robtarget Target_380:=[[159.07024737702835, 73.03789976546815, 3.0],[0,0.383,0.924,0],[0,0,0,0],[9E+09,9E+09,9E+09,9E+09,9E+09,9E+09]];
CONST robtarget Target_381:=[[160.9180064420509, 72.27253290073799, 3.0],[0,0.383,0.924,0],[0,0,0,0],[9E+09,9E+09,9E+09,9E+09,9E+09,9E+09]];
CONST robtarget Target_382:=[[162.7657655070735, 71.50716603600779, 3.0],[0,0.383,0.924,0],[0,0,0,0],[9E+09,9E+09,9E+09,9E+09,9E+09,9E+09]];
CONST robtarget Target_383:=[[164.61352457209608, 70.74179917127762, 3.0],[0,0.383,0.924,0],[0,0,0,0],[9E+09,9E+09,9E+09,9E+09,9E+09,9E+09]];
CONST robtarget Target_384:=[[166.46128363711864, 69.97643230654742, 3.0],[0,0.383,0.924,0],[0,0,0,0],[9E+09,9E+09,9E+09,9E+09,9E+09,9E+09]];
CONST robtarget Target_385:=[[168.3090427021412, 69.21106544181725, 3.0],[0,0.383,0.924,0],[0,0,0,0],[9E+09,9E+09,9E+09,9E+09,9E+09,9E+09]];
CONST robtarget Target_386:=[[170.15680176716378, 68.44569857708706, 3.0],[0,0.383,0.924,0],[0,0,0,0],[9E+09,9E+09,9E+09,9E+09,9E+09,9E+09]];
CONST robtarget Target_387:=[[172.00456083218637, 67.68033171235689, 3.0],[0,0.383,0.924,0],[0,0,0,0],[9E+09,9E+09,9E+09,9E+09,9E+09,9E+09]];
CONST robtarget Target_388:=[[173.85231989720893, 66.91496484762669, 3.0],[0,0.383,0.924,0],[0,0,0,0],[9E+09,9E+09,9E+09,9E+09,9E+09,9E+09]];
CONST robtarget Target_389:=[[175.7000789622315, 66.14959798289652, 3.0],[0,0.383,0.924,0],[0,0,0,0],[9E+09,9E+09,9E+09,9E+09,9E+09,9E+09]];
CONST robtarget Target_390:=[[177.54783802725407, 65.38423111816633, 3.0],[0,0.383,0.924,0],[0,0,0,0],[9E+09,9E+09,9E+09,9E+09,9E+09,9E+09]];
CONST robtarget Target_391:=[[179.39559709227666, 64.61886425343616, 3.0],[0,0.383,0.924,0],[0,0,0,0],[9E+09,9E+09,9E+09,9E+09,9E+09,9E+09]];
CONST robtarget Target_392:=[[181.24335615729922, 63.85349738870599, 3.0],[0,0.383,0.924,0],[0,0,0,0],[9E+09,9E+09,9E+09,9E+09,9E+09,9E+09]];
CONST robtarget Target_393:=[[183.09111522232178, 63.08813052397579, 3.0],[0,0.383,0.924,0],[0,0,0,0],[9E+09,9E+09,9E+09,9E+09,9E+09,9E+09]];
CONST robtarget Target_394:=[[184.93887428734436, 62.322763659245624, 3.0],[0,0.383,0.924,0],[0,0,0,0],[9E+09,9E+09,9E+09,9E+09,9E+09,9E+09]];
CONST robtarget Target_395:=[[186.78663335236695, 61.55739679451543, 3.0],[0,0.383,0.924,0],[0,0,0,0],[9E+09,9E+09,9E+09,9E+09,9E+09,9E+09]];
CONST robtarget Target_396:=[[188.6343924173895, 60.79202992978526, 3.0],[0,0.383,0.924,0],[0,0,0,0],[9E+09,9E+09,9E+09,9E+09,9E+09,9E+09]];
CONST robtarget Target_397:=[[190.48215148241206, 60.02666306505506, 3.0],[0,0.383,0.924,0],[0,0,0,0],[9E+09,9E+09,9E+09,9E+09,9E+09,9E+09]];
CONST robtarget Target_398:=[[192.32991054743465, 59.26129620032489, 3.0],[0,0.383,0.924,0],[0,0,0,0],[9E+09,9E+09,9E+09,9E+09,9E+09,9E+09]];
CONST robtarget Target_399:=[[194.17766961245724, 58.495929335594724, 3.0],[0,0.383,0.924,0],[0,0,0,0],[9E+09,9E+09,9E+09,9E+09,9E+09,9E+09]];
CONST robtarget Target_400:=[[196.0254286774798, 57.73056247086453, 3.0],[0,0.383,0.924,0],[0,0,0,0],[9E+09,9E+09,9E+09,9E+09,9E+09,9E+09]];
CONST robtarget Target_401:=[[197.87318774250238, 56.96519560613436, 3.0],[0,0.383,0.924,0],[0,0,0,0],[9E+09,9E+09,9E+09,9E+09,9E+09,9E+09]];
CONST robtarget Target_402:=[[199.82953024537713, 56.605067648329026, 3.0],[0,0.383,0.924,0],[0,0,0,0],[9E+09,9E+09,9E+09,9E+09,9E+09,9E+09]];
CONST robtarget Target_403:=[[201.81241996812474, 56.344015263888906, 3.0],[0,0.383,0.924,0],[0,0,0,0],[9E+09,9E+09,9E+09,9E+09,9E+09,9E+09]];
CONST robtarget Target_404:=[[203.7953096908724, 56.082962879448814, 3.0],[0,0.383,0.924,0],[0,0,0,0],[9E+09,9E+09,9E+09,9E+09,9E+09,9E+09]];
CONST robtarget Target_405:=[[205.77819941362, 55.821910495008694, 3.0],[0,0.383,0.924,0],[0,0,0,0],[9E+09,9E+09,9E+09,9E+09,9E+09,9E+09]];
CONST robtarget Target_406:=[[207.76108913636762, 55.5608581105686, 3.0],[0,0.383,0.924,0],[0,0,0,0],[9E+09,9E+09,9E+09,9E+09,9E+09,9E+09]];
CONST robtarget Target_407:=[[209.74397885911526, 55.29980572612851, 3.0],[0,0.383,0.924,0],[0,0,0,0],[9E+09,9E+09,9E+09,9E+09,9E+09,9E+09]];
CONST robtarget Target_408:=[[211.72686858186287, 55.03875334168839, 3.0],[0,0.383,0.924,0],[0,0,0,0],[9E+09,9E+09,9E+09,9E+09,9E+09,9E+09]];
CONST robtarget Target_409:=[[213.7097583046105, 54.7777009572483, 3.0],[0,0.383,0.924,0],[0,0,0,0],[9E+09,9E+09,9E+09,9E+09,9E+09,9E+09]];
CONST robtarget Target_410:=[[215.6926480273581, 54.51664857280818, 3.0],[0,0.383,0.924,0],[0,0,0,0],[9E+09,9E+09,9E+09,9E+09,9E+09,9E+09]];
CONST robtarget Target_411:=[[217.67553775010575, 54.25559618836809, 3.0],[0,0.383,0.924,0],[0,0,0,0],[9E+09,9E+09,9E+09,9E+09,9E+09,9E+09]];
CONST robtarget Target_412:=[[219.65842747285336, 53.99454380392797, 3.0],[0,0.383,0.924,0],[0,0,0,0],[9E+09,9E+09,9E+09,9E+09,9E+09,9E+09]];
CONST robtarget Target_413:=[[221.64131719560098, 53.733491419487876, 3.0],[0,0.383,0.924,0],[0,0,0,0],[9E+09,9E+09,9E+09,9E+09,9E+09,9E+09]];
CONST robtarget Target_414:=[[223.6242069183486, 53.472439035047756, 3.0],[0,0.383,0.924,0],[0,0,0,0],[9E+09,9E+09,9E+09,9E+09,9E+09,9E+09]];
CONST robtarget Target_415:=[[225.60709664109623, 53.211386650607665, 3.0],[0,0.383,0.924,0],[0,0,0,0],[9E+09,9E+09,9E+09,9E+09,9E+09,9E+09]];
CONST robtarget Target_416:=[[227.58998636384385, 52.95033426616757, 3.0],[0,0.383,0.924,0],[0,0,0,0],[9E+09,9E+09,9E+09,9E+09,9E+09,9E+09]];
CONST robtarget Target_417:=[[229.57287608659146, 52.68928188172745, 3.0],[0,0.383,0.924,0],[0,0,0,0],[9E+09,9E+09,9E+09,9E+09,9E+09,9E+09]];
CONST robtarget Target_418:=[[231.5557658093391, 52.42822949728736, 3.0],[0,0.383,0.924,0],[0,0,0,0],[9E+09,9E+09,9E+09,9E+09,9E+09,9E+09]];
CONST robtarget Target_419:=[[233.53865553208672, 52.16717711284724, 3.0],[0,0.383,0.924,0],[0,0,0,0],[9E+09,9E+09,9E+09,9E+09,9E+09,9E+09]];
CONST robtarget Target_420:=[[235.52154525483434, 51.90612472840715, 3.0],[0,0.383,0.924,0],[0,0,0,0],[9E+09,9E+09,9E+09,9E+09,9E+09,9E+09]];
CONST robtarget Target_421:=[[237.50443497758195, 51.64507234396703, 3.0],[0,0.383,0.924,0],[0,0,0,0],[9E+09,9E+09,9E+09,9E+09,9E+09,9E+09]];
CONST robtarget Target_422:=[[239.4873247003296, 51.38401995952694, 3.0],[0,0.383,0.924,0],[0,0,0,0],[9E+09,9E+09,9E+09,9E+09,9E+09,9E+09]];
CONST robtarget Target_423:=[[241.4702144230772, 51.12296757508682, 3.0],[0,0.383,0.924,0],[0,0,0,0],[9E+09,9E+09,9E+09,9E+09,9E+09,9E+09]];
CONST robtarget Target_424:=[[243.45310414582482, 50.86191519064673, 3.0],[0,0.383,0.924,0],[0,0,0,0],[9E+09,9E+09,9E+09,9E+09,9E+09,9E+09]];
CONST robtarget Target_425:=[[245.43599386857244, 50.600862806206635, 3.0],[0,0.383,0.924,0],[0,0,0,0],[9E+09,9E+09,9E+09,9E+09,9E+09,9E+09]];
CONST robtarget Target_426:=[[247.41888359132008, 50.339810421766515, 3.0],[0,0.383,0.924,0],[0,0,0,0],[9E+09,9E+09,9E+09,9E+09,9E+09,9E+09]];
CONST robtarget Target_427:=[[249.4017733140677, 50.07875803732642, 3.0],[0,0.383,0.924,0],[0,0,0,0],[9E+09,9E+09,9E+09,9E+09,9E+09,9E+09]];
CONST robtarget Target_428:=[[248.4976572613058, 52.50390456449031, 6.004685477388307],[0,0.383,0.924,0],[0,0,0,0],[9E+09,9E+09,9E+09,9E+09,9E+09,9E+09]];
CONST robtarget Target_429:=[[246.34624576450386, 56.08959039249345, 10.307508470992161],[0,0.383,0.924,0],[0,0,0,0],[9E+09,9E+09,9E+09,9E+09,9E+09,9E+09]];
CONST robtarget Target_430:=[[244.194834267702, 59.67527622049664, 14.610331464595902],[0,0.383,0.924,0],[0,0,0,0],[9E+09,9E+09,9E+09,9E+09,9E+09,9E+09]];
CONST robtarget Target_431:=[[242.0434227709, 63.260962048499835, 18.91315445819987],[0,0.383,0.924,0],[0,0,0,0],[9E+09,9E+09,9E+09,9E+09,9E+09,9E+09]];
CONST robtarget Target_432:=[[239.89201127409814, 66.84664787650303, 23.21597745180361],[0,0.383,0.924,0],[0,0,0,0],[9E+09,9E+09,9E+09,9E+09,9E+09,9E+09]];
CONST robtarget Target_433:=[[237.7405997772962, 70.43233370450622, 27.518800445407464],[0,0.383,0.924,0],[0,0,0,0],[9E+09,9E+09,9E+09,9E+09,9E+09,9E+09]];
CONST robtarget Target_434:=[[235.58918828049434, 74.01801953250936, 31.821623439011205],[0,0.383,0.924,0],[0,0,0,0],[9E+09,9E+09,9E+09,9E+09,9E+09,9E+09]];
CONST robtarget Target_435:=[[233.4377767836924, 77.60370536051255, 36.12444643261506],[0,0.383,0.924,0],[0,0,0,0],[9E+09,9E+09,9E+09,9E+09,9E+09,9E+09]];
CONST robtarget Target_436:=[[231.2863652868905, 81.18939118851574, 40.42726942621891],[0,0.383,0.924,0],[0,0,0,0],[9E+09,9E+09,9E+09,9E+09,9E+09,9E+09]];
CONST robtarget Target_437:=[[229.13495379008856, 84.77507701651894, 44.73009241982277],[0,0.383,0.924,0],[0,0,0,0],[9E+09,9E+09,9E+09,9E+09,9E+09,9E+09]];
CONST robtarget Target_438:=[[226.9835422932867, 88.36076284452213, 49.03291541342651],[0,0.383,0.924,0],[0,0,0,0],[9E+09,9E+09,9E+09,9E+09,9E+09,9E+09]];
CONST robtarget Target_439:=[[224.83213079648476, 91.94644867252526, 53.33573840703036],[0,0.383,0.924,0],[0,0,0,0],[9E+09,9E+09,9E+09,9E+09,9E+09,9E+09]];
CONST robtarget Target_440:=[[222.6807192996829, 95.53213450052846, 57.6385614006341],[0,0.383,0.924,0],[0,0,0,0],[9E+09,9E+09,9E+09,9E+09,9E+09,9E+09]];
CONST robtarget Target_441:=[[220.52930780288096, 99.11782032853165, 61.94138439423796],[0,0.383,0.924,0],[0,0,0,0],[9E+09,9E+09,9E+09,9E+09,9E+09,9E+09]];
CONST robtarget Target_442:=[[218.37789630607904, 102.70350615653484, 66.24420738784181],[0,0.383,0.924,0],[0,0,0,0],[9E+09,9E+09,9E+09,9E+09,9E+09,9E+09]];
CONST robtarget Target_443:=[[216.2264848092771, 106.28919198453804, 70.54703038144567],[0,0.383,0.924,0],[0,0,0,0],[9E+09,9E+09,9E+09,9E+09,9E+09,9E+09]];
CONST robtarget Target_444:=[[214.07507331247524, 109.87487781254117, 74.8498533750494],[0,0.383,0.924,0],[0,0,0,0],[9E+09,9E+09,9E+09,9E+09,9E+09,9E+09]];
CONST robtarget Target_445:=[[211.9236618156733, 113.46056364054436, 79.15267636865326],[0,0.383,0.924,0],[0,0,0,0],[9E+09,9E+09,9E+09,9E+09,9E+09,9E+09]];
CONST robtarget Target_446:=[[209.77225031887144, 117.04624946854756, 83.455499362257],[0,0.383,0.924,0],[0,0,0,0],[9E+09,9E+09,9E+09,9E+09,9E+09,9E+09]];
CONST robtarget Target_447:=[[207.62083882206952, 120.63193529655075, 87.75832235586097],[0,0.383,0.924,0],[0,0,0,0],[9E+09,9E+09,9E+09,9E+09,9E+09,9E+09]];
CONST robtarget Target_448:=[[205.4694273252676, 124.21762112455394, 92.06114534946471],[0,0.383,0.924,0],[0,0,0,0],[9E+09,9E+09,9E+09,9E+09,9E+09,9E+09]];
CONST robtarget Target_449:=[[203.3180158284657, 127.80330695255708, 96.3639683430685],[0,0.383,0.924,0],[0,0,0,0],[9E+09,9E+09,9E+09,9E+09,9E+09,9E+09]];
CONST robtarget Target_450:=[[201.1666043316638, 131.38899278056027, 100.6667913366723],[0,0.383,0.924,0],[0,0,0,0],[9E+09,9E+09,9E+09,9E+09,9E+09,9E+09]];
CONST robtarget Target_451:=[[199.0151928348619, 134.97467860856347, 104.96961433027616],[0,0.383,0.924,0],[0,0,0,0],[9E+09,9E+09,9E+09,9E+09,9E+09,9E+09]];
CONST robtarget Target_452:=[[196.86378133805994, 138.56036443656666, 109.27243732388001],[0,0.383,0.924,0],[0,0,0,0],[9E+09,9E+09,9E+09,9E+09,9E+09,9E+09]];
CONST robtarget Target_453:=[[194.71236984125804, 142.14605026456985, 113.57526031748381],[0,0.383,0.924,0],[0,0,0,0],[9E+09,9E+09,9E+09,9E+09,9E+09,9E+09]];
CONST robtarget Target_454:=[[192.56095834445614, 145.73173609257304, 117.87808331108761],[0,0.383,0.924,0],[0,0,0,0],[9E+09,9E+09,9E+09,9E+09,9E+09,9E+09]];
CONST robtarget Target_455:=[[190.40954684765424, 149.31742192057618, 122.1809063046914],[0,0.383,0.924,0],[0,0,0,0],[9E+09,9E+09,9E+09,9E+09,9E+09,9E+09]];
CONST robtarget Target_456:=[[188.25813535085234, 152.90310774857937, 126.4837292982952],[0,0.383,0.924,0],[0,0,0,0],[9E+09,9E+09,9E+09,9E+09,9E+09,9E+09]];
CONST robtarget Target_457:=[[186.10672385405044, 156.4887935765825, 130.78655229189906],[0,0.383,0.924,0],[0,0,0,0],[9E+09,9E+09,9E+09,9E+09,9E+09,9E+09]];
CONST robtarget Target_458:=[[183.9553123572485, 160.07447940458576, 135.0893752855029],[0,0.383,0.924,0],[0,0,0,0],[9E+09,9E+09,9E+09,9E+09,9E+09,9E+09]];
CONST robtarget Target_459:=[[181.8039008604466, 163.66016523258895, 139.3921982791067],[0,0.383,0.924,0],[0,0,0,0],[9E+09,9E+09,9E+09,9E+09,9E+09,9E+09]];
CONST robtarget Target_460:=[[179.6524893636447, 167.2458510605921, 143.6950212727105],[0,0.383,0.924,0],[0,0,0,0],[9E+09,9E+09,9E+09,9E+09,9E+09,9E+09]];
CONST robtarget Target_461:=[[177.5010778668428, 170.83153688859528, 147.9978442663143],[0,0.383,0.924,0],[0,0,0,0],[9E+09,9E+09,9E+09,9E+09,9E+09,9E+09]];
CONST robtarget Target_462:=[[175.3496663700409, 174.41722271659842, 152.30066725991816],[0,0.383,0.924,0],[0,0,0,0],[9E+09,9E+09,9E+09,9E+09,9E+09,9E+09]];
CONST robtarget Target_463:=[[173.19825487323897, 178.00290854460167, 156.603490253522],[0,0.383,0.924,0],[0,0,0,0],[9E+09,9E+09,9E+09,9E+09,9E+09,9E+09]];
CONST robtarget Target_464:=[[171.04684337643707, 181.58859437260486, 160.9063132471258],[0,0.383,0.924,0],[0,0,0,0],[9E+09,9E+09,9E+09,9E+09,9E+09,9E+09]];
CONST robtarget Target_465:=[[168.89543187963514, 185.174280200608, 165.2091362407296],[0,0.383,0.924,0],[0,0,0,0],[9E+09,9E+09,9E+09,9E+09,9E+09,9E+09]];
CONST robtarget Target_466:=[[166.74402038283324, 188.7599660286112, 169.5119592343334],[0,0.383,0.924,0],[0,0,0,0],[9E+09,9E+09,9E+09,9E+09,9E+09,9E+09]];
CONST robtarget Target_467:=[[164.59260888603134, 192.34565185661432, 173.8147822279372],[0,0.383,0.924,0],[0,0,0,0],[9E+09,9E+09,9E+09,9E+09,9E+09,9E+09]];
CONST robtarget Target_468:=[[162.44119738922944, 195.93133768461752, 178.11760522154106],[0,0.383,0.924,0],[0,0,0,0],[9E+09,9E+09,9E+09,9E+09,9E+09,9E+09]];
CONST robtarget Target_469:=[[160.28978589242752, 199.51702351262077, 182.4204282151449],[0,0.383,0.924,0],[0,0,0,0],[9E+09,9E+09,9E+09,9E+09,9E+09,9E+09]];
CONST robtarget Target_470:=[[158.13837439562562, 203.1027093406239, 186.7232512087487],[0,0.383,0.924,0],[0,0,0,0],[9E+09,9E+09,9E+09,9E+09,9E+09,9E+09]];
CONST robtarget Target_471:=[[155.98696289882372, 206.6883951686271, 191.0260742023525],[0,0.383,0.924,0],[0,0,0,0],[9E+09,9E+09,9E+09,9E+09,9E+09,9E+09]];
CONST robtarget Target_472:=[[153.8355514020218, 210.2740809966303, 195.3288971959563],[0,0.383,0.924,0],[0,0,0,0],[9E+09,9E+09,9E+09,9E+09,9E+09,9E+09]];
CONST robtarget Target_473:=[[151.6841399052199, 213.85976682463343, 199.6317201895601],[0,0.383,0.924,0],[0,0,0,0],[9E+09,9E+09,9E+09,9E+09,9E+09,9E+09]];
CONST robtarget Target_474:=[[149.53272840841797, 217.44545265263667, 203.934543183164],[0,0.383,0.924,0],[0,0,0,0],[9E+09,9E+09,9E+09,9E+09,9E+09,9E+09]];
CONST robtarget Target_475:=[[147.38131691161607, 221.0311384806398, 208.2373661767678],[0,0.383,0.924,0],[0,0,0,0],[9E+09,9E+09,9E+09,9E+09,9E+09,9E+09]];
CONST robtarget Target_476:=[[145.22990541481417, 224.616824308643, 212.5401891703716],[0,0.383,0.924,0],[0,0,0,0],[9E+09,9E+09,9E+09,9E+09,9E+09,9E+09]];
CONST robtarget Target_477:=[[143.07849391801227, 228.2025101366462, 216.8430121639754],[0,0.383,0.924,0],[0,0,0,0],[9E+09,9E+09,9E+09,9E+09,9E+09,9E+09]];
CONST robtarget Target_478:=[[140.92708242121034, 231.78819596464933, 221.1458351575792],[0,0.383,0.924,0],[0,0,0,0],[9E+09,9E+09,9E+09,9E+09,9E+09,9E+09]];
CONST robtarget Target_479:=[[138.77567092440842, 235.37388179265258, 225.4486581511831],[0,0.383,0.924,0],[0,0,0,0],[9E+09,9E+09,9E+09,9E+09,9E+09,9E+09]];
CONST robtarget Target_480:=[[136.62425942760652, 238.95956762065572, 229.7514811447869],[0,0.383,0.924,0],[0,0,0,0],[9E+09,9E+09,9E+09,9E+09,9E+09,9E+09]];
CONST robtarget Target_481:=[[134.47284793080462, 242.5452534486589, 234.0543041383907],[0,0.383,0.924,0],[0,0,0,0],[9E+09,9E+09,9E+09,9E+09,9E+09,9E+09]];
CONST robtarget Target_482:=[[132.32143643400272, 246.1309392766621, 238.3571271319945],[0,0.383,0.924,0],[0,0,0,0],[9E+09,9E+09,9E+09,9E+09,9E+09,9E+09]];
CONST robtarget Target_483:=[[130.17002493720082, 249.71662510466524, 242.6599501255983],[0,0.383,0.924,0],[0,0,0,0],[9E+09,9E+09,9E+09,9E+09,9E+09,9E+09]];
CONST robtarget Target_484:=[[128.01861344039892, 253.30231093266843, 246.9627731192021],[0,0.383,0.924,0],[0,0,0,0],[9E+09,9E+09,9E+09,9E+09,9E+09,9E+09]];
CONST robtarget Target_485:=[[125.86720194359697, 256.8879967606717, 251.265596112806],[0,0.383,0.924,0],[0,0,0,0],[9E+09,9E+09,9E+09,9E+09,9E+09,9E+09]];
CONST robtarget Target_486:=[[123.71579044679507, 260.4736825886748, 255.5684191064098],[0,0.383,0.924,0],[0,0,0,0],[9E+09,9E+09,9E+09,9E+09,9E+09,9E+09]];
CONST robtarget Target_487:=[[121.56437894999317, 264.059368416678, 259.8712421000136],[0,0.383,0.924,0],[0,0,0,0],[9E+09,9E+09,9E+09,9E+09,9E+09,9E+09]];
CONST robtarget Target_488:=[[119.41296745319127, 267.64505424468115, 264.1740650936174],[0,0.383,0.924,0],[0,0,0,0],[9E+09,9E+09,9E+09,9E+09,9E+09,9E+09]];
CONST robtarget Target_489:=[[117.26155595638937, 271.23074007268434, 268.4768880872212],[0,0.383,0.924,0],[0,0,0,0],[9E+09,9E+09,9E+09,9E+09,9E+09,9E+09]];
CONST robtarget Target_490:=[[115.11014445958742, 274.8164259006876, 272.77971108082505],[0,0.383,0.924,0],[0,0,0,0],[9E+09,9E+09,9E+09,9E+09,9E+09,9E+09]];
CONST robtarget Target_491:=[[112.95873296278552, 278.4021117286907, 277.0825340744289],[0,0.383,0.924,0],[0,0,0,0],[9E+09,9E+09,9E+09,9E+09,9E+09,9E+09]];
CONST robtarget Target_492:=[[110.80732146598362, 281.9877975566939, 281.3853570680327],[0,0.383,0.924,0],[0,0,0,0],[9E+09,9E+09,9E+09,9E+09,9E+09,9E+09]];
CONST robtarget Target_493:=[[108.65590996918172, 285.57348338469706, 285.6881800616365],[0,0.383,0.924,0],[0,0,0,0],[9E+09,9E+09,9E+09,9E+09,9E+09,9E+09]];
CONST robtarget Target_494:=[[106.50449847237982, 289.15916921270025, 289.9910030552403],[0,0.383,0.924,0],[0,0,0,0],[9E+09,9E+09,9E+09,9E+09,9E+09,9E+09]];
CONST robtarget Target_495:=[[104.35308697557792, 292.74485504070344, 294.2938260488441],[0,0.383,0.924,0],[0,0,0,0],[9E+09,9E+09,9E+09,9E+09,9E+09,9E+09]];
CONST robtarget Target_496:=[[102.20167547877597, 296.33054086870663, 298.596649042448],[0,0.383,0.924,0],[0,0,0,0],[9E+09,9E+09,9E+09,9E+09,9E+09,9E+09]];
CONST robtarget Target_497:=[[100.05026398197407, 299.9162266967098, 302.8994720360518],[0,0.383,0.924,0],[0,0,0,0],[9E+09,9E+09,9E+09,9E+09,9E+09,9E+09]];
CONST robtarget Target_498:=[[97.89885248517217, 303.501912524713, 307.2022950296556],[0,0.383,0.924,0],[0,0,0,0],[9E+09,9E+09,9E+09,9E+09,9E+09,9E+09]];
CONST robtarget Target_499:=[[95.74744098837027, 307.08759835271616, 311.5051180232594],[0,0.383,0.924,0],[0,0,0,0],[9E+09,9E+09,9E+09,9E+09,9E+09,9E+09]];
CONST robtarget Target_500:=[[93.59602949156834, 310.67328418071935, 315.80794101686325],[0,0.383,0.924,0],[0,0,0,0],[9E+09,9E+09,9E+09,9E+09,9E+09,9E+09]];
CONST robtarget Target_501:=[[91.44461799476645, 314.25897000872254, 320.11076401046705],[0,0.383,0.924,0],[0,0,0,0],[9E+09,9E+09,9E+09,9E+09,9E+09,9E+09]];
CONST robtarget Target_502:=[[89.29320649796455, 317.84465583672574, 324.4135870040709],[0,0.383,0.924,0],[0,0,0,0],[9E+09,9E+09,9E+09,9E+09,9E+09,9E+09]];
CONST robtarget Target_503:=[[87.14179500116262, 321.43034166472887, 328.7164099976747],[0,0.383,0.924,0],[0,0,0,0],[9E+09,9E+09,9E+09,9E+09,9E+09,9E+09]];
CONST robtarget Target_504:=[[84.99038350436072, 325.01602749273206, 333.0192329912785],[0,0.383,0.924,0],[0,0,0,0],[9E+09,9E+09,9E+09,9E+09,9E+09,9E+09]];
CONST robtarget Target_505:=[[82.83897200755882, 328.60171332073526, 337.32205598488235],[0,0.383,0.924,0],[0,0,0,0],[9E+09,9E+09,9E+09,9E+09,9E+09,9E+09]];
CONST robtarget Target_506:=[[80.6875605107569, 332.18739914873845, 341.62487897848615],[0,0.383,0.924,0],[0,0,0,0],[9E+09,9E+09,9E+09,9E+09,9E+09,9E+09]];
CONST robtarget Target_507:=[[78.536149013955, 335.77308497674164, 345.92770197208995],[0,0.383,0.924,0],[0,0,0,0],[9E+09,9E+09,9E+09,9E+09,9E+09,9E+09]];
CONST robtarget Target_508:=[[76.3847375171531, 339.35877080474484, 350.2305249656938],[0,0.383,0.924,0],[0,0,0,0],[9E+09,9E+09,9E+09,9E+09,9E+09,9E+09]];
CONST robtarget Target_509:=[[74.23332602035117, 342.944456632748, 354.53334795929754],[0,0.383,0.924,0],[0,0,0,0],[9E+09,9E+09,9E+09,9E+09,9E+09,9E+09]];
CONST robtarget Target_510:=[[72.08191452354927, 346.5301424607512, 358.8361709529014],[0,0.383,0.924,0],[0,0,0,0],[9E+09,9E+09,9E+09,9E+09,9E+09,9E+09]];
CONST robtarget Target_511:=[[69.93050302674737, 350.11582828875436, 363.13899394650525],[0,0.383,0.924,0],[0,0,0,0],[9E+09,9E+09,9E+09,9E+09,9E+09,9E+09]];
CONST robtarget Target_512:=[[67.77909152994545, 353.7015141167575, 367.441816940109],[0,0.383,0.924,0],[0,0,0,0],[9E+09,9E+09,9E+09,9E+09,9E+09,9E+09]];
CONST robtarget Target_513:=[[65.62768003314355, 357.2871999447607, 371.74463993371285],[0,0.383,0.924,0],[0,0,0,0],[9E+09,9E+09,9E+09,9E+09,9E+09,9E+09]];
CONST robtarget Target_514:=[[63.47626853634165, 360.8728857727639, 376.0474629273167],[0,0.383,0.924,0],[0,0,0,0],[9E+09,9E+09,9E+09,9E+09,9E+09,9E+09]];
CONST robtarget Target_515:=[[61.32485703953972, 364.4585716007671, 380.35028592092044],[0,0.383,0.924,0],[0,0,0,0],[9E+09,9E+09,9E+09,9E+09,9E+09,9E+09]];
CONST robtarget Target_516:=[[59.173445542737824, 368.04425742877027, 384.6531089145243],[0,0.383,0.924,0],[0,0,0,0],[9E+09,9E+09,9E+09,9E+09,9E+09,9E+09]];
CONST robtarget Target_517:=[[57.022034045935925, 371.62994325677346, 388.95593190812815],[0,0.383,0.924,0],[0,0,0,0],[9E+09,9E+09,9E+09,9E+09,9E+09,9E+09]];
CONST robtarget Target_518:=[[54.870622549134, 375.21562908477665, 393.258754901732],[0,0.383,0.924,0],[0,0,0,0],[9E+09,9E+09,9E+09,9E+09,9E+09,9E+09]];
CONST robtarget Target_519:=[[52.7192110523321, 378.80131491277984, 397.56157789533574],[0,0.383,0.924,0],[0,0,0,0],[9E+09,9E+09,9E+09,9E+09,9E+09,9E+09]];
CONST robtarget Target_520:=[[50.5677995555302, 382.387000740783, 401.8644008889396],[0,0.383,0.924,0],[0,0,0,0],[9E+09,9E+09,9E+09,9E+09,9E+09,9E+09]];
CONST robtarget Target_521:=[[48.41638805872827, 385.9726865687862, 406.16722388254345],[0,0.383,0.924,0],[0,0,0,0],[9E+09,9E+09,9E+09,9E+09,9E+09,9E+09]];
CONST robtarget Target_522:=[[46.264976561926375, 389.5583723967893, 410.4700468761472],[0,0.383,0.924,0],[0,0,0,0],[9E+09,9E+09,9E+09,9E+09,9E+09,9E+09]];
CONST robtarget Target_523:=[[44.113565065124476, 393.1440582247925, 414.77286986975105],[0,0.383,0.924,0],[0,0,0,0],[9E+09,9E+09,9E+09,9E+09,9E+09,9E+09]];
CONST robtarget Target_524:=[[41.96215356832255, 396.7297440527957, 419.0756928633549],[0,0.383,0.924,0],[0,0,0,0],[9E+09,9E+09,9E+09,9E+09,9E+09,9E+09]];
CONST robtarget Target_525:=[[39.81074207152065, 400.3154298807989, 423.37851585695864],[0,0.383,0.924,0],[0,0,0,0],[9E+09,9E+09,9E+09,9E+09,9E+09,9E+09]];
CONST robtarget Target_526:=[[37.65933057471875, 403.9011157088021, 427.6813388505625],[0,0.383,0.924,0],[0,0,0,0],[9E+09,9E+09,9E+09,9E+09,9E+09,9E+09]];
CONST robtarget Target_527:=[[35.507919077916824, 407.4868015368053, 431.98416184416635],[0,0.383,0.924,0],[0,0,0,0],[9E+09,9E+09,9E+09,9E+09,9E+09,9E+09]];
CONST robtarget Target_528:=[[33.356507581114926, 411.07248736480847, 436.2869848377701],[0,0.383,0.924,0],[0,0,0,0],[9E+09,9E+09,9E+09,9E+09,9E+09,9E+09]];
CONST robtarget Target_529:=[[31.205096084313027, 414.65817319281166, 440.58980783137395],[0,0.383,0.924,0],[0,0,0,0],[9E+09,9E+09,9E+09,9E+09,9E+09,9E+09]];
CONST robtarget Target_530:=[[29.0536845875111, 418.2438590208148, 444.8926308249778],[0,0.383,0.924,0],[0,0,0,0],[9E+09,9E+09,9E+09,9E+09,9E+09,9E+09]];
CONST robtarget Target_531:=[[26.9022730907092, 421.82954484881793, 449.19545381858154],[0,0.383,0.924,0],[0,0,0,0],[9E+09,9E+09,9E+09,9E+09,9E+09,9E+09]];
CONST robtarget Target_532:=[[24.750861593907302, 425.4152306768211, 453.4982768121854],[0,0.383,0.924,0],[0,0,0,0],[9E+09,9E+09,9E+09,9E+09,9E+09,9E+09]];
CONST robtarget Target_533:=[[22.599450097105375, 429.0009165048243, 457.80109980578925],[0,0.383,0.924,0],[0,0,0,0],[9E+09,9E+09,9E+09,9E+09,9E+09,9E+09]];
CONST robtarget Target_534:=[[20.448038600303477, 432.5866023328275, 462.10392279939305],[0,0.383,0.924,0],[0,0,0,0],[9E+09,9E+09,9E+09,9E+09,9E+09,9E+09]];
CONST robtarget Target_535:=[[18.296627103501578, 436.1722881608307, 466.40674579299684],[0,0.383,0.924,0],[0,0,0,0],[9E+09,9E+09,9E+09,9E+09,9E+09,9E+09]];
CONST robtarget Target_536:=[[16.14521560669965, 439.7579739888339, 470.7095687866007],[0,0.383,0.924,0],[0,0,0,0],[9E+09,9E+09,9E+09,9E+09,9E+09,9E+09]];
CONST robtarget Target_537:=[[13.993804109897752, 443.3436598168371, 475.0123917802045],[0,0.383,0.924,0],[0,0,0,0],[9E+09,9E+09,9E+09,9E+09,9E+09,9E+09]];
CONST robtarget Target_538:=[[11.842392613095853, 446.9293456448403, 479.3152147738083],[0,0.383,0.924,0],[0,0,0,0],[9E+09,9E+09,9E+09,9E+09,9E+09,9E+09]];
CONST robtarget Target_539:=[[9.690981116293926, 450.5150314728434, 483.61803776741215],[0,0.383,0.924,0],[0,0,0,0],[9E+09,9E+09,9E+09,9E+09,9E+09,9E+09]];
CONST robtarget Target_540:=[[7.539569619492028, 454.1007173008466, 487.92086076101594],[0,0.383,0.924,0],[0,0,0,0],[9E+09,9E+09,9E+09,9E+09,9E+09,9E+09]];
CONST robtarget Target_541:=[[5.388158122690129, 457.6864031288498, 492.22368375461974],[0,0.383,0.924,0],[0,0,0,0],[9E+09,9E+09,9E+09,9E+09,9E+09,9E+09]];
CONST robtarget Target_542:=[[3.236746625888202, 461.272088956853, 496.5265067482236],[0,0.383,0.924,0],[0,0,0,0],[9E+09,9E+09,9E+09,9E+09,9E+09,9E+09]];
CONST robtarget Target_543:=[[1.0853351290862747, 464.85777478485613, 500.8293297418274],[0,0.383,0.924,0],[0,0,0,0],[9E+09,9E+09,9E+09,9E+09,9E+09,9E+09]];
CONST robtarget Target_544:=[[-1.0660763677155956, 468.4434606128593, 505.1321527354312],[0,0.383,0.924,0],[0,0,0,0],[9E+09,9E+09,9E+09,9E+09,9E+09,9E+09]];
CONST robtarget Target_545:=[[-3.2174878645175227, 472.0291464408625, 509.43497572903505],[0,0.383,0.924,0],[0,0,0,0],[9E+09,9E+09,9E+09,9E+09,9E+09,9E+09]];
CONST robtarget Target_546:=[[-5.36889936131945, 475.6148322688657, 513.7377987226389],[0,0.383,0.924,0],[0,0,0,0],[9E+09,9E+09,9E+09,9E+09,9E+09,9E+09]];
CONST robtarget Target_547:=[[-7.52031085812132, 479.2005180968689, 518.0406217162426],[0,0.383,0.924,0],[0,0,0,0],[9E+09,9E+09,9E+09,9E+09,9E+09,9E+09]];
CONST robtarget Target_548:=[[-9.671722354923247, 482.7862039248721, 522.3434447098465],[0,0.383,0.924,0],[0,0,0,0],[9E+09,9E+09,9E+09,9E+09,9E+09,9E+09]];
CONST robtarget Target_549:=[[-11.823133851725174, 486.37188975287523, 526.6462677034503],[0,0.383,0.924,0],[0,0,0,0],[9E+09,9E+09,9E+09,9E+09,9E+09,9E+09]];
CONST robtarget Target_550:=[[-13.974545348527045, 489.9575755808784, 530.9490906970541],[0,0.383,0.924,0],[0,0,0,0],[9E+09,9E+09,9E+09,9E+09,9E+09,9E+09]];
CONST robtarget Target_551:=[[-16.12595684532897, 493.5432614088816, 535.251913690658],[0,0.383,0.924,0],[0,0,0,0],[9E+09,9E+09,9E+09,9E+09,9E+09,9E+09]];
CONST robtarget Target_552:=[[-18.2773683421309, 497.12894723688476, 539.5547366842618],[0,0.383,0.924,0],[0,0,0,0],[9E+09,9E+09,9E+09,9E+09,9E+09,9E+09]];
CONST robtarget Target_553:=[[-20.42877983893277, 500.71463306488795, 543.8575596778655],[0,0.383,0.924,0],[0,0,0,0],[9E+09,9E+09,9E+09,9E+09,9E+09,9E+09]];
CONST robtarget Target_554:=[[-22.580191335734696, 504.30031889289114, 548.1603826714694],[0,0.383,0.924,0],[0,0,0,0],[9E+09,9E+09,9E+09,9E+09,9E+09,9E+09]];
CONST robtarget Target_555:=[[-24.731602832536623, 507.88600472089433, 552.4632056650732],[0,0.383,0.924,0],[0,0,0,0],[9E+09,9E+09,9E+09,9E+09,9E+09,9E+09]];
CONST robtarget Target_556:=[[-26.883014329338494, 511.4716905488975, 556.766028658677],[0,0.383,0.924,0],[0,0,0,0],[9E+09,9E+09,9E+09,9E+09,9E+09,9E+09]];
CONST robtarget Target_557:=[[-29.03442582614042, 515.0573763769007, 561.0688516522808],[0,0.383,0.924,0],[0,0,0,0],[9E+09,9E+09,9E+09,9E+09,9E+09,9E+09]];
CONST robtarget Target_558:=[[-31.185837322942348, 518.6430622049038, 565.3716746458847],[0,0.383,0.924,0],[0,0,0,0],[9E+09,9E+09,9E+09,9E+09,9E+09,9E+09]];
CONST robtarget Target_559:=[[-33.33724881974422, 522.2287480329071, 569.6744976394884],[0,0.383,0.924,0],[0,0,0,0],[9E+09,9E+09,9E+09,9E+09,9E+09,9E+09]];
CONST robtarget Target_560:=[[-35.488660316546145, 525.8144338609102, 573.9773206330923],[0,0.383,0.924,0],[0,0,0,0],[9E+09,9E+09,9E+09,9E+09,9E+09,9E+09]];
CONST robtarget Target_561:=[[-37.64007181334807, 529.4001196889135, 578.2801436266961],[0,0.383,0.924,0],[0,0,0,0],[9E+09,9E+09,9E+09,9E+09,9E+09,9E+09]];
CONST robtarget Target_562:=[[-39.79148331014994, 532.9858055169166, 582.5829666202999],[0,0.383,0.924,0],[0,0,0,0],[9E+09,9E+09,9E+09,9E+09,9E+09,9E+09]];
CONST robtarget Target_563:=[[-41.94289480695187, 536.5714913449198, 586.8857896139037],[0,0.383,0.924,0],[0,0,0,0],[9E+09,9E+09,9E+09,9E+09,9E+09,9E+09]];
CONST robtarget Target_564:=[[-44.0943063037538, 540.157177172923, 591.1886126075076],[0,0.383,0.924,0],[0,0,0,0],[9E+09,9E+09,9E+09,9E+09,9E+09,9E+09]];
CONST robtarget Target_565:=[[-46.24571780055567, 543.7428630009261, 595.4914356011113],[0,0.383,0.924,0],[0,0,0,0],[9E+09,9E+09,9E+09,9E+09,9E+09,9E+09]];
CONST robtarget Target_566:=[[-48.397129297357594, 547.3285488289293, 599.7942585947152],[0,0.383,0.924,0],[0,0,0,0],[9E+09,9E+09,9E+09,9E+09,9E+09,9E+09]];
CONST robtarget Target_567:=[[-49.420333341756816, 549.7496736640968, 601.6065749704068],[0,0.383,0.924,0],[0,0,0,0],[9E+09,9E+09,9E+09,9E+09,9E+09,9E+09]];
CONST robtarget Target_568:=[[-47.14684424826481, 548.7678780296633, 596.1414743607218],[0,0.383,0.924,0],[0,0,0,0],[9E+09,9E+09,9E+09,9E+09,9E+09,9E+09]];
CONST robtarget Target_569:=[[-44.87335515477287, 547.7860823952299, 590.6763737510366],[0,0.383,0.924,0],[0,0,0,0],[9E+09,9E+09,9E+09,9E+09,9E+09,9E+09]];
CONST robtarget Target_570:=[[-42.59986606128086, 546.8042867607965, 585.2112731413515],[0,0.383,0.924,0],[0,0,0,0],[9E+09,9E+09,9E+09,9E+09,9E+09,9E+09]];
CONST robtarget Target_571:=[[-40.32637696778892, 545.8224911263629, 579.7461725316664],[0,0.383,0.924,0],[0,0,0,0],[9E+09,9E+09,9E+09,9E+09,9E+09,9E+09]];
CONST robtarget Target_572:=[[-38.052887874296914, 544.8406954919295, 574.2810719219814],[0,0.383,0.924,0],[0,0,0,0],[9E+09,9E+09,9E+09,9E+09,9E+09,9E+09]];
CONST robtarget Target_573:=[[-35.77939878080491, 543.858899857496, 568.8159713122963],[0,0.383,0.924,0],[0,0,0,0],[9E+09,9E+09,9E+09,9E+09,9E+09,9E+09]];
CONST robtarget Target_574:=[[-33.505909687312965, 542.8771042230626, 563.3508707026111],[0,0.383,0.924,0],[0,0,0,0],[9E+09,9E+09,9E+09,9E+09,9E+09,9E+09]];
CONST robtarget Target_575:=[[-31.23242059382096, 541.8953085886292, 557.885770092926],[0,0.383,0.924,0],[0,0,0,0],[9E+09,9E+09,9E+09,9E+09,9E+09,9E+09]];
CONST robtarget Target_576:=[[-28.958931500329015, 540.9135129541958, 552.420669483241],[0,0.383,0.924,0],[0,0,0,0],[9E+09,9E+09,9E+09,9E+09,9E+09,9E+09]];
CONST robtarget Target_577:=[[-26.685442406837012, 539.9317173197622, 546.9555688735559],[0,0.383,0.924,0],[0,0,0,0],[9E+09,9E+09,9E+09,9E+09,9E+09,9E+09]];
CONST robtarget Target_578:=[[-24.411953313345066, 538.9499216853287, 541.4904682638708],[0,0.383,0.924,0],[0,0,0,0],[9E+09,9E+09,9E+09,9E+09,9E+09,9E+09]];
CONST robtarget Target_579:=[[-22.138464219853063, 537.9681260508953, 536.0253676541856],[0,0.383,0.924,0],[0,0,0,0],[9E+09,9E+09,9E+09,9E+09,9E+09,9E+09]];
CONST robtarget Target_580:=[[-19.86497512636106, 536.9863304164619, 530.5602670445005],[0,0.383,0.924,0],[0,0,0,0],[9E+09,9E+09,9E+09,9E+09,9E+09,9E+09]];
CONST robtarget Target_581:=[[-17.591486032869057, 536.0045347820285, 525.0951664348155],[0,0.383,0.924,0],[0,0,0,0],[9E+09,9E+09,9E+09,9E+09,9E+09,9E+09]];
CONST robtarget Target_582:=[[-15.31799693937711, 535.022739147595, 519.6300658251304],[0,0.383,0.924,0],[0,0,0,0],[9E+09,9E+09,9E+09,9E+09,9E+09,9E+09]];
CONST robtarget Target_583:=[[-13.044507845885107, 534.0409435131614, 514.1649652154454],[0,0.383,0.924,0],[0,0,0,0],[9E+09,9E+09,9E+09,9E+09,9E+09,9E+09]];
CONST robtarget Target_584:=[[-10.77101875239316, 533.059147878728, 508.6998646057602],[0,0.383,0.924,0],[0,0,0,0],[9E+09,9E+09,9E+09,9E+09,9E+09,9E+09]];
CONST robtarget Target_585:=[[-8.497529658901158, 532.0773522442946, 503.23476399607506],[0,0.383,0.924,0],[0,0,0,0],[9E+09,9E+09,9E+09,9E+09,9E+09,9E+09]];
CONST robtarget Target_586:=[[-6.224040565409155, 531.0955566098612, 497.76966338638994],[0,0.383,0.924,0],[0,0,0,0],[9E+09,9E+09,9E+09,9E+09,9E+09,9E+09]];
CONST robtarget Target_587:=[[-3.9505514719172083, 530.1137609754277, 492.30456277670487],[0,0.383,0.924,0],[0,0,0,0],[9E+09,9E+09,9E+09,9E+09,9E+09,9E+09]];
CONST robtarget Target_588:=[[-1.6770623784252336, 529.1319653409942, 486.8394621670198],[0,0.383,0.924,0],[0,0,0,0],[9E+09,9E+09,9E+09,9E+09,9E+09,9E+09]];
CONST robtarget Target_589:=[[0.596426715066741, 528.1501697065607, 481.3743615573347],[0,0.383,0.924,0],[0,0,0,0],[9E+09,9E+09,9E+09,9E+09,9E+09,9E+09]];
CONST robtarget Target_590:=[[2.869915808558744, 527.1683740721273, 475.90926094764956],[0,0.383,0.924,0],[0,0,0,0],[9E+09,9E+09,9E+09,9E+09,9E+09,9E+09]];
CONST robtarget Target_591:=[[5.143404902050719, 526.1865784376939, 470.4441603379645],[0,0.383,0.924,0],[0,0,0,0],[9E+09,9E+09,9E+09,9E+09,9E+09,9E+09]];
CONST robtarget Target_592:=[[7.416893995542722, 525.2047828032604, 464.97905972827937],[0,0.383,0.924,0],[0,0,0,0],[9E+09,9E+09,9E+09,9E+09,9E+09,9E+09]];
CONST robtarget Target_593:=[[9.690383089034668, 524.222987168827, 459.5139591185943],[0,0.383,0.924,0],[0,0,0,0],[9E+09,9E+09,9E+09,9E+09,9E+09,9E+09]];
CONST robtarget Target_594:=[[11.963872182526671, 523.2411915343935, 454.0488585089092],[0,0.383,0.924,0],[0,0,0,0],[9E+09,9E+09,9E+09,9E+09,9E+09,9E+09]];
CONST robtarget Target_595:=[[14.237361276018646, 522.25939589996, 448.58375789922405],[0,0.383,0.924,0],[0,0,0,0],[9E+09,9E+09,9E+09,9E+09,9E+09,9E+09]];
CONST robtarget Target_596:=[[16.51085036951065, 521.2776002655266, 443.118657289539],[0,0.383,0.924,0],[0,0,0,0],[9E+09,9E+09,9E+09,9E+09,9E+09,9E+09]];
CONST robtarget Target_597:=[[18.784339463002595, 520.2958046310931, 437.6535566798539],[0,0.383,0.924,0],[0,0,0,0],[9E+09,9E+09,9E+09,9E+09,9E+09,9E+09]];
CONST robtarget Target_598:=[[21.0578285564946, 519.3140089966597, 432.1884560701688],[0,0.383,0.924,0],[0,0,0,0],[9E+09,9E+09,9E+09,9E+09,9E+09,9E+09]];
CONST robtarget Target_599:=[[23.331317649986573, 518.3322133622262, 426.7233554604837],[0,0.383,0.924,0],[0,0,0,0],[9E+09,9E+09,9E+09,9E+09,9E+09,9E+09]];
CONST robtarget Target_600:=[[25.604806743478548, 517.3504177277928, 421.2582548507986],[0,0.383,0.924,0],[0,0,0,0],[9E+09,9E+09,9E+09,9E+09,9E+09,9E+09]];
CONST robtarget Target_601:=[[27.87829583697055, 516.3686220933594, 415.7931542411135],[0,0.383,0.924,0],[0,0,0,0],[9E+09,9E+09,9E+09,9E+09,9E+09,9E+09]];
CONST robtarget Target_602:=[[30.151784930462497, 515.3868264589258, 410.3280536314284],[0,0.383,0.924,0],[0,0,0,0],[9E+09,9E+09,9E+09,9E+09,9E+09,9E+09]];
CONST robtarget Target_603:=[[32.4252740239545, 514.4050308244924, 404.8629530217433],[0,0.383,0.924,0],[0,0,0,0],[9E+09,9E+09,9E+09,9E+09,9E+09,9E+09]];
CONST robtarget Target_604:=[[34.698763117446475, 513.4232351900589, 399.3978524120582],[0,0.383,0.924,0],[0,0,0,0],[9E+09,9E+09,9E+09,9E+09,9E+09,9E+09]];
CONST robtarget Target_605:=[[36.97225221093848, 512.4414395556255, 393.9327518023731],[0,0.383,0.924,0],[0,0,0,0],[9E+09,9E+09,9E+09,9E+09,9E+09,9E+09]];
CONST robtarget Target_606:=[[39.24574130443045, 511.459643921192, 388.467651192688],[0,0.383,0.924,0],[0,0,0,0],[9E+09,9E+09,9E+09,9E+09,9E+09,9E+09]];
CONST robtarget Target_607:=[[41.51923039792243, 510.47784828675856, 383.0025505830029],[0,0.383,0.924,0],[0,0,0,0],[9E+09,9E+09,9E+09,9E+09,9E+09,9E+09]];
CONST robtarget Target_608:=[[43.7927194914144, 509.49605265232515, 377.53744997331785],[0,0.383,0.924,0],[0,0,0,0],[9E+09,9E+09,9E+09,9E+09,9E+09,9E+09]];
CONST robtarget Target_609:=[[46.066208584906406, 508.5142570178917, 372.0723493636327],[0,0.383,0.924,0],[0,0,0,0],[9E+09,9E+09,9E+09,9E+09,9E+09,9E+09]];
CONST robtarget Target_610:=[[48.33969767839838, 507.5324613834582, 366.6072487539476],[0,0.383,0.924,0],[0,0,0,0],[9E+09,9E+09,9E+09,9E+09,9E+09,9E+09]];
CONST robtarget Target_611:=[[50.61318677189038, 506.55066574902474, 361.1421481442625],[0,0.383,0.924,0],[0,0,0,0],[9E+09,9E+09,9E+09,9E+09,9E+09,9E+09]];
CONST robtarget Target_612:=[[52.88667586538233, 505.5688701145913, 355.67704753457747],[0,0.383,0.924,0],[0,0,0,0],[9E+09,9E+09,9E+09,9E+09,9E+09,9E+09]];
CONST robtarget Target_613:=[[55.160164958874304, 504.58707448015787, 350.21194692489235],[0,0.383,0.924,0],[0,0,0,0],[9E+09,9E+09,9E+09,9E+09,9E+09,9E+09]];
CONST robtarget Target_614:=[[57.43365405236631, 503.6052788457244, 344.7468463152072],[0,0.383,0.924,0],[0,0,0,0],[9E+09,9E+09,9E+09,9E+09,9E+09,9E+09]];
CONST robtarget Target_615:=[[59.70714314585828, 502.62348321129093, 339.2817457055221],[0,0.383,0.924,0],[0,0,0,0],[9E+09,9E+09,9E+09,9E+09,9E+09,9E+09]];
CONST robtarget Target_616:=[[61.98063223935026, 501.6416875768575, 333.81664509583703],[0,0.383,0.924,0],[0,0,0,0],[9E+09,9E+09,9E+09,9E+09,9E+09,9E+09]];
CONST robtarget Target_617:=[[64.25412133284223, 500.659891942424, 328.35154448615197],[0,0.383,0.924,0],[0,0,0,0],[9E+09,9E+09,9E+09,9E+09,9E+09,9E+09]];
CONST robtarget Target_618:=[[66.52761042633423, 499.6780963079906, 322.88644387646684],[0,0.383,0.924,0],[0,0,0,0],[9E+09,9E+09,9E+09,9E+09,9E+09,9E+09]];
CONST robtarget Target_619:=[[68.80109951982621, 498.6963006735571, 317.4213432667817],[0,0.383,0.924,0],[0,0,0,0],[9E+09,9E+09,9E+09,9E+09,9E+09,9E+09]];
CONST robtarget Target_620:=[[71.07458861331821, 497.71450503912365, 311.9562426570966],[0,0.383,0.924,0],[0,0,0,0],[9E+09,9E+09,9E+09,9E+09,9E+09,9E+09]];
CONST robtarget Target_621:=[[73.34807770681016, 496.73270940469024, 306.4911420474116],[0,0.383,0.924,0],[0,0,0,0],[9E+09,9E+09,9E+09,9E+09,9E+09,9E+09]];
CONST robtarget Target_622:=[[75.62156680030216, 495.7509137702568, 301.02604143772646],[0,0.383,0.924,0],[0,0,0,0],[9E+09,9E+09,9E+09,9E+09,9E+09,9E+09]];
CONST robtarget Target_623:=[[77.89505589379414, 494.7691181358233, 295.56094082804134],[0,0.383,0.924,0],[0,0,0,0],[9E+09,9E+09,9E+09,9E+09,9E+09,9E+09]];
CONST robtarget Target_624:=[[80.16854498728614, 493.78732250138984, 290.0958402183562],[0,0.383,0.924,0],[0,0,0,0],[9E+09,9E+09,9E+09,9E+09,9E+09,9E+09]];
CONST robtarget Target_625:=[[82.44203408077811, 492.80552686695637, 284.63073960867115],[0,0.383,0.924,0],[0,0,0,0],[9E+09,9E+09,9E+09,9E+09,9E+09,9E+09]];
CONST robtarget Target_626:=[[84.71552317427009, 491.82373123252296, 279.165638998986],[0,0.383,0.924,0],[0,0,0,0],[9E+09,9E+09,9E+09,9E+09,9E+09,9E+09]];
CONST robtarget Target_627:=[[86.98901226776206, 490.8419355980895, 273.70053838930096],[0,0.383,0.924,0],[0,0,0,0],[9E+09,9E+09,9E+09,9E+09,9E+09,9E+09]];
CONST robtarget Target_628:=[[89.26250136125407, 489.860139963656, 268.23543777961584],[0,0.383,0.924,0],[0,0,0,0],[9E+09,9E+09,9E+09,9E+09,9E+09,9E+09]];
CONST robtarget Target_629:=[[91.53599045474604, 488.87834432922256, 262.77033716993077],[0,0.383,0.924,0],[0,0,0,0],[9E+09,9E+09,9E+09,9E+09,9E+09,9E+09]];
CONST robtarget Target_630:=[[93.80947954823802, 487.8965486947891, 257.30523656024565],[0,0.383,0.924,0],[0,0,0,0],[9E+09,9E+09,9E+09,9E+09,9E+09,9E+09]];
CONST robtarget Target_631:=[[96.08296864172999, 486.9147530603557, 251.84013595056055],[0,0.383,0.924,0],[0,0,0,0],[9E+09,9E+09,9E+09,9E+09,9E+09,9E+09]];
CONST robtarget Target_632:=[[98.35645773522197, 485.9329574259222, 246.37503534087546],[0,0.383,0.924,0],[0,0,0,0],[9E+09,9E+09,9E+09,9E+09,9E+09,9E+09]];
CONST robtarget Target_633:=[[100.62994682871397, 484.95116179148874, 240.90993473119036],[0,0.383,0.924,0],[0,0,0,0],[9E+09,9E+09,9E+09,9E+09,9E+09,9E+09]];
CONST robtarget Target_634:=[[102.90343592220594, 483.96936615705533, 235.44483412150527],[0,0.383,0.924,0],[0,0,0,0],[9E+09,9E+09,9E+09,9E+09,9E+09,9E+09]];
CONST robtarget Target_635:=[[105.17692501569792, 482.9875705226218, 229.97973351182017],[0,0.383,0.924,0],[0,0,0,0],[9E+09,9E+09,9E+09,9E+09,9E+09,9E+09]];
CONST robtarget Target_636:=[[107.45041410918992, 482.0057748881884, 224.51463290213505],[0,0.383,0.924,0],[0,0,0,0],[9E+09,9E+09,9E+09,9E+09,9E+09,9E+09]];
CONST robtarget Target_637:=[[109.7239032026819, 481.02397925375493, 219.04953229244998],[0,0.383,0.924,0],[0,0,0,0],[9E+09,9E+09,9E+09,9E+09,9E+09,9E+09]];
CONST robtarget Target_638:=[[111.99739229617387, 480.04218361932146, 213.58443168276486],[0,0.383,0.924,0],[0,0,0,0],[9E+09,9E+09,9E+09,9E+09,9E+09,9E+09]];
CONST robtarget Target_639:=[[114.27088138966585, 479.06038798488805, 208.1193310730798],[0,0.383,0.924,0],[0,0,0,0],[9E+09,9E+09,9E+09,9E+09,9E+09,9E+09]];
CONST robtarget Target_640:=[[116.54437048315785, 478.0785923504545, 202.65423046339467],[0,0.383,0.924,0],[0,0,0,0],[9E+09,9E+09,9E+09,9E+09,9E+09,9E+09]];
CONST robtarget Target_641:=[[118.81785957664982, 477.0967967160211, 197.1891298537096],[0,0.383,0.924,0],[0,0,0,0],[9E+09,9E+09,9E+09,9E+09,9E+09,9E+09]];
CONST robtarget Target_642:=[[121.0913486701418, 476.11500108158765, 191.72402924402448],[0,0.383,0.924,0],[0,0,0,0],[9E+09,9E+09,9E+09,9E+09,9E+09,9E+09]];
CONST robtarget Target_643:=[[123.3648377636338, 475.1332054471542, 186.25892863433936],[0,0.383,0.924,0],[0,0,0,0],[9E+09,9E+09,9E+09,9E+09,9E+09,9E+09]];
CONST robtarget Target_644:=[[125.63832685712575, 474.1514098127208, 180.7938280246543],[0,0.383,0.924,0],[0,0,0,0],[9E+09,9E+09,9E+09,9E+09,9E+09,9E+09]];
CONST robtarget Target_645:=[[127.91181595061775, 473.16961417828725, 175.32872741496917],[0,0.383,0.924,0],[0,0,0,0],[9E+09,9E+09,9E+09,9E+09,9E+09,9E+09]];
CONST robtarget Target_646:=[[130.18530504410973, 472.18781854385384, 169.8636268052841],[0,0.383,0.924,0],[0,0,0,0],[9E+09,9E+09,9E+09,9E+09,9E+09,9E+09]];
CONST robtarget Target_647:=[[132.4587941376017, 471.20602290942037, 164.39852619559898],[0,0.383,0.924,0],[0,0,0,0],[9E+09,9E+09,9E+09,9E+09,9E+09,9E+09]];
CONST robtarget Target_648:=[[134.73228323109367, 470.2242272749869, 158.9334255859139],[0,0.383,0.924,0],[0,0,0,0],[9E+09,9E+09,9E+09,9E+09,9E+09,9E+09]];
CONST robtarget Target_649:=[[137.00577232458568, 469.2424316405535, 153.46832497622879],[0,0.383,0.924,0],[0,0,0,0],[9E+09,9E+09,9E+09,9E+09,9E+09,9E+09]];
CONST robtarget Target_650:=[[139.27926141807765, 468.26063600612, 148.0032243665437],[0,0.383,0.924,0],[0,0,0,0],[9E+09,9E+09,9E+09,9E+09,9E+09,9E+09]];
CONST robtarget Target_651:=[[141.55275051156963, 467.27884037168656, 142.5381237568586],[0,0.383,0.924,0],[0,0,0,0],[9E+09,9E+09,9E+09,9E+09,9E+09,9E+09]];
CONST robtarget Target_652:=[[143.82623960506163, 466.2970447372531, 137.0730231471735],[0,0.383,0.924,0],[0,0,0,0],[9E+09,9E+09,9E+09,9E+09,9E+09,9E+09]];
CONST robtarget Target_653:=[[146.0997286985536, 465.3152491028196, 131.60792253748838],[0,0.383,0.924,0],[0,0,0,0],[9E+09,9E+09,9E+09,9E+09,9E+09,9E+09]];
CONST robtarget Target_654:=[[148.37321779204558, 464.3334534683862, 126.1428219278033],[0,0.383,0.924,0],[0,0,0,0],[9E+09,9E+09,9E+09,9E+09,9E+09,9E+09]];
CONST robtarget Target_655:=[[150.64670688553755, 463.35165783395274, 120.6777213181182],[0,0.383,0.924,0],[0,0,0,0],[9E+09,9E+09,9E+09,9E+09,9E+09,9E+09]];
CONST robtarget Target_656:=[[152.92019597902953, 462.3698621995193, 115.2126207084331],[0,0.383,0.924,0],[0,0,0,0],[9E+09,9E+09,9E+09,9E+09,9E+09,9E+09]];
CONST robtarget Target_657:=[[155.19368507252153, 461.38806656508586, 109.74752009874801],[0,0.383,0.924,0],[0,0,0,0],[9E+09,9E+09,9E+09,9E+09,9E+09,9E+09]];
CONST robtarget Target_658:=[[157.4671741660135, 460.40627093065234, 104.28241948906292],[0,0.383,0.924,0],[0,0,0,0],[9E+09,9E+09,9E+09,9E+09,9E+09,9E+09]];
CONST robtarget Target_659:=[[159.74066325950548, 459.42447529621893, 98.81731887937781],[0,0.383,0.924,0],[0,0,0,0],[9E+09,9E+09,9E+09,9E+09,9E+09,9E+09]];
CONST robtarget Target_660:=[[162.01415235299748, 458.44267966178546, 93.35221826969271],[0,0.383,0.924,0],[0,0,0,0],[9E+09,9E+09,9E+09,9E+09,9E+09,9E+09]];
CONST robtarget Target_661:=[[164.28764144648946, 457.460884027352, 87.88711766000762],[0,0.383,0.924,0],[0,0,0,0],[9E+09,9E+09,9E+09,9E+09,9E+09,9E+09]];
CONST robtarget Target_662:=[[166.56113053998143, 456.4790883929186, 82.42201705032252],[0,0.383,0.924,0],[0,0,0,0],[9E+09,9E+09,9E+09,9E+09,9E+09,9E+09]];
CONST robtarget Target_663:=[[168.83461963347344, 455.49729275848506, 76.95691644063741],[0,0.383,0.924,0],[0,0,0,0],[9E+09,9E+09,9E+09,9E+09,9E+09,9E+09]];
CONST robtarget Target_664:=[[171.10810872696538, 454.51549712405165, 71.49181583095232],[0,0.383,0.924,0],[0,0,0,0],[9E+09,9E+09,9E+09,9E+09,9E+09,9E+09]];
CONST robtarget Target_665:=[[173.3815978204574, 453.5337014896182, 66.02671522126722],[0,0.383,0.924,0],[0,0,0,0],[9E+09,9E+09,9E+09,9E+09,9E+09,9E+09]];
CONST robtarget Target_666:=[[175.65508691394936, 452.5519058551847, 60.56161461158212],[0,0.383,0.924,0],[0,0,0,0],[9E+09,9E+09,9E+09,9E+09,9E+09,9E+09]];
CONST robtarget Target_667:=[[177.92857600744134, 451.5701102207513, 55.09651400189703],[0,0.383,0.924,0],[0,0,0,0],[9E+09,9E+09,9E+09,9E+09,9E+09,9E+09]];
CONST robtarget Target_668:=[[180.20206510093334, 450.5883145863178, 49.63141339221193],[0,0.383,0.924,0],[0,0,0,0],[9E+09,9E+09,9E+09,9E+09,9E+09,9E+09]];
CONST robtarget Target_669:=[[182.4755541944253, 449.60651895188437, 44.16631278252684],[0,0.383,0.924,0],[0,0,0,0],[9E+09,9E+09,9E+09,9E+09,9E+09,9E+09]];
CONST robtarget Target_670:=[[184.7490432879173, 448.6247233174509, 38.70121217284173],[0,0.383,0.924,0],[0,0,0,0],[9E+09,9E+09,9E+09,9E+09,9E+09,9E+09]];
