CONST robtarget Target_1:=[[-350.0, 250.0, 93.0],[0,0.383,0.924,0],[0,0,0,0],[9E+09,9E+09,9E+09,9E+09,9E+09,9E+09]];
CONST robtarget Target_2:=[[-347.01978646674957, 249.7388253341872, 92.32840800219562],[0,0.383,0.924,0],[0,0,0,0],[9E+09,9E+09,9E+09,9E+09,9E+09,9E+09]];
CONST robtarget Target_3:=[[-344.03957293349913, 249.47765066837437, 91.65681600439123],[0,0.383,0.924,0],[0,0,0,0],[9E+09,9E+09,9E+09,9E+09,9E+09,9E+09]];
CONST robtarget Target_4:=[[-341.0593594002486, 249.21647600256154, 90.98522400658685],[0,0.383,0.924,0],[0,0,0,0],[9E+09,9E+09,9E+09,9E+09,9E+09,9E+09]];
CONST robtarget Target_5:=[[-338.07914586699815, 248.95530133674873, 90.31363200878246],[0,0.383,0.924,0],[0,0,0,0],[9E+09,9E+09,9E+09,9E+09,9E+09,9E+09]];
CONST robtarget Target_6:=[[-335.0989323337477, 248.69412667093593, 89.64204001097808],[0,0.383,0.924,0],[0,0,0,0],[9E+09,9E+09,9E+09,9E+09,9E+09,9E+09]];
CONST robtarget Target_7:=[[-332.11871880049716, 248.4329520051231, 88.97044801317371],[0,0.383,0.924,0],[0,0,0,0],[9E+09,9E+09,9E+09,9E+09,9E+09,9E+09]];
CONST robtarget Target_8:=[[-329.1385052672467, 248.17177733931027, 88.29885601536932],[0,0.383,0.924,0],[0,0,0,0],[9E+09,9E+09,9E+09,9E+09,9E+09,9E+09]];
CONST robtarget Target_9:=[[-326.1582917339963, 247.91060267349746, 87.62726401756494],[0,0.383,0.924,0],[0,0,0,0],[9E+09,9E+09,9E+09,9E+09,9E+09,9E+09]];
CONST robtarget Target_10:=[[-323.17807820074574, 247.64942800768466, 86.95567201976056],[0,0.383,0.924,0],[0,0,0,0],[9E+09,9E+09,9E+09,9E+09,9E+09,9E+09]];
CONST robtarget Target_11:=[[-320.1978646674953, 247.38825334187183, 86.28408002195617],[0,0.383,0.924,0],[0,0,0,0],[9E+09,9E+09,9E+09,9E+09,9E+09,9E+09]];
CONST robtarget Target_12:=[[-317.2176511342449, 247.127078676059, 85.61248802415179],[0,0.383,0.924,0],[0,0,0,0],[9E+09,9E+09,9E+09,9E+09,9E+09,9E+09]];
CONST robtarget Target_13:=[[-314.23743760099444, 246.8659040102462, 84.94089602634742],[0,0.383,0.924,0],[0,0,0,0],[9E+09,9E+09,9E+09,9E+09,9E+09,9E+09]];
CONST robtarget Target_14:=[[-311.2572240677439, 246.6047293444334, 84.26930402854302],[0,0.383,0.924,0],[0,0,0,0],[9E+09,9E+09,9E+09,9E+09,9E+09,9E+09]];
CONST robtarget Target_15:=[[-308.27701053449346, 246.34355467862056, 83.59771203073865],[0,0.383,0.924,0],[0,0,0,0],[9E+09,9E+09,9E+09,9E+09,9E+09,9E+09]];
CONST robtarget Target_16:=[[-305.296797001243, 246.08238001280776, 82.92612003293425],[0,0.383,0.924,0],[0,0,0,0],[9E+09,9E+09,9E+09,9E+09,9E+09,9E+09]];
CONST robtarget Target_17:=[[-302.3165834679926, 245.82120534699493, 82.25452803512988],[0,0.383,0.924,0],[0,0,0,0],[9E+09,9E+09,9E+09,9E+09,9E+09,9E+09]];
CONST robtarget Target_18:=[[-299.33636993474204, 245.56003068118213, 81.58293603732551],[0,0.383,0.924,0],[0,0,0,0],[9E+09,9E+09,9E+09,9E+09,9E+09,9E+09]];
CONST robtarget Target_19:=[[-296.3561564014916, 245.2988560153693, 80.91134403952113],[0,0.383,0.924,0],[0,0,0,0],[9E+09,9E+09,9E+09,9E+09,9E+09,9E+09]];
CONST robtarget Target_20:=[[-293.37594286824105, 245.0376813495565, 80.23975204171674],[0,0.383,0.924,0],[0,0,0,0],[9E+09,9E+09,9E+09,9E+09,9E+09,9E+09]];
CONST robtarget Target_21:=[[-290.3957293349906, 244.77650668374366, 79.56816004391236],[0,0.383,0.924,0],[0,0,0,0],[9E+09,9E+09,9E+09,9E+09,9E+09,9E+09]];
CONST robtarget Target_22:=[[-287.4155158017402, 244.51533201793086, 78.89656804610797],[0,0.383,0.924,0],[0,0,0,0],[9E+09,9E+09,9E+09,9E+09,9E+09,9E+09]];
CONST robtarget Target_23:=[[-284.43530226848975, 244.25415735211803, 78.2249760483036],[0,0.383,0.924,0],[0,0,0,0],[9E+09,9E+09,9E+09,9E+09,9E+09,9E+09]];
CONST robtarget Target_24:=[[-281.4550887352392, 243.99298268630523, 77.5533840504992],[0,0.383,0.924,0],[0,0,0,0],[9E+09,9E+09,9E+09,9E+09,9E+09,9E+09]];
CONST robtarget Target_25:=[[-278.47487520198877, 243.7318080204924, 76.88179205269483],[0,0.383,0.924,0],[0,0,0,0],[9E+09,9E+09,9E+09,9E+09,9E+09,9E+09]];
CONST robtarget Target_26:=[[-275.49466166873833, 243.4706333546796, 76.21020005489044],[0,0.383,0.924,0],[0,0,0,0],[9E+09,9E+09,9E+09,9E+09,9E+09,9E+09]];
CONST robtarget Target_27:=[[-272.5144481354879, 243.20945868886676, 75.53860805708607],[0,0.383,0.924,0],[0,0,0,0],[9E+09,9E+09,9E+09,9E+09,9E+09,9E+09]];
CONST robtarget Target_28:=[[-269.53423460223735, 242.94828402305396, 74.86701605928168],[0,0.383,0.924,0],[0,0,0,0],[9E+09,9E+09,9E+09,9E+09,9E+09,9E+09]];
CONST robtarget Target_29:=[[-266.5540210689869, 242.68710935724113, 74.1954240614773],[0,0.383,0.924,0],[0,0,0,0],[9E+09,9E+09,9E+09,9E+09,9E+09,9E+09]];
CONST robtarget Target_30:=[[-263.57380753573636, 242.42593469142832, 73.52383206367291],[0,0.383,0.924,0],[0,0,0,0],[9E+09,9E+09,9E+09,9E+09,9E+09,9E+09]];
CONST robtarget Target_31:=[[-260.59359400248593, 242.1647600256155, 72.85224006586853],[0,0.383,0.924,0],[0,0,0,0],[9E+09,9E+09,9E+09,9E+09,9E+09,9E+09]];
CONST robtarget Target_32:=[[-257.6133804692355, 241.9035853598027, 72.18064806806414],[0,0.383,0.924,0],[0,0,0,0],[9E+09,9E+09,9E+09,9E+09,9E+09,9E+09]];
CONST robtarget Target_33:=[[-254.63316693598506, 241.64241069398986, 71.50905607025977],[0,0.383,0.924,0],[0,0,0,0],[9E+09,9E+09,9E+09,9E+09,9E+09,9E+09]];
CONST robtarget Target_34:=[[-251.6529534027345, 241.38123602817706, 70.83746407245539],[0,0.383,0.924,0],[0,0,0,0],[9E+09,9E+09,9E+09,9E+09,9E+09,9E+09]];
CONST robtarget Target_35:=[[-248.67273986948408, 241.12006136236423, 70.165872074651],[0,0.383,0.924,0],[0,0,0,0],[9E+09,9E+09,9E+09,9E+09,9E+09,9E+09]];
CONST robtarget Target_36:=[[-245.69252633623364, 240.85888669655142, 69.49428007684662],[0,0.383,0.924,0],[0,0,0,0],[9E+09,9E+09,9E+09,9E+09,9E+09,9E+09]];
CONST robtarget Target_37:=[[-242.7123128029832, 240.5977120307386, 68.82268807904224],[0,0.383,0.924,0],[0,0,0,0],[9E+09,9E+09,9E+09,9E+09,9E+09,9E+09]];
CONST robtarget Target_38:=[[-239.73209926973266, 240.3365373649258, 68.15109608123785],[0,0.383,0.924,0],[0,0,0,0],[9E+09,9E+09,9E+09,9E+09,9E+09,9E+09]];
CONST robtarget Target_39:=[[-236.75188573648222, 240.07536269911296, 67.47950408343348],[0,0.383,0.924,0],[0,0,0,0],[9E+09,9E+09,9E+09,9E+09,9E+09,9E+09]];
CONST robtarget Target_40:=[[-233.7716722032318, 239.81418803330016, 66.80791208562908],[0,0.383,0.924,0],[0,0,0,0],[9E+09,9E+09,9E+09,9E+09,9E+09,9E+09]];
CONST robtarget Target_41:=[[-230.79145866998124, 239.55301336748732, 66.13632008782471],[0,0.383,0.924,0],[0,0,0,0],[9E+09,9E+09,9E+09,9E+09,9E+09,9E+09]];
CONST robtarget Target_42:=[[-227.8112451367308, 239.29183870167452, 65.46472809002032],[0,0.383,0.924,0],[0,0,0,0],[9E+09,9E+09,9E+09,9E+09,9E+09,9E+09]];
CONST robtarget Target_43:=[[-224.83103160348026, 239.0306640358617, 64.79313609221593],[0,0.383,0.924,0],[0,0,0,0],[9E+09,9E+09,9E+09,9E+09,9E+09,9E+09]];
CONST robtarget Target_44:=[[-221.85081807022982, 238.7694893700489, 64.12154409441156],[0,0.383,0.924,0],[0,0,0,0],[9E+09,9E+09,9E+09,9E+09,9E+09,9E+09]];
CONST robtarget Target_45:=[[-218.87060453697939, 238.50831470423606, 63.44995209660717],[0,0.383,0.924,0],[0,0,0,0],[9E+09,9E+09,9E+09,9E+09,9E+09,9E+09]];
CONST robtarget Target_46:=[[-215.89039100372895, 238.24714003842325, 62.77836009880279],[0,0.383,0.924,0],[0,0,0,0],[9E+09,9E+09,9E+09,9E+09,9E+09,9E+09]];
CONST robtarget Target_47:=[[-212.9101774704784, 237.98596537261042, 62.106768100998416],[0,0.383,0.924,0],[0,0,0,0],[9E+09,9E+09,9E+09,9E+09,9E+09,9E+09]];
CONST robtarget Target_48:=[[-209.92996393722797, 237.72479070679762, 61.43517610319404],[0,0.383,0.924,0],[0,0,0,0],[9E+09,9E+09,9E+09,9E+09,9E+09,9E+09]];
CONST robtarget Target_49:=[[-206.94975040397753, 237.4636160409848, 60.763584105389654],[0,0.383,0.924,0],[0,0,0,0],[9E+09,9E+09,9E+09,9E+09,9E+09,9E+09]];
CONST robtarget Target_50:=[[-203.96953687072704, 237.202441375172, 60.09199210758527],[0,0.383,0.924,0],[0,0,0,0],[9E+09,9E+09,9E+09,9E+09,9E+09,9E+09]];
CONST robtarget Target_51:=[[-200.98932333747655, 236.94126670935916, 59.420400109780886],[0,0.383,0.924,0],[0,0,0,0],[9E+09,9E+09,9E+09,9E+09,9E+09,9E+09]];
CONST robtarget Target_52:=[[-198.0091098042261, 236.68009204354635, 58.74880811197651],[0,0.383,0.924,0],[0,0,0,0],[9E+09,9E+09,9E+09,9E+09,9E+09,9E+09]];
CONST robtarget Target_53:=[[-195.02889627097562, 236.41891737773352, 58.07721611417212],[0,0.383,0.924,0],[0,0,0,0],[9E+09,9E+09,9E+09,9E+09,9E+09,9E+09]];
CONST robtarget Target_54:=[[-192.0486827377252, 236.15774271192072, 57.40562411636775],[0,0.383,0.924,0],[0,0,0,0],[9E+09,9E+09,9E+09,9E+09,9E+09,9E+09]];
CONST robtarget Target_55:=[[-189.0684692044747, 235.8965680461079, 56.734032118563356],[0,0.383,0.924,0],[0,0,0,0],[9E+09,9E+09,9E+09,9E+09,9E+09,9E+09]];
CONST robtarget Target_56:=[[-186.08825567122426, 235.63539338029508, 56.06244012075898],[0,0.383,0.924,0],[0,0,0,0],[9E+09,9E+09,9E+09,9E+09,9E+09,9E+09]];
CONST robtarget Target_57:=[[-183.1080421379737, 235.37421871448225, 55.390848122954594],[0,0.383,0.924,0],[0,0,0,0],[9E+09,9E+09,9E+09,9E+09,9E+09,9E+09]];
CONST robtarget Target_58:=[[-180.12782860472328, 235.11304404866945, 54.71925612515021],[0,0.383,0.924,0],[0,0,0,0],[9E+09,9E+09,9E+09,9E+09,9E+09,9E+09]];
CONST robtarget Target_59:=[[-177.14761507147284, 234.85186938285665, 54.047664127345826],[0,0.383,0.924,0],[0,0,0,0],[9E+09,9E+09,9E+09,9E+09,9E+09,9E+09]];
CONST robtarget Target_60:=[[-174.1674015382224, 234.59069471704382, 53.37607212954145],[0,0.383,0.924,0],[0,0,0,0],[9E+09,9E+09,9E+09,9E+09,9E+09,9E+09]];
CONST robtarget Target_61:=[[-171.18718800497186, 234.329520051231, 52.70448013173706],[0,0.383,0.924,0],[0,0,0,0],[9E+09,9E+09,9E+09,9E+09,9E+09,9E+09]];
CONST robtarget Target_62:=[[-168.20697447172142, 234.06834538541818, 52.03288813393269],[0,0.383,0.924,0],[0,0,0,0],[9E+09,9E+09,9E+09,9E+09,9E+09,9E+09]];
CONST robtarget Target_63:=[[-165.22676093847093, 233.80717071960538, 51.361296136128296],[0,0.383,0.924,0],[0,0,0,0],[9E+09,9E+09,9E+09,9E+09,9E+09,9E+09]];
CONST robtarget Target_64:=[[-162.2465474052205, 233.54599605379255, 50.68970413832392],[0,0.383,0.924,0],[0,0,0,0],[9E+09,9E+09,9E+09,9E+09,9E+09,9E+09]];
CONST robtarget Target_65:=[[-159.26633387197, 233.28482138797972, 50.018112140519534],[0,0.383,0.924,0],[0,0,0,0],[9E+09,9E+09,9E+09,9E+09,9E+09,9E+09]];
CONST robtarget Target_66:=[[-156.28612033871957, 233.02364672216692, 49.34652014271515],[0,0.383,0.924,0],[0,0,0,0],[9E+09,9E+09,9E+09,9E+09,9E+09,9E+09]];
CONST robtarget Target_67:=[[-153.30590680546902, 232.7624720563541, 48.674928144910766],[0,0.383,0.924,0],[0,0,0,0],[9E+09,9E+09,9E+09,9E+09,9E+09,9E+09]];
CONST robtarget Target_68:=[[-150.3256932722186, 232.50129739054128, 48.00333614710639],[0,0.383,0.924,0],[0,0,0,0],[9E+09,9E+09,9E+09,9E+09,9E+09,9E+09]];
CONST robtarget Target_69:=[[-147.34547973896815, 232.24012272472845, 47.331744149302],[0,0.383,0.924,0],[0,0,0,0],[9E+09,9E+09,9E+09,9E+09,9E+09,9E+09]];
CONST robtarget Target_70:=[[-144.36526620571766, 231.97894805891565, 46.66015215149762],[0,0.383,0.924,0],[0,0,0,0],[9E+09,9E+09,9E+09,9E+09,9E+09,9E+09]];
CONST robtarget Target_71:=[[-141.38505267246717, 231.71777339310285, 45.988560153693236],[0,0.383,0.924,0],[0,0,0,0],[9E+09,9E+09,9E+09,9E+09,9E+09,9E+09]];
CONST robtarget Target_72:=[[-138.40483913921673, 231.45659872729001, 45.31696815588886],[0,0.383,0.924,0],[0,0,0,0],[9E+09,9E+09,9E+09,9E+09,9E+09,9E+09]];
CONST robtarget Target_73:=[[-135.42462560596624, 231.1954240614772, 44.645376158084474],[0,0.383,0.924,0],[0,0,0,0],[9E+09,9E+09,9E+09,9E+09,9E+09,9E+09]];
CONST robtarget Target_74:=[[-132.44441207271575, 230.93424939566438, 43.97378416028009],[0,0.383,0.924,0],[0,0,0,0],[9E+09,9E+09,9E+09,9E+09,9E+09,9E+09]];
CONST robtarget Target_75:=[[-129.46419853946531, 230.67307472985158, 43.30219216247571],[0,0.383,0.924,0],[0,0,0,0],[9E+09,9E+09,9E+09,9E+09,9E+09,9E+09]];
CONST robtarget Target_76:=[[-126.48398500621488, 230.41190006403875, 42.63060016467133],[0,0.383,0.924,0],[0,0,0,0],[9E+09,9E+09,9E+09,9E+09,9E+09,9E+09]];
CONST robtarget Target_77:=[[-123.50377147296439, 230.15072539822594, 41.959008166866944],[0,0.383,0.924,0],[0,0,0,0],[9E+09,9E+09,9E+09,9E+09,9E+09,9E+09]];
CONST robtarget Target_78:=[[-120.5235579397139, 229.8895507324131, 41.28741616906257],[0,0.383,0.924,0],[0,0,0,0],[9E+09,9E+09,9E+09,9E+09,9E+09,9E+09]];
CONST robtarget Target_79:=[[-117.54334440646346, 229.6283760666003, 40.61582417125818],[0,0.383,0.924,0],[0,0,0,0],[9E+09,9E+09,9E+09,9E+09,9E+09,9E+09]];
CONST robtarget Target_80:=[[-114.56313087321297, 229.36720140078748, 39.9442321734538],[0,0.383,0.924,0],[0,0,0,0],[9E+09,9E+09,9E+09,9E+09,9E+09,9E+09]];
CONST robtarget Target_81:=[[-111.58291733996248, 229.10602673497468, 39.272640175649414],[0,0.383,0.924,0],[0,0,0,0],[9E+09,9E+09,9E+09,9E+09,9E+09,9E+09]];
CONST robtarget Target_82:=[[-108.60270380671204, 228.84485206916185, 38.60104817784503],[0,0.383,0.924,0],[0,0,0,0],[9E+09,9E+09,9E+09,9E+09,9E+09,9E+09]];
CONST robtarget Target_83:=[[-105.62249027346161, 228.58367740334904, 37.92945618004065],[0,0.383,0.924,0],[0,0,0,0],[9E+09,9E+09,9E+09,9E+09,9E+09,9E+09]];
CONST robtarget Target_84:=[[-102.64227674021106, 228.3225027375362, 37.25786418223627],[0,0.383,0.924,0],[0,0,0,0],[9E+09,9E+09,9E+09,9E+09,9E+09,9E+09]];
CONST robtarget Target_85:=[[-99.66206320696062, 228.0613280717234, 36.586272184431884],[0,0.383,0.924,0],[0,0,0,0],[9E+09,9E+09,9E+09,9E+09,9E+09,9E+09]];
CONST robtarget Target_86:=[[-96.68184967371019, 227.80015340591058, 35.91468018662751],[0,0.383,0.924,0],[0,0,0,0],[9E+09,9E+09,9E+09,9E+09,9E+09,9E+09]];
CONST robtarget Target_87:=[[-93.7016361404597, 227.53897874009778, 35.24308818882312],[0,0.383,0.924,0],[0,0,0,0],[9E+09,9E+09,9E+09,9E+09,9E+09,9E+09]];
CONST robtarget Target_88:=[[-90.7214226072092, 227.27780407428494, 34.571496191018745],[0,0.383,0.924,0],[0,0,0,0],[9E+09,9E+09,9E+09,9E+09,9E+09,9E+09]];
CONST robtarget Target_89:=[[-87.74120907395877, 227.01662940847214, 33.89990419321436],[0,0.383,0.924,0],[0,0,0,0],[9E+09,9E+09,9E+09,9E+09,9E+09,9E+09]];
CONST robtarget Target_90:=[[-84.76099554070828, 226.7554547426593, 33.22831219540998],[0,0.383,0.924,0],[0,0,0,0],[9E+09,9E+09,9E+09,9E+09,9E+09,9E+09]];
CONST robtarget Target_91:=[[-81.78078200745779, 226.4942800768465, 32.5567201976056],[0,0.383,0.924,0],[0,0,0,0],[9E+09,9E+09,9E+09,9E+09,9E+09,9E+09]];
CONST robtarget Target_92:=[[-78.80056847420735, 226.23310541103368, 31.885128199801215],[0,0.383,0.924,0],[0,0,0,0],[9E+09,9E+09,9E+09,9E+09,9E+09,9E+09]];
CONST robtarget Target_93:=[[-75.82035494095692, 225.97193074522087, 31.21353620199683],[0,0.383,0.924,0],[0,0,0,0],[9E+09,9E+09,9E+09,9E+09,9E+09,9E+09]];
CONST robtarget Target_94:=[[-72.84014140770643, 225.71075607940804, 30.541944204192447],[0,0.383,0.924,0],[0,0,0,0],[9E+09,9E+09,9E+09,9E+09,9E+09,9E+09]];
CONST robtarget Target_95:=[[-69.85992787445593, 225.44958141359524, 29.870352206388066],[0,0.383,0.924,0],[0,0,0,0],[9E+09,9E+09,9E+09,9E+09,9E+09,9E+09]];
CONST robtarget Target_96:=[[-66.8797143412055, 225.1884067477824, 29.198760208583685],[0,0.383,0.924,0],[0,0,0,0],[9E+09,9E+09,9E+09,9E+09,9E+09,9E+09]];
CONST robtarget Target_97:=[[-63.89950080795501, 224.9272320819696, 28.5271682107793],[0,0.383,0.924,0],[0,0,0,0],[9E+09,9E+09,9E+09,9E+09,9E+09,9E+09]];
CONST robtarget Target_98:=[[-60.919287274704516, 224.66605741615678, 27.855576212974917],[0,0.383,0.924,0],[0,0,0,0],[9E+09,9E+09,9E+09,9E+09,9E+09,9E+09]];
CONST robtarget Target_99:=[[-57.93907374145408, 224.40488275034397, 27.183984215170536],[0,0.383,0.924,0],[0,0,0,0],[9E+09,9E+09,9E+09,9E+09,9E+09,9E+09]];
CONST robtarget Target_100:=[[-54.95886020820359, 224.14370808453114, 26.512392217366155],[0,0.383,0.924,0],[0,0,0,0],[9E+09,9E+09,9E+09,9E+09,9E+09,9E+09]];
CONST robtarget Target_101:=[[-51.978646674953154, 223.88253341871834, 25.840800219561775],[0,0.383,0.924,0],[0,0,0,0],[9E+09,9E+09,9E+09,9E+09,9E+09,9E+09]];
CONST robtarget Target_102:=[[-48.99843314170266, 223.6213587529055, 25.169208221757387],[0,0.383,0.924,0],[0,0,0,0],[9E+09,9E+09,9E+09,9E+09,9E+09,9E+09]];
CONST robtarget Target_103:=[[-46.01821960845217, 223.3601840870927, 24.497616223953006],[0,0.383,0.924,0],[0,0,0,0],[9E+09,9E+09,9E+09,9E+09,9E+09,9E+09]];
CONST robtarget Target_104:=[[-43.038006075201736, 223.09900942127987, 23.826024226148625],[0,0.383,0.924,0],[0,0,0,0],[9E+09,9E+09,9E+09,9E+09,9E+09,9E+09]];
CONST robtarget Target_105:=[[-40.057792541951244, 222.83783475546707, 23.15443222834424],[0,0.383,0.924,0],[0,0,0,0],[9E+09,9E+09,9E+09,9E+09,9E+09,9E+09]];
CONST robtarget Target_106:=[[-37.07757900870081, 222.57666008965424, 22.482840230539857],[0,0.383,0.924,0],[0,0,0,0],[9E+09,9E+09,9E+09,9E+09,9E+09,9E+09]];
CONST robtarget Target_107:=[[-34.09736547545032, 222.31548542384144, 21.81124823273548],[0,0.383,0.924,0],[0,0,0,0],[9E+09,9E+09,9E+09,9E+09,9E+09,9E+09]];
CONST robtarget Target_108:=[[-31.117151942199825, 222.0543107580286, 21.139656234931095],[0,0.383,0.924,0],[0,0,0,0],[9E+09,9E+09,9E+09,9E+09,9E+09,9E+09]];
CONST robtarget Target_109:=[[-28.13693840894939, 221.7931360922158, 20.468064237126715],[0,0.383,0.924,0],[0,0,0,0],[9E+09,9E+09,9E+09,9E+09,9E+09,9E+09]];
CONST robtarget Target_110:=[[-25.1567248756989, 221.53196142640297, 19.79647223932233],[0,0.383,0.924,0],[0,0,0,0],[9E+09,9E+09,9E+09,9E+09,9E+09,9E+09]];
CONST robtarget Target_111:=[[-22.176511342448407, 221.27078676059017, 19.12488024151795],[0,0.383,0.924,0],[0,0,0,0],[9E+09,9E+09,9E+09,9E+09,9E+09,9E+09]];
CONST robtarget Target_112:=[[-19.196297809197972, 221.00961209477737, 18.453288243713565],[0,0.383,0.924,0],[0,0,0,0],[9E+09,9E+09,9E+09,9E+09,9E+09,9E+09]];
CONST robtarget Target_113:=[[-16.21608427594748, 220.74843742896454, 17.78169624590918],[0,0.383,0.924,0],[0,0,0,0],[9E+09,9E+09,9E+09,9E+09,9E+09,9E+09]];
CONST robtarget Target_114:=[[-13.235870742697045, 220.4872627631517, 17.110104248104797],[0,0.383,0.924,0],[0,0,0,0],[9E+09,9E+09,9E+09,9E+09,9E+09,9E+09]];
CONST robtarget Target_115:=[[-10.255657209446554, 220.2260880973389, 16.43851225030042],[0,0.383,0.924,0],[0,0,0,0],[9E+09,9E+09,9E+09,9E+09,9E+09,9E+09]];
CONST robtarget Target_116:=[[-7.275443676196062, 219.9649134315261, 15.766920252496035],[0,0.383,0.924,0],[0,0,0,0],[9E+09,9E+09,9E+09,9E+09,9E+09,9E+09]];
CONST robtarget Target_117:=[[-4.295230142945627, 219.70373876571327, 15.095328254691655],[0,0.383,0.924,0],[0,0,0,0],[9E+09,9E+09,9E+09,9E+09,9E+09,9E+09]];
CONST robtarget Target_118:=[[-1.3150166096951352, 219.44256409990044, 14.42373625688727],[0,0.383,0.924,0],[0,0,0,0],[9E+09,9E+09,9E+09,9E+09,9E+09,9E+09]];
CONST robtarget Target_119:=[[1.6651969235553281, 219.18138943408763, 13.75214425908289],[0,0.383,0.924,0],[0,0,0,0],[9E+09,9E+09,9E+09,9E+09,9E+09,9E+09]];
CONST robtarget Target_120:=[[4.6454104568057915, 218.92021476827483, 13.080552261278505],[0,0.383,0.924,0],[0,0,0,0],[9E+09,9E+09,9E+09,9E+09,9E+09,9E+09]];
CONST robtarget Target_121:=[[7.625623990056255, 218.659040102462, 12.408960263474125],[0,0.383,0.924,0],[0,0,0,0],[9E+09,9E+09,9E+09,9E+09,9E+09,9E+09]];
CONST robtarget Target_122:=[[10.605837523306718, 218.39786543664917, 11.737368265669742],[0,0.383,0.924,0],[0,0,0,0],[9E+09,9E+09,9E+09,9E+09,9E+09,9E+09]];
CONST robtarget Target_123:=[[13.58605105655721, 218.13669077083637, 11.06577626786536],[0,0.383,0.924,0],[0,0,0,0],[9E+09,9E+09,9E+09,9E+09,9E+09,9E+09]];
CONST robtarget Target_124:=[[16.566264589807673, 217.87551610502356, 10.394184270060979],[0,0.383,0.924,0],[0,0,0,0],[9E+09,9E+09,9E+09,9E+09,9E+09,9E+09]];
CONST robtarget Target_125:=[[19.546478123058137, 217.61434143921073, 9.722592272256597],[0,0.383,0.924,0],[0,0,0,0],[9E+09,9E+09,9E+09,9E+09,9E+09,9E+09]];
CONST robtarget Target_126:=[[22.5266916563086, 217.3531667733979, 9.051000274452214],[0,0.383,0.924,0],[0,0,0,0],[9E+09,9E+09,9E+09,9E+09,9E+09,9E+09]];
CONST robtarget Target_127:=[[25.506905189559063, 217.0919921075851, 8.379408276647831],[0,0.383,0.924,0],[0,0,0,0],[9E+09,9E+09,9E+09,9E+09,9E+09,9E+09]];
CONST robtarget Target_128:=[[28.487118722809555, 216.8308174417723, 7.707816278843449],[0,0.383,0.924,0],[0,0,0,0],[9E+09,9E+09,9E+09,9E+09,9E+09,9E+09]];
CONST robtarget Target_129:=[[31.46733225606002, 216.56964277595947, 7.036224281039067],[0,0.383,0.924,0],[0,0,0,0],[9E+09,9E+09,9E+09,9E+09,9E+09,9E+09]];
CONST robtarget Target_130:=[[34.44754578931048, 216.30846811014663, 6.364632283234685],[0,0.383,0.924,0],[0,0,0,0],[9E+09,9E+09,9E+09,9E+09,9E+09,9E+09]];
CONST robtarget Target_131:=[[37.427759322560945, 216.04729344433383, 5.693040285430302],[0,0.383,0.924,0],[0,0,0,0],[9E+09,9E+09,9E+09,9E+09,9E+09,9E+09]];
CONST robtarget Target_132:=[[40.40797285581141, 215.78611877852103, 5.02144828762592],[0,0.383,0.924,0],[0,0,0,0],[9E+09,9E+09,9E+09,9E+09,9E+09,9E+09]];
CONST robtarget Target_133:=[[43.38818638906187, 215.5249441127082, 4.349856289821537],[0,0.383,0.924,0],[0,0,0,0],[9E+09,9E+09,9E+09,9E+09,9E+09,9E+09]];
CONST robtarget Target_134:=[[46.36839992231236, 215.26376944689537, 3.6782642920171553],[0,0.383,0.924,0],[0,0,0,0],[9E+09,9E+09,9E+09,9E+09,9E+09,9E+09]];
CONST robtarget Target_135:=[[49.34861345556283, 215.00259478108256, 3.006672294212773],[0,0.383,0.924,0],[0,0,0,0],[9E+09,9E+09,9E+09,9E+09,9E+09,9E+09]];
CONST robtarget Target_136:=[[48.9993405266992, 215.9147007443421, 3.0],[0,0.383,0.924,0],[0,0,0,0],[9E+09,9E+09,9E+09,9E+09,9E+09,9E+09]];
CONST robtarget Target_137:=[[48.61665707753875, 216.83858026989648, 3.0],[0,0.383,0.924,0],[0,0,0,0],[9E+09,9E+09,9E+09,9E+09,9E+09,9E+09]];
CONST robtarget Target_138:=[[48.233973628378266, 217.7624597954509, 3.0],[0,0.383,0.924,0],[0,0,0,0],[9E+09,9E+09,9E+09,9E+09,9E+09,9E+09]];
CONST robtarget Target_139:=[[47.851290179217784, 218.6863393210053, 3.0],[0,0.383,0.924,0],[0,0,0,0],[9E+09,9E+09,9E+09,9E+09,9E+09,9E+09]];
CONST robtarget Target_140:=[[47.4686067300573, 219.61021884655972, 3.0],[0,0.383,0.924,0],[0,0,0,0],[9E+09,9E+09,9E+09,9E+09,9E+09,9E+09]];
CONST robtarget Target_141:=[[47.08592328089682, 220.53409837211413, 3.0],[0,0.383,0.924,0],[0,0,0,0],[9E+09,9E+09,9E+09,9E+09,9E+09,9E+09]];
CONST robtarget Target_142:=[[46.70323983173634, 221.45797789766854, 3.0],[0,0.383,0.924,0],[0,0,0,0],[9E+09,9E+09,9E+09,9E+09,9E+09,9E+09]];
CONST robtarget Target_143:=[[46.32055638257586, 222.38185742322295, 3.0],[0,0.383,0.924,0],[0,0,0,0],[9E+09,9E+09,9E+09,9E+09,9E+09,9E+09]];
CONST robtarget Target_144:=[[45.937872933415406, 223.30573694877737, 3.0],[0,0.383,0.924,0],[0,0,0,0],[9E+09,9E+09,9E+09,9E+09,9E+09,9E+09]];
CONST robtarget Target_145:=[[45.555189484254925, 224.22961647433178, 3.0],[0,0.383,0.924,0],[0,0,0,0],[9E+09,9E+09,9E+09,9E+09,9E+09,9E+09]];
CONST robtarget Target_146:=[[45.17250603509444, 225.1534959998862, 3.0],[0,0.383,0.924,0],[0,0,0,0],[9E+09,9E+09,9E+09,9E+09,9E+09,9E+09]];
CONST robtarget Target_147:=[[44.78982258593396, 226.0773755254406, 3.0],[0,0.383,0.924,0],[0,0,0,0],[9E+09,9E+09,9E+09,9E+09,9E+09,9E+09]];
CONST robtarget Target_148:=[[44.40713913677348, 227.001255050995, 3.0],[0,0.383,0.924,0],[0,0,0,0],[9E+09,9E+09,9E+09,9E+09,9E+09,9E+09]];
CONST robtarget Target_149:=[[44.024455687613, 227.92513457654942, 3.0],[0,0.383,0.924,0],[0,0,0,0],[9E+09,9E+09,9E+09,9E+09,9E+09,9E+09]];
CONST robtarget Target_150:=[[43.641772238452546, 228.84901410210384, 3.0],[0,0.383,0.924,0],[0,0,0,0],[9E+09,9E+09,9E+09,9E+09,9E+09,9E+09]];
CONST robtarget Target_151:=[[43.259088789292065, 229.77289362765822, 3.0],[0,0.383,0.924,0],[0,0,0,0],[9E+09,9E+09,9E+09,9E+09,9E+09,9E+09]];
CONST robtarget Target_152:=[[42.87640534013158, 230.69677315321263, 3.0],[0,0.383,0.924,0],[0,0,0,0],[9E+09,9E+09,9E+09,9E+09,9E+09,9E+09]];
CONST robtarget Target_153:=[[42.4937218909711, 231.62065267876704, 3.0],[0,0.383,0.924,0],[0,0,0,0],[9E+09,9E+09,9E+09,9E+09,9E+09,9E+09]];
CONST robtarget Target_154:=[[42.29168333621632, 232.5929358589237, 3.0],[0,0.383,0.924,0],[0,0,0,0],[9E+09,9E+09,9E+09,9E+09,9E+09,9E+09]];
CONST robtarget Target_155:=[[42.16115715147714, 233.5843807212824, 3.0],[0,0.383,0.924,0],[0,0,0,0],[9E+09,9E+09,9E+09,9E+09,9E+09,9E+09]];
CONST robtarget Target_156:=[[42.03063096673799, 234.57582558364106, 3.0],[0,0.383,0.924,0],[0,0,0,0],[9E+09,9E+09,9E+09,9E+09,9E+09,9E+09]];
CONST robtarget Target_157:=[[41.900104781998806, 235.56727044599975, 3.0],[0,0.383,0.924,0],[0,0,0,0],[9E+09,9E+09,9E+09,9E+09,9E+09,9E+09]];
CONST robtarget Target_158:=[[41.769578597259624, 236.55871530835844, 3.0],[0,0.383,0.924,0],[0,0,0,0],[9E+09,9E+09,9E+09,9E+09,9E+09,9E+09]];
CONST robtarget Target_159:=[[41.63905241252047, 237.55016017071713, 3.0],[0,0.383,0.924,0],[0,0,0,0],[9E+09,9E+09,9E+09,9E+09,9E+09,9E+09]];
CONST robtarget Target_160:=[[41.50852622778129, 238.54160503307583, 3.0],[0,0.383,0.924,0],[0,0,0,0],[9E+09,9E+09,9E+09,9E+09,9E+09,9E+09]];
CONST robtarget Target_161:=[[41.378000043042135, 239.53304989543452, 3.0],[0,0.383,0.924,0],[0,0,0,0],[9E+09,9E+09,9E+09,9E+09,9E+09,9E+09]];
CONST robtarget Target_162:=[[41.24747385830295, 240.5244947577932, 3.0],[0,0.383,0.924,0],[0,0,0,0],[9E+09,9E+09,9E+09,9E+09,9E+09,9E+09]];
CONST robtarget Target_163:=[[41.1169476735638, 241.5159396201519, 3.0],[0,0.383,0.924,0],[0,0,0,0],[9E+09,9E+09,9E+09,9E+09,9E+09,9E+09]];
CONST robtarget Target_164:=[[40.98642148882462, 242.5073844825106, 3.0],[0,0.383,0.924,0],[0,0,0,0],[9E+09,9E+09,9E+09,9E+09,9E+09,9E+09]];
CONST robtarget Target_165:=[[40.855895304085465, 243.49882934486925, 3.0],[0,0.383,0.924,0],[0,0,0,0],[9E+09,9E+09,9E+09,9E+09,9E+09,9E+09]];
CONST robtarget Target_166:=[[40.72536911934628, 244.49027420722794, 3.0],[0,0.383,0.924,0],[0,0,0,0],[9E+09,9E+09,9E+09,9E+09,9E+09,9E+09]];
CONST robtarget Target_167:=[[40.59484293460713, 245.48171906958663, 3.0],[0,0.383,0.924,0],[0,0,0,0],[9E+09,9E+09,9E+09,9E+09,9E+09,9E+09]];
CONST robtarget Target_168:=[[40.46431674986795, 246.47316393194532, 3.0],[0,0.383,0.924,0],[0,0,0,0],[9E+09,9E+09,9E+09,9E+09,9E+09,9E+09]];
CONST robtarget Target_169:=[[40.333790565128794, 247.464608794304, 3.0],[0,0.383,0.924,0],[0,0,0,0],[9E+09,9E+09,9E+09,9E+09,9E+09,9E+09]];
CONST robtarget Target_170:=[[40.20326438038961, 248.4560536566627, 3.0],[0,0.383,0.924,0],[0,0,0,0],[9E+09,9E+09,9E+09,9E+09,9E+09,9E+09]];
CONST robtarget Target_171:=[[40.07273819565046, 249.4474985190214, 3.0],[0,0.383,0.924,0],[0,0,0,0],[9E+09,9E+09,9E+09,9E+09,9E+09,9E+09]];
CONST robtarget Target_172:=[[40.05778798908872, 250.43894338138006, 3.0],[0,0.383,0.924,0],[0,0,0,0],[9E+09,9E+09,9E+09,9E+09,9E+09,9E+09]];
CONST robtarget Target_173:=[[40.18831417382788, 251.43038824373875, 3.0],[0,0.383,0.924,0],[0,0,0,0],[9E+09,9E+09,9E+09,9E+09,9E+09,9E+09]];
CONST robtarget Target_174:=[[40.31884035856706, 252.42183310609744, 3.0],[0,0.383,0.924,0],[0,0,0,0],[9E+09,9E+09,9E+09,9E+09,9E+09,9E+09]];
CONST robtarget Target_175:=[[40.44936654330621, 253.41327796845613, 3.0],[0,0.383,0.924,0],[0,0,0,0],[9E+09,9E+09,9E+09,9E+09,9E+09,9E+09]];
CONST robtarget Target_176:=[[40.579892728045394, 254.40472283081482, 3.0],[0,0.383,0.924,0],[0,0,0,0],[9E+09,9E+09,9E+09,9E+09,9E+09,9E+09]];
CONST robtarget Target_177:=[[40.71041891278455, 255.3961676931735, 3.0],[0,0.383,0.924,0],[0,0,0,0],[9E+09,9E+09,9E+09,9E+09,9E+09,9E+09]];
CONST robtarget Target_178:=[[40.84094509752373, 256.3876125555322, 3.0],[0,0.383,0.924,0],[0,0,0,0],[9E+09,9E+09,9E+09,9E+09,9E+09,9E+09]];
CONST robtarget Target_179:=[[40.97147128226291, 257.37905741789086, 3.0],[0,0.383,0.924,0],[0,0,0,0],[9E+09,9E+09,9E+09,9E+09,9E+09,9E+09]];
CONST robtarget Target_180:=[[41.101997467002064, 258.3705022802496, 3.0],[0,0.383,0.924,0],[0,0,0,0],[9E+09,9E+09,9E+09,9E+09,9E+09,9E+09]];
CONST robtarget Target_181:=[[41.232523651741246, 259.36194714260824, 3.0],[0,0.383,0.924,0],[0,0,0,0],[9E+09,9E+09,9E+09,9E+09,9E+09,9E+09]];
CONST robtarget Target_182:=[[41.3630498364804, 260.35339200496696, 3.0],[0,0.383,0.924,0],[0,0,0,0],[9E+09,9E+09,9E+09,9E+09,9E+09,9E+09]];
CONST robtarget Target_183:=[[41.49357602121958, 261.3448368673256, 3.0],[0,0.383,0.924,0],[0,0,0,0],[9E+09,9E+09,9E+09,9E+09,9E+09,9E+09]];
CONST robtarget Target_184:=[[41.624102205958735, 262.33628172968434, 3.0],[0,0.383,0.924,0],[0,0,0,0],[9E+09,9E+09,9E+09,9E+09,9E+09,9E+09]];
CONST robtarget Target_185:=[[41.75462839069792, 263.327726592043, 3.0],[0,0.383,0.924,0],[0,0,0,0],[9E+09,9E+09,9E+09,9E+09,9E+09,9E+09]];
CONST robtarget Target_186:=[[41.88515457543707, 264.31917145440167, 3.0],[0,0.383,0.924,0],[0,0,0,0],[9E+09,9E+09,9E+09,9E+09,9E+09,9E+09]];
CONST robtarget Target_187:=[[42.01568076017625, 265.3106163167604, 3.0],[0,0.383,0.924,0],[0,0,0,0],[9E+09,9E+09,9E+09,9E+09,9E+09,9E+09]];
CONST robtarget Target_188:=[[42.146206944915406, 266.30206117911905, 3.0],[0,0.383,0.924,0],[0,0,0,0],[9E+09,9E+09,9E+09,9E+09,9E+09,9E+09]];
CONST robtarget Target_189:=[[42.27673312965459, 267.29350604147777, 3.0],[0,0.383,0.924,0],[0,0,0,0],[9E+09,9E+09,9E+09,9E+09,9E+09,9E+09]];
CONST robtarget Target_190:=[[42.44989009872086, 268.27352801936036, 3.0],[0,0.383,0.924,0],[0,0,0,0],[9E+09,9E+09,9E+09,9E+09,9E+09,9E+09]];
CONST robtarget Target_191:=[[42.83257354788134, 269.19740754491477, 3.0],[0,0.383,0.924,0],[0,0,0,0],[9E+09,9E+09,9E+09,9E+09,9E+09,9E+09]];
CONST robtarget Target_192:=[[43.21525699704182, 270.1212870704692, 3.0],[0,0.383,0.924,0],[0,0,0,0],[9E+09,9E+09,9E+09,9E+09,9E+09,9E+09]];
CONST robtarget Target_193:=[[43.59794044620227, 271.0451665960236, 3.0],[0,0.383,0.924,0],[0,0,0,0],[9E+09,9E+09,9E+09,9E+09,9E+09,9E+09]];
CONST robtarget Target_194:=[[43.980623895362754, 271.969046121578, 3.0],[0,0.383,0.924,0],[0,0,0,0],[9E+09,9E+09,9E+09,9E+09,9E+09,9E+09]];
CONST robtarget Target_195:=[[44.363307344523236, 272.8929256471324, 3.0],[0,0.383,0.924,0],[0,0,0,0],[9E+09,9E+09,9E+09,9E+09,9E+09,9E+09]];
CONST robtarget Target_196:=[[44.74599079368372, 273.8168051726868, 3.0],[0,0.383,0.924,0],[0,0,0,0],[9E+09,9E+09,9E+09,9E+09,9E+09,9E+09]];
CONST robtarget Target_197:=[[45.1286742428442, 274.74068469824124, 3.0],[0,0.383,0.924,0],[0,0,0,0],[9E+09,9E+09,9E+09,9E+09,9E+09,9E+09]];
CONST robtarget Target_198:=[[45.51135769200468, 275.66456422379565, 3.0],[0,0.383,0.924,0],[0,0,0,0],[9E+09,9E+09,9E+09,9E+09,9E+09,9E+09]];
CONST robtarget Target_199:=[[45.89404114116513, 276.58844374935006, 3.0],[0,0.383,0.924,0],[0,0,0,0],[9E+09,9E+09,9E+09,9E+09,9E+09,9E+09]];
CONST robtarget Target_200:=[[46.276724590325614, 277.5123232749044, 3.0],[0,0.383,0.924,0],[0,0,0,0],[9E+09,9E+09,9E+09,9E+09,9E+09,9E+09]];
CONST robtarget Target_201:=[[46.659408039486095, 278.43620280045883, 3.0],[0,0.383,0.924,0],[0,0,0,0],[9E+09,9E+09,9E+09,9E+09,9E+09,9E+09]];
CONST robtarget Target_202:=[[47.04209148864658, 279.36008232601324, 3.0],[0,0.383,0.924,0],[0,0,0,0],[9E+09,9E+09,9E+09,9E+09,9E+09,9E+09]];
CONST robtarget Target_203:=[[47.42477493780706, 280.28396185156765, 3.0],[0,0.383,0.924,0],[0,0,0,0],[9E+09,9E+09,9E+09,9E+09,9E+09,9E+09]];
CONST robtarget Target_204:=[[47.80745838696754, 281.20784137712207, 3.0],[0,0.383,0.924,0],[0,0,0,0],[9E+09,9E+09,9E+09,9E+09,9E+09,9E+09]];
CONST robtarget Target_205:=[[48.19014183612799, 282.1317209026765, 3.0],[0,0.383,0.924,0],[0,0,0,0],[9E+09,9E+09,9E+09,9E+09,9E+09,9E+09]];
CONST robtarget Target_206:=[[48.572825285288474, 283.0556004282309, 3.0],[0,0.383,0.924,0],[0,0,0,0],[9E+09,9E+09,9E+09,9E+09,9E+09,9E+09]];
CONST robtarget Target_207:=[[48.955508734448955, 283.9794799537853, 3.0],[0,0.383,0.924,0],[0,0,0,0],[9E+09,9E+09,9E+09,9E+09,9E+09,9E+09]];
CONST robtarget Target_208:=[[49.338192183609436, 284.9033594793397, 3.0],[0,0.383,0.924,0],[0,0,0,0],[9E+09,9E+09,9E+09,9E+09,9E+09,9E+09]];
CONST robtarget Target_209:=[[49.92330516432352, 285.71036626274037, 3.0],[0,0.383,0.924,0],[0,0,0,0],[9E+09,9E+09,9E+09,9E+09,9E+09,9E+09]];
CONST robtarget Target_210:=[[50.5320665649146, 286.50371962483723, 3.0],[0,0.383,0.924,0],[0,0,0,0],[9E+09,9E+09,9E+09,9E+09,9E+09,9E+09]];
CONST robtarget Target_211:=[[51.14082796550568, 287.29707298693404, 3.0],[0,0.383,0.924,0],[0,0,0,0],[9E+09,9E+09,9E+09,9E+09,9E+09,9E+09]];
CONST robtarget Target_212:=[[51.74958936609676, 288.0904263490309, 3.0],[0,0.383,0.924,0],[0,0,0,0],[9E+09,9E+09,9E+09,9E+09,9E+09,9E+09]];
CONST robtarget Target_213:=[[52.358350766687835, 288.8837797111278, 3.0],[0,0.383,0.924,0],[0,0,0,0],[9E+09,9E+09,9E+09,9E+09,9E+09,9E+09]];
CONST robtarget Target_214:=[[52.96711216727891, 289.67713307322464, 3.0],[0,0.383,0.924,0],[0,0,0,0],[9E+09,9E+09,9E+09,9E+09,9E+09,9E+09]];
CONST robtarget Target_215:=[[53.57587356786999, 290.4704864353215, 3.0],[0,0.383,0.924,0],[0,0,0,0],[9E+09,9E+09,9E+09,9E+09,9E+09,9E+09]];
CONST robtarget Target_216:=[[54.18463496846107, 291.26383979741837, 3.0],[0,0.383,0.924,0],[0,0,0,0],[9E+09,9E+09,9E+09,9E+09,9E+09,9E+09]];
CONST robtarget Target_217:=[[54.79339636905215, 292.05719315951524, 3.0],[0,0.383,0.924,0],[0,0,0,0],[9E+09,9E+09,9E+09,9E+09,9E+09,9E+09]];
CONST robtarget Target_218:=[[55.402157769643225, 292.85054652161205, 3.0],[0,0.383,0.924,0],[0,0,0,0],[9E+09,9E+09,9E+09,9E+09,9E+09,9E+09]];
CONST robtarget Target_219:=[[56.0109191702343, 293.6438998837089, 3.0],[0,0.383,0.924,0],[0,0,0,0],[9E+09,9E+09,9E+09,9E+09,9E+09,9E+09]];
CONST robtarget Target_220:=[[56.61968057082538, 294.4372532458058, 3.0],[0,0.383,0.924,0],[0,0,0,0],[9E+09,9E+09,9E+09,9E+09,9E+09,9E+09]];
CONST robtarget Target_221:=[[57.22844197141646, 295.23060660790264, 3.0],[0,0.383,0.924,0],[0,0,0,0],[9E+09,9E+09,9E+09,9E+09,9E+09,9E+09]];
CONST robtarget Target_222:=[[57.837203372007565, 296.0239599699995, 3.0],[0,0.383,0.924,0],[0,0,0,0],[9E+09,9E+09,9E+09,9E+09,9E+09,9E+09]];
CONST robtarget Target_223:=[[58.44596477259864, 296.8173133320964, 3.0],[0,0.383,0.924,0],[0,0,0,0],[9E+09,9E+09,9E+09,9E+09,9E+09,9E+09]];
CONST robtarget Target_224:=[[59.05472617318972, 297.61066669419324, 3.0],[0,0.383,0.924,0],[0,0,0,0],[9E+09,9E+09,9E+09,9E+09,9E+09,9E+09]];
CONST robtarget Target_225:=[[59.6634875737808, 298.40402005629005, 3.0],[0,0.383,0.924,0],[0,0,0,0],[9E+09,9E+09,9E+09,9E+09,9E+09,9E+09]];
CONST robtarget Target_226:=[[60.27224897437188, 299.1973734183869, 3.0],[0,0.383,0.924,0],[0,0,0,0],[9E+09,9E+09,9E+09,9E+09,9E+09,9E+09]];
CONST robtarget Target_227:=[[60.995776780483766, 299.875960374963, 3.0],[0,0.383,0.924,0],[0,0,0,0],[9E+09,9E+09,9E+09,9E+09,9E+09,9E+09]];
CONST robtarget Target_228:=[[61.78913014258063, 300.484721775554, 3.0],[0,0.383,0.924,0],[0,0,0,0],[9E+09,9E+09,9E+09,9E+09,9E+09,9E+09]];
CONST robtarget Target_229:=[[62.5824835046775, 301.0934831761451, 3.0],[0,0.383,0.924,0],[0,0,0,0],[9E+09,9E+09,9E+09,9E+09,9E+09,9E+09]];
CONST robtarget Target_230:=[[63.375836866774364, 301.7022445767362, 3.0],[0,0.383,0.924,0],[0,0,0,0],[9E+09,9E+09,9E+09,9E+09,9E+09,9E+09]];
CONST robtarget Target_231:=[[64.1691902288712, 302.3110059773273, 3.0],[0,0.383,0.924,0],[0,0,0,0],[9E+09,9E+09,9E+09,9E+09,9E+09,9E+09]];
CONST robtarget Target_232:=[[64.96254359096807, 302.91976737791833, 3.0],[0,0.383,0.924,0],[0,0,0,0],[9E+09,9E+09,9E+09,9E+09,9E+09,9E+09]];
CONST robtarget Target_233:=[[65.75589695306493, 303.52852877850944, 3.0],[0,0.383,0.924,0],[0,0,0,0],[9E+09,9E+09,9E+09,9E+09,9E+09,9E+09]];
CONST robtarget Target_234:=[[66.54925031516177, 304.13729017910055, 3.0],[0,0.383,0.924,0],[0,0,0,0],[9E+09,9E+09,9E+09,9E+09,9E+09,9E+09]];
CONST robtarget Target_235:=[[67.34260367725864, 304.7460515796916, 3.0],[0,0.383,0.924,0],[0,0,0,0],[9E+09,9E+09,9E+09,9E+09,9E+09,9E+09]];
CONST robtarget Target_236:=[[68.1359570393555, 305.35481298028265, 3.0],[0,0.383,0.924,0],[0,0,0,0],[9E+09,9E+09,9E+09,9E+09,9E+09,9E+09]];
CONST robtarget Target_237:=[[68.92931040145237, 305.96357438087375, 3.0],[0,0.383,0.924,0],[0,0,0,0],[9E+09,9E+09,9E+09,9E+09,9E+09,9E+09]];
CONST robtarget Target_238:=[[69.7226637635492, 306.57233578146486, 3.0],[0,0.383,0.924,0],[0,0,0,0],[9E+09,9E+09,9E+09,9E+09,9E+09,9E+09]];
CONST robtarget Target_239:=[[70.51601712564607, 307.1810971820559, 3.0],[0,0.383,0.924,0],[0,0,0,0],[9E+09,9E+09,9E+09,9E+09,9E+09,9E+09]];
CONST robtarget Target_240:=[[71.30937048774294, 307.789858582647, 3.0],[0,0.383,0.924,0],[0,0,0,0],[9E+09,9E+09,9E+09,9E+09,9E+09,9E+09]];
CONST robtarget Target_241:=[[72.10272384983978, 308.39861998323806, 3.0],[0,0.383,0.924,0],[0,0,0,0],[9E+09,9E+09,9E+09,9E+09,9E+09,9E+09]];
CONST robtarget Target_242:=[[72.89607721193664, 309.00738138382917, 3.0],[0,0.383,0.924,0],[0,0,0,0],[9E+09,9E+09,9E+09,9E+09,9E+09,9E+09]];
CONST robtarget Target_243:=[[73.68943057403351, 309.6161427844202, 3.0],[0,0.383,0.924,0],[0,0,0,0],[9E+09,9E+09,9E+09,9E+09,9E+09,9E+09]];
CONST robtarget Target_244:=[[74.48278393613037, 310.2249041850113, 3.0],[0,0.383,0.924,0],[0,0,0,0],[9E+09,9E+09,9E+09,9E+09,9E+09,9E+09]];
CONST robtarget Target_245:=[[75.3215686833415, 310.75497611672336, 3.0],[0,0.383,0.924,0],[0,0,0,0],[9E+09,9E+09,9E+09,9E+09,9E+09,9E+09]];
CONST robtarget Target_246:=[[76.24544820889591, 311.13765956588384, 3.0],[0,0.383,0.924,0],[0,0,0,0],[9E+09,9E+09,9E+09,9E+09,9E+09,9E+09]];
CONST robtarget Target_247:=[[77.16932773445032, 311.5203430150443, 3.0],[0,0.383,0.924,0],[0,0,0,0],[9E+09,9E+09,9E+09,9E+09,9E+09,9E+09]];
CONST robtarget Target_248:=[[78.09320726000473, 311.9030264642048, 3.0],[0,0.383,0.924,0],[0,0,0,0],[9E+09,9E+09,9E+09,9E+09,9E+09,9E+09]];
CONST robtarget Target_249:=[[79.01708678555914, 312.2857099133653, 3.0],[0,0.383,0.924,0],[0,0,0,0],[9E+09,9E+09,9E+09,9E+09,9E+09,9E+09]];
CONST robtarget Target_250:=[[79.94096631111356, 312.66839336252576, 3.0],[0,0.383,0.924,0],[0,0,0,0],[9E+09,9E+09,9E+09,9E+09,9E+09,9E+09]];
CONST robtarget Target_251:=[[80.86484583666797, 313.05107681168624, 3.0],[0,0.383,0.924,0],[0,0,0,0],[9E+09,9E+09,9E+09,9E+09,9E+09,9E+09]];
CONST robtarget Target_252:=[[81.78872536222238, 313.4337602608467, 3.0],[0,0.383,0.924,0],[0,0,0,0],[9E+09,9E+09,9E+09,9E+09,9E+09,9E+09]];
CONST robtarget Target_253:=[[82.71260488777679, 313.8164437100072, 3.0],[0,0.383,0.924,0],[0,0,0,0],[9E+09,9E+09,9E+09,9E+09,9E+09,9E+09]];
CONST robtarget Target_254:=[[83.6364844133312, 314.1991271591677, 3.0],[0,0.383,0.924,0],[0,0,0,0],[9E+09,9E+09,9E+09,9E+09,9E+09,9E+09]];
CONST robtarget Target_255:=[[84.56036393888562, 314.5818106083281, 3.0],[0,0.383,0.924,0],[0,0,0,0],[9E+09,9E+09,9E+09,9E+09,9E+09,9E+09]];
CONST robtarget Target_256:=[[85.48424346444003, 314.9644940574886, 3.0],[0,0.383,0.924,0],[0,0,0,0],[9E+09,9E+09,9E+09,9E+09,9E+09,9E+09]];
CONST robtarget Target_257:=[[86.40812298999444, 315.3471775066491, 3.0],[0,0.383,0.924,0],[0,0,0,0],[9E+09,9E+09,9E+09,9E+09,9E+09,9E+09]];
CONST robtarget Target_258:=[[87.33200251554885, 315.72986095580956, 3.0],[0,0.383,0.924,0],[0,0,0,0],[9E+09,9E+09,9E+09,9E+09,9E+09,9E+09]];
CONST robtarget Target_259:=[[88.25588204110326, 316.11254440497004, 3.0],[0,0.383,0.924,0],[0,0,0,0],[9E+09,9E+09,9E+09,9E+09,9E+09,9E+09]];
CONST robtarget Target_260:=[[89.17976156665767, 316.4952278541305, 3.0],[0,0.383,0.924,0],[0,0,0,0],[9E+09,9E+09,9E+09,9E+09,9E+09,9E+09]];
CONST robtarget Target_261:=[[90.10364109221209, 316.877911303291, 3.0],[0,0.383,0.924,0],[0,0,0,0],[9E+09,9E+09,9E+09,9E+09,9E+09,9E+09]];
CONST robtarget Target_262:=[[91.0275206177665, 317.2605947524515, 3.0],[0,0.383,0.924,0],[0,0,0,0],[9E+09,9E+09,9E+09,9E+09,9E+09,9E+09]];
CONST robtarget Target_263:=[[91.95642674890058, 317.624518654598, 3.0],[0,0.383,0.924,0],[0,0,0,0],[9E+09,9E+09,9E+09,9E+09,9E+09,9E+09]];
CONST robtarget Target_264:=[[92.94787161125927, 317.75504483933713, 3.0],[0,0.383,0.924,0],[0,0,0,0],[9E+09,9E+09,9E+09,9E+09,9E+09,9E+09]];
CONST robtarget Target_265:=[[93.93931647361796, 317.8855710240763, 3.0],[0,0.383,0.924,0],[0,0,0,0],[9E+09,9E+09,9E+09,9E+09,9E+09,9E+09]];
CONST robtarget Target_266:=[[94.93076133597665, 318.0160972088155, 3.0],[0,0.383,0.924,0],[0,0,0,0],[9E+09,9E+09,9E+09,9E+09,9E+09,9E+09]];
CONST robtarget Target_267:=[[95.92220619833535, 318.14662339355465, 3.0],[0,0.383,0.924,0],[0,0,0,0],[9E+09,9E+09,9E+09,9E+09,9E+09,9E+09]];
CONST robtarget Target_268:=[[96.91365106069401, 318.2771495782938, 3.0],[0,0.383,0.924,0],[0,0,0,0],[9E+09,9E+09,9E+09,9E+09,9E+09,9E+09]];
CONST robtarget Target_269:=[[97.9050959230527, 318.407675763033, 3.0],[0,0.383,0.924,0],[0,0,0,0],[9E+09,9E+09,9E+09,9E+09,9E+09,9E+09]];
CONST robtarget Target_270:=[[98.89654078541139, 318.53820194777217, 3.0],[0,0.383,0.924,0],[0,0,0,0],[9E+09,9E+09,9E+09,9E+09,9E+09,9E+09]];
CONST robtarget Target_271:=[[99.88798564777008, 318.6687281325113, 3.0],[0,0.383,0.924,0],[0,0,0,0],[9E+09,9E+09,9E+09,9E+09,9E+09,9E+09]];
CONST robtarget Target_272:=[[100.87943051012877, 318.79925431725053, 3.0],[0,0.383,0.924,0],[0,0,0,0],[9E+09,9E+09,9E+09,9E+09,9E+09,9E+09]];
CONST robtarget Target_273:=[[101.87087537248746, 318.9297805019897, 3.0],[0,0.383,0.924,0],[0,0,0,0],[9E+09,9E+09,9E+09,9E+09,9E+09,9E+09]];
CONST robtarget Target_274:=[[102.86232023484615, 319.06030668672884, 3.0],[0,0.383,0.924,0],[0,0,0,0],[9E+09,9E+09,9E+09,9E+09,9E+09,9E+09]];
CONST robtarget Target_275:=[[103.85376509720484, 319.19083287146805, 3.0],[0,0.383,0.924,0],[0,0,0,0],[9E+09,9E+09,9E+09,9E+09,9E+09,9E+09]];
CONST robtarget Target_276:=[[104.8452099595635, 319.3213590562072, 3.0],[0,0.383,0.924,0],[0,0,0,0],[9E+09,9E+09,9E+09,9E+09,9E+09,9E+09]];
CONST robtarget Target_277:=[[105.8366548219222, 319.45188524094635, 3.0],[0,0.383,0.924,0],[0,0,0,0],[9E+09,9E+09,9E+09,9E+09,9E+09,9E+09]];
CONST robtarget Target_278:=[[106.82809968428089, 319.5824114256855, 3.0],[0,0.383,0.924,0],[0,0,0,0],[9E+09,9E+09,9E+09,9E+09,9E+09,9E+09]];
CONST robtarget Target_279:=[[107.81954454663958, 319.71293761042466, 3.0],[0,0.383,0.924,0],[0,0,0,0],[9E+09,9E+09,9E+09,9E+09,9E+09,9E+09]];
CONST robtarget Target_280:=[[108.81098940899827, 319.84346379516387, 3.0],[0,0.383,0.924,0],[0,0,0,0],[9E+09,9E+09,9E+09,9E+09,9E+09,9E+09]];
CONST robtarget Target_281:=[[109.80243427135696, 319.973989979903, 3.0],[0,0.383,0.924,0],[0,0,0,0],[9E+09,9E+09,9E+09,9E+09,9E+09,9E+09]];
CONST robtarget Target_282:=[[110.79387913371565, 320.1045161646422, 3.0],[0,0.383,0.924,0],[0,0,0,0],[9E+09,9E+09,9E+09,9E+09,9E+09,9E+09]];
CONST robtarget Target_283:=[[111.78532399607434, 320.2350423493814, 3.0],[0,0.383,0.924,0],[0,0,0,0],[9E+09,9E+09,9E+09,9E+09,9E+09,9E+09]];
CONST robtarget Target_284:=[[112.77676885843303, 320.36556853412054, 3.0],[0,0.383,0.924,0],[0,0,0,0],[9E+09,9E+09,9E+09,9E+09,9E+09,9E+09]];
CONST robtarget Target_285:=[[113.76821372079169, 320.4960947188597, 3.0],[0,0.383,0.924,0],[0,0,0,0],[9E+09,9E+09,9E+09,9E+09,9E+09,9E+09]];
CONST robtarget Target_286:=[[114.75965858315038, 320.6266209035989, 3.0],[0,0.383,0.924,0],[0,0,0,0],[9E+09,9E+09,9E+09,9E+09,9E+09,9E+09]];
CONST robtarget Target_287:=[[115.75110344550907, 320.75714708833806, 3.0],[0,0.383,0.924,0],[0,0,0,0],[9E+09,9E+09,9E+09,9E+09,9E+09,9E+09]];
CONST robtarget Target_288:=[[116.74254830786776, 320.8876732730772, 3.0],[0,0.383,0.924,0],[0,0,0,0],[9E+09,9E+09,9E+09,9E+09,9E+09,9E+09]];
CONST robtarget Target_289:=[[117.73399317022646, 321.01819945781637, 3.0],[0,0.383,0.924,0],[0,0,0,0],[9E+09,9E+09,9E+09,9E+09,9E+09,9E+09]];
CONST robtarget Target_290:=[[118.72543803258515, 321.1487256425555, 3.0],[0,0.383,0.924,0],[0,0,0,0],[9E+09,9E+09,9E+09,9E+09,9E+09,9E+09]];
CONST robtarget Target_291:=[[119.71688289494384, 321.27925182729473, 3.0],[0,0.383,0.924,0],[0,0,0,0],[9E+09,9E+09,9E+09,9E+09,9E+09,9E+09]];
CONST robtarget Target_292:=[[120.70832775730253, 321.4097780120339, 3.0],[0,0.383,0.924,0],[0,0,0,0],[9E+09,9E+09,9E+09,9E+09,9E+09,9E+09]];
CONST robtarget Target_293:=[[121.69977261966122, 321.54030419677304, 3.0],[0,0.383,0.924,0],[0,0,0,0],[9E+09,9E+09,9E+09,9E+09,9E+09,9E+09]];
CONST robtarget Target_294:=[[122.6912174820199, 321.67083038151225, 3.0],[0,0.383,0.924,0],[0,0,0,0],[9E+09,9E+09,9E+09,9E+09,9E+09,9E+09]];
CONST robtarget Target_295:=[[123.68266234437858, 321.8013565662514, 3.0],[0,0.383,0.924,0],[0,0,0,0],[9E+09,9E+09,9E+09,9E+09,9E+09,9E+09]];
CONST robtarget Target_296:=[[124.67410720673726, 321.93188275099055, 3.0],[0,0.383,0.924,0],[0,0,0,0],[9E+09,9E+09,9E+09,9E+09,9E+09,9E+09]];
CONST robtarget Target_297:=[[125.66555206909595, 322.06240893572976, 3.0],[0,0.383,0.924,0],[0,0,0,0],[9E+09,9E+09,9E+09,9E+09,9E+09,9E+09]];
CONST robtarget Target_298:=[[126.65699693145464, 322.1929351204689, 3.0],[0,0.383,0.924,0],[0,0,0,0],[9E+09,9E+09,9E+09,9E+09,9E+09,9E+09]];
CONST robtarget Target_299:=[[127.64844179381333, 322.32346130520807, 3.0],[0,0.383,0.924,0],[0,0,0,0],[9E+09,9E+09,9E+09,9E+09,9E+09,9E+09]];
CONST robtarget Target_300:=[[128.60427548391414, 322.5868901913039, 3.0],[0,0.383,0.924,0],[0,0,0,0],[9E+09,9E+09,9E+09,9E+09,9E+09,9E+09]];
CONST robtarget Target_301:=[[129.52815500946855, 322.9695736404644, 3.0],[0,0.383,0.924,0],[0,0,0,0],[9E+09,9E+09,9E+09,9E+09,9E+09,9E+09]];
CONST robtarget Target_302:=[[130.45203453502296, 323.35225708962486, 3.0],[0,0.383,0.924,0],[0,0,0,0],[9E+09,9E+09,9E+09,9E+09,9E+09,9E+09]];
CONST robtarget Target_303:=[[131.37591406057737, 323.73494053878534, 3.0],[0,0.383,0.924,0],[0,0,0,0],[9E+09,9E+09,9E+09,9E+09,9E+09,9E+09]];
CONST robtarget Target_304:=[[132.29979358613178, 324.1176239879458, 3.0],[0,0.383,0.924,0],[0,0,0,0],[9E+09,9E+09,9E+09,9E+09,9E+09,9E+09]];
CONST robtarget Target_305:=[[133.2236731116862, 324.5003074371063, 3.0],[0,0.383,0.924,0],[0,0,0,0],[9E+09,9E+09,9E+09,9E+09,9E+09,9E+09]];
CONST robtarget Target_306:=[[134.1475526372406, 324.8829908862668, 3.0],[0,0.383,0.924,0],[0,0,0,0],[9E+09,9E+09,9E+09,9E+09,9E+09,9E+09]];
CONST robtarget Target_307:=[[135.07143216279502, 325.26567433542726, 3.0],[0,0.383,0.924,0],[0,0,0,0],[9E+09,9E+09,9E+09,9E+09,9E+09,9E+09]];
CONST robtarget Target_308:=[[135.99531168834943, 325.6483577845877, 3.0],[0,0.383,0.924,0],[0,0,0,0],[9E+09,9E+09,9E+09,9E+09,9E+09,9E+09]];
CONST robtarget Target_309:=[[136.91919121390384, 326.03104123374817, 3.0],[0,0.383,0.924,0],[0,0,0,0],[9E+09,9E+09,9E+09,9E+09,9E+09,9E+09]];
CONST robtarget Target_310:=[[137.84307073945826, 326.41372468290865, 3.0],[0,0.383,0.924,0],[0,0,0,0],[9E+09,9E+09,9E+09,9E+09,9E+09,9E+09]];
CONST robtarget Target_311:=[[138.76695026501267, 326.79640813206913, 3.0],[0,0.383,0.924,0],[0,0,0,0],[9E+09,9E+09,9E+09,9E+09,9E+09,9E+09]];
CONST robtarget Target_312:=[[139.69082979056708, 327.1790915812296, 3.0],[0,0.383,0.924,0],[0,0,0,0],[9E+09,9E+09,9E+09,9E+09,9E+09,9E+09]];
CONST robtarget Target_313:=[[140.6147093161215, 327.5617750303901, 3.0],[0,0.383,0.924,0],[0,0,0,0],[9E+09,9E+09,9E+09,9E+09,9E+09,9E+09]];
CONST robtarget Target_314:=[[141.5385888416759, 327.9444584795506, 3.0],[0,0.383,0.924,0],[0,0,0,0],[9E+09,9E+09,9E+09,9E+09,9E+09,9E+09]];
CONST robtarget Target_315:=[[142.46246836723031, 328.32714192871106, 3.0],[0,0.383,0.924,0],[0,0,0,0],[9E+09,9E+09,9E+09,9E+09,9E+09,9E+09]];
CONST robtarget Target_316:=[[143.38634789278473, 328.70982537787154, 3.0],[0,0.383,0.924,0],[0,0,0,0],[9E+09,9E+09,9E+09,9E+09,9E+09,9E+09]];
CONST robtarget Target_317:=[[144.31022741833914, 329.092508827032, 3.0],[0,0.383,0.924,0],[0,0,0,0],[9E+09,9E+09,9E+09,9E+09,9E+09,9E+09]];
CONST robtarget Target_318:=[[145.20103219726263, 329.5324794189716, 3.0],[0,0.383,0.924,0],[0,0,0,0],[9E+09,9E+09,9E+09,9E+09,9E+09,9E+09]];
CONST robtarget Target_319:=[[145.9943855593595, 330.14124081956265, 3.0],[0,0.383,0.924,0],[0,0,0,0],[9E+09,9E+09,9E+09,9E+09,9E+09,9E+09]];
CONST robtarget Target_320:=[[146.78773892145634, 330.75000222015376, 3.0],[0,0.383,0.924,0],[0,0,0,0],[9E+09,9E+09,9E+09,9E+09,9E+09,9E+09]];
CONST robtarget Target_321:=[[147.5810922835532, 331.35876362074487, 3.0],[0,0.383,0.924,0],[0,0,0,0],[9E+09,9E+09,9E+09,9E+09,9E+09,9E+09]];
CONST robtarget Target_322:=[[148.37444564565004, 331.9675250213359, 3.0],[0,0.383,0.924,0],[0,0,0,0],[9E+09,9E+09,9E+09,9E+09,9E+09,9E+09]];
CONST robtarget Target_323:=[[149.1677990077469, 332.57628642192697, 3.0],[0,0.383,0.924,0],[0,0,0,0],[9E+09,9E+09,9E+09,9E+09,9E+09,9E+09]];
CONST robtarget Target_324:=[[149.96115236984377, 333.1850478225181, 3.0],[0,0.383,0.924,0],[0,0,0,0],[9E+09,9E+09,9E+09,9E+09,9E+09,9E+09]];
CONST robtarget Target_325:=[[150.75450573194064, 333.7938092231092, 3.0],[0,0.383,0.924,0],[0,0,0,0],[9E+09,9E+09,9E+09,9E+09,9E+09,9E+09]];
CONST robtarget Target_326:=[[151.54785909403748, 334.4025706237002, 3.0],[0,0.383,0.924,0],[0,0,0,0],[9E+09,9E+09,9E+09,9E+09,9E+09,9E+09]];
CONST robtarget Target_327:=[[152.34121245613434, 335.0113320242913, 3.0],[0,0.383,0.924,0],[0,0,0,0],[9E+09,9E+09,9E+09,9E+09,9E+09,9E+09]];
CONST robtarget Target_328:=[[153.13456581823118, 335.6200934248824, 3.0],[0,0.383,0.924,0],[0,0,0,0],[9E+09,9E+09,9E+09,9E+09,9E+09,9E+09]];
CONST robtarget Target_329:=[[153.92791918032805, 336.2288548254735, 3.0],[0,0.383,0.924,0],[0,0,0,0],[9E+09,9E+09,9E+09,9E+09,9E+09,9E+09]];
CONST robtarget Target_330:=[[154.7212725424249, 336.83761622606454, 3.0],[0,0.383,0.924,0],[0,0,0,0],[9E+09,9E+09,9E+09,9E+09,9E+09,9E+09]];
CONST robtarget Target_331:=[[155.51462590452178, 337.4463776266556, 3.0],[0,0.383,0.924,0],[0,0,0,0],[9E+09,9E+09,9E+09,9E+09,9E+09,9E+09]];
CONST robtarget Target_332:=[[156.30797926661862, 338.0551390272467, 3.0],[0,0.383,0.924,0],[0,0,0,0],[9E+09,9E+09,9E+09,9E+09,9E+09,9E+09]];
CONST robtarget Target_333:=[[157.10133262871545, 338.6639004278378, 3.0],[0,0.383,0.924,0],[0,0,0,0],[9E+09,9E+09,9E+09,9E+09,9E+09,9E+09]];
CONST robtarget Target_334:=[[157.89468599081232, 339.27266182842885, 3.0],[0,0.383,0.924,0],[0,0,0,0],[9E+09,9E+09,9E+09,9E+09,9E+09,9E+09]];
CONST robtarget Target_335:=[[158.6880393529092, 339.88142322901996, 3.0],[0,0.383,0.924,0],[0,0,0,0],[9E+09,9E+09,9E+09,9E+09,9E+09,9E+09]];
CONST robtarget Target_336:=[[159.48139271500605, 340.490184629611, 3.0],[0,0.383,0.924,0],[0,0,0,0],[9E+09,9E+09,9E+09,9E+09,9E+09,9E+09]];
CONST robtarget Target_337:=[[160.09389603020207, 341.2797960771029, 3.0],[0,0.383,0.924,0],[0,0,0,0],[9E+09,9E+09,9E+09,9E+09,9E+09,9E+09]];
CONST robtarget Target_338:=[[160.70265743079318, 342.07314943919977, 3.0],[0,0.383,0.924,0],[0,0,0,0],[9E+09,9E+09,9E+09,9E+09,9E+09,9E+09]];
CONST robtarget Target_339:=[[161.31141883138423, 342.86650280129663, 3.0],[0,0.383,0.924,0],[0,0,0,0],[9E+09,9E+09,9E+09,9E+09,9E+09,9E+09]];
CONST robtarget Target_340:=[[161.92018023197534, 343.6598561633935, 3.0],[0,0.383,0.924,0],[0,0,0,0],[9E+09,9E+09,9E+09,9E+09,9E+09,9E+09]];
CONST robtarget Target_341:=[[162.5289416325664, 344.45320952549037, 3.0],[0,0.383,0.924,0],[0,0,0,0],[9E+09,9E+09,9E+09,9E+09,9E+09,9E+09]];
CONST robtarget Target_342:=[[163.1377030331575, 345.2465628875872, 3.0],[0,0.383,0.924,0],[0,0,0,0],[9E+09,9E+09,9E+09,9E+09,9E+09,9E+09]];
CONST robtarget Target_343:=[[163.74646443374854, 346.03991624968404, 3.0],[0,0.383,0.924,0],[0,0,0,0],[9E+09,9E+09,9E+09,9E+09,9E+09,9E+09]];
CONST robtarget Target_344:=[[164.35522583433965, 346.8332696117809, 3.0],[0,0.383,0.924,0],[0,0,0,0],[9E+09,9E+09,9E+09,9E+09,9E+09,9E+09]];
CONST robtarget Target_345:=[[164.96398723493073, 347.6266229738778, 3.0],[0,0.383,0.924,0],[0,0,0,0],[9E+09,9E+09,9E+09,9E+09,9E+09,9E+09]];
CONST robtarget Target_346:=[[165.5727486355218, 348.41997633597464, 3.0],[0,0.383,0.924,0],[0,0,0,0],[9E+09,9E+09,9E+09,9E+09,9E+09,9E+09]];
CONST robtarget Target_347:=[[166.18151003611288, 349.21332969807145, 3.0],[0,0.383,0.924,0],[0,0,0,0],[9E+09,9E+09,9E+09,9E+09,9E+09,9E+09]];
CONST robtarget Target_348:=[[166.79027143670396, 350.0066830601683, 3.0],[0,0.383,0.924,0],[0,0,0,0],[9E+09,9E+09,9E+09,9E+09,9E+09,9E+09]];
CONST robtarget Target_349:=[[167.39903283729504, 350.8000364222652, 3.0],[0,0.383,0.924,0],[0,0,0,0],[9E+09,9E+09,9E+09,9E+09,9E+09,9E+09]];
CONST robtarget Target_350:=[[168.00779423788612, 351.59338978436205, 3.0],[0,0.383,0.924,0],[0,0,0,0],[9E+09,9E+09,9E+09,9E+09,9E+09,9E+09]];
CONST robtarget Target_351:=[[168.6165556384772, 352.3867431464589, 3.0],[0,0.383,0.924,0],[0,0,0,0],[9E+09,9E+09,9E+09,9E+09,9E+09,9E+09]];
CONST robtarget Target_352:=[[169.22531703906827, 353.1800965085557, 3.0],[0,0.383,0.924,0],[0,0,0,0],[9E+09,9E+09,9E+09,9E+09,9E+09,9E+09]];
CONST robtarget Target_353:=[[169.83407843965935, 353.9734498706526, 3.0],[0,0.383,0.924,0],[0,0,0,0],[9E+09,9E+09,9E+09,9E+09,9E+09,9E+09]];
CONST robtarget Target_354:=[[170.44283984025043, 354.76680323274945, 3.0],[0,0.383,0.924,0],[0,0,0,0],[9E+09,9E+09,9E+09,9E+09,9E+09,9E+09]];
CONST robtarget Target_355:=[[170.8919762093064, 355.65231614789525, 3.0],[0,0.383,0.924,0],[0,0,0,0],[9E+09,9E+09,9E+09,9E+09,9E+09,9E+09]];
CONST robtarget Target_356:=[[171.27465965846687, 356.5761956734497, 3.0],[0,0.383,0.924,0],[0,0,0,0],[9E+09,9E+09,9E+09,9E+09,9E+09,9E+09]];
CONST robtarget Target_357:=[[171.65734310762736, 357.50007519900413, 3.0],[0,0.383,0.924,0],[0,0,0,0],[9E+09,9E+09,9E+09,9E+09,9E+09,9E+09]];
CONST robtarget Target_358:=[[172.04002655678784, 358.42395472455854, 3.0],[0,0.383,0.924,0],[0,0,0,0],[9E+09,9E+09,9E+09,9E+09,9E+09,9E+09]];
CONST robtarget Target_359:=[[172.42271000594832, 359.34783425011295, 3.0],[0,0.383,0.924,0],[0,0,0,0],[9E+09,9E+09,9E+09,9E+09,9E+09,9E+09]];
CONST robtarget Target_360:=[[172.8053934551088, 360.27171377566737, 3.0],[0,0.383,0.924,0],[0,0,0,0],[9E+09,9E+09,9E+09,9E+09,9E+09,9E+09]];
CONST robtarget Target_361:=[[173.18807690426928, 361.1955933012218, 3.0],[0,0.383,0.924,0],[0,0,0,0],[9E+09,9E+09,9E+09,9E+09,9E+09,9E+09]];
CONST robtarget Target_362:=[[173.57076035342976, 362.1194728267762, 3.0],[0,0.383,0.924,0],[0,0,0,0],[9E+09,9E+09,9E+09,9E+09,9E+09,9E+09]];
CONST robtarget Target_363:=[[173.95344380259021, 363.0433523523306, 3.0],[0,0.383,0.924,0],[0,0,0,0],[9E+09,9E+09,9E+09,9E+09,9E+09,9E+09]];
CONST robtarget Target_364:=[[174.3361272517507, 363.967231877885, 3.0],[0,0.383,0.924,0],[0,0,0,0],[9E+09,9E+09,9E+09,9E+09,9E+09,9E+09]];
CONST robtarget Target_365:=[[174.71881070091118, 364.8911114034394, 3.0],[0,0.383,0.924,0],[0,0,0,0],[9E+09,9E+09,9E+09,9E+09,9E+09,9E+09]];
CONST robtarget Target_366:=[[175.10149415007163, 365.81499092899384, 3.0],[0,0.383,0.924,0],[0,0,0,0],[9E+09,9E+09,9E+09,9E+09,9E+09,9E+09]];
CONST robtarget Target_367:=[[175.4841775992321, 366.73887045454825, 3.0],[0,0.383,0.924,0],[0,0,0,0],[9E+09,9E+09,9E+09,9E+09,9E+09,9E+09]];
CONST robtarget Target_368:=[[175.8668610483926, 367.66274998010266, 3.0],[0,0.383,0.924,0],[0,0,0,0],[9E+09,9E+09,9E+09,9E+09,9E+09,9E+09]];
CONST robtarget Target_369:=[[176.24954449755307, 368.5866295056571, 3.0],[0,0.383,0.924,0],[0,0,0,0],[9E+09,9E+09,9E+09,9E+09,9E+09,9E+09]];
CONST robtarget Target_370:=[[176.63222794671356, 369.5105090312115, 3.0],[0,0.383,0.924,0],[0,0,0,0],[9E+09,9E+09,9E+09,9E+09,9E+09,9E+09]];
CONST robtarget Target_371:=[[177.01491139587404, 370.4343885567659, 3.0],[0,0.383,0.924,0],[0,0,0,0],[9E+09,9E+09,9E+09,9E+09,9E+09,9E+09]];
CONST robtarget Target_372:=[[177.39759484503452, 371.3582680823203, 3.0],[0,0.383,0.924,0],[0,0,0,0],[9E+09,9E+09,9E+09,9E+09,9E+09,9E+09]];
CONST robtarget Target_373:=[[177.67124683015146, 372.3113625012361, 3.0],[0,0.383,0.924,0],[0,0,0,0],[9E+09,9E+09,9E+09,9E+09,9E+09,9E+09]];
CONST robtarget Target_374:=[[177.8017730148906, 373.30280736359475, 3.0],[0,0.383,0.924,0],[0,0,0,0],[9E+09,9E+09,9E+09,9E+09,9E+09,9E+09]];
CONST robtarget Target_375:=[[177.9322991996298, 374.29425222595347, 3.0],[0,0.383,0.924,0],[0,0,0,0],[9E+09,9E+09,9E+09,9E+09,9E+09,9E+09]];
CONST robtarget Target_376:=[[178.06282538436898, 375.2856970883122, 3.0],[0,0.383,0.924,0],[0,0,0,0],[9E+09,9E+09,9E+09,9E+09,9E+09,9E+09]];
CONST robtarget Target_377:=[[178.19335156910813, 376.27714195067085, 3.0],[0,0.383,0.924,0],[0,0,0,0],[9E+09,9E+09,9E+09,9E+09,9E+09,9E+09]];
CONST robtarget Target_378:=[[178.32387775384728, 377.2685868130295, 3.0],[0,0.383,0.924,0],[0,0,0,0],[9E+09,9E+09,9E+09,9E+09,9E+09,9E+09]];
CONST robtarget Target_379:=[[178.45440393858647, 378.26003167538823, 3.0],[0,0.383,0.924,0],[0,0,0,0],[9E+09,9E+09,9E+09,9E+09,9E+09,9E+09]];
CONST robtarget Target_380:=[[178.58493012332565, 379.2514765377469, 3.0],[0,0.383,0.924,0],[0,0,0,0],[9E+09,9E+09,9E+09,9E+09,9E+09,9E+09]];
CONST robtarget Target_381:=[[178.7154563080648, 380.2429214001056, 3.0],[0,0.383,0.924,0],[0,0,0,0],[9E+09,9E+09,9E+09,9E+09,9E+09,9E+09]];
CONST robtarget Target_382:=[[178.84598249280396, 381.2343662624643, 3.0],[0,0.383,0.924,0],[0,0,0,0],[9E+09,9E+09,9E+09,9E+09,9E+09,9E+09]];
CONST robtarget Target_383:=[[178.97650867754314, 382.22581112482294, 3.0],[0,0.383,0.924,0],[0,0,0,0],[9E+09,9E+09,9E+09,9E+09,9E+09,9E+09]];
CONST robtarget Target_384:=[[179.10703486228232, 383.21725598718166, 3.0],[0,0.383,0.924,0],[0,0,0,0],[9E+09,9E+09,9E+09,9E+09,9E+09,9E+09]];
CONST robtarget Target_385:=[[179.23756104702147, 384.2087008495404, 3.0],[0,0.383,0.924,0],[0,0,0,0],[9E+09,9E+09,9E+09,9E+09,9E+09,9E+09]];
CONST robtarget Target_386:=[[179.36808723176065, 385.20014571189904, 3.0],[0,0.383,0.924,0],[0,0,0,0],[9E+09,9E+09,9E+09,9E+09,9E+09,9E+09]];
CONST robtarget Target_387:=[[179.49861341649984, 386.1915905742577, 3.0],[0,0.383,0.924,0],[0,0,0,0],[9E+09,9E+09,9E+09,9E+09,9E+09,9E+09]];
CONST robtarget Target_388:=[[179.629139601239, 387.18303543661636, 3.0],[0,0.383,0.924,0],[0,0,0,0],[9E+09,9E+09,9E+09,9E+09,9E+09,9E+09]];
CONST robtarget Target_389:=[[179.75966578597814, 388.1744802989751, 3.0],[0,0.383,0.924,0],[0,0,0,0],[9E+09,9E+09,9E+09,9E+09,9E+09,9E+09]];
CONST robtarget Target_390:=[[179.89019197071732, 389.1659251613338, 3.0],[0,0.383,0.924,0],[0,0,0,0],[9E+09,9E+09,9E+09,9E+09,9E+09,9E+09]];
CONST robtarget Target_391:=[[180.0207181554565, 390.15737002369247, 3.0],[0,0.383,0.924,0],[0,0,0,0],[9E+09,9E+09,9E+09,9E+09,9E+09,9E+09]];
CONST robtarget Target_392:=[[180.15124434019566, 391.1488148860511, 3.0],[0,0.383,0.924,0],[0,0,0,0],[9E+09,9E+09,9E+09,9E+09,9E+09,9E+09]];
CONST robtarget Target_393:=[[180.2817705249348, 392.14025974840985, 3.0],[0,0.383,0.924,0],[0,0,0,0],[9E+09,9E+09,9E+09,9E+09,9E+09,9E+09]];
CONST robtarget Target_394:=[[180.412296709674, 393.13170461076857, 3.0],[0,0.383,0.924,0],[0,0,0,0],[9E+09,9E+09,9E+09,9E+09,9E+09,9E+09]];
CONST robtarget Target_395:=[[180.54282289441318, 394.1231494731272, 3.0],[0,0.383,0.924,0],[0,0,0,0],[9E+09,9E+09,9E+09,9E+09,9E+09,9E+09]];
CONST robtarget Target_396:=[[180.67334907915233, 395.1145943354859, 3.0],[0,0.383,0.924,0],[0,0,0,0],[9E+09,9E+09,9E+09,9E+09,9E+09,9E+09]];
CONST robtarget Target_397:=[[180.8038752638915, 396.10603919784455, 3.0],[0,0.383,0.924,0],[0,0,0,0],[9E+09,9E+09,9E+09,9E+09,9E+09,9E+09]];
CONST robtarget Target_398:=[[180.9344014486307, 397.09748406020327, 3.0],[0,0.383,0.924,0],[0,0,0,0],[9E+09,9E+09,9E+09,9E+09,9E+09,9E+09]];
CONST robtarget Target_399:=[[181.06492763336985, 398.088928922562, 3.0],[0,0.383,0.924,0],[0,0,0,0],[9E+09,9E+09,9E+09,9E+09,9E+09,9E+09]];
CONST robtarget Target_400:=[[181.195453818109, 399.08037378492065, 3.0],[0,0.383,0.924,0],[0,0,0,0],[9E+09,9E+09,9E+09,9E+09,9E+09,9E+09]];
CONST robtarget Target_401:=[[181.32598000284818, 400.0718186472793, 3.0],[0,0.383,0.924,0],[0,0,0,0],[9E+09,9E+09,9E+09,9E+09,9E+09,9E+09]];
CONST robtarget Target_402:=[[181.45650618758737, 401.06326350963803, 3.0],[0,0.383,0.924,0],[0,0,0,0],[9E+09,9E+09,9E+09,9E+09,9E+09,9E+09]];
CONST robtarget Target_403:=[[181.58703237232652, 402.05470837199675, 3.0],[0,0.383,0.924,0],[0,0,0,0],[9E+09,9E+09,9E+09,9E+09,9E+09,9E+09]];
CONST robtarget Target_404:=[[181.7175585570657, 403.0461532343554, 3.0],[0,0.383,0.924,0],[0,0,0,0],[9E+09,9E+09,9E+09,9E+09,9E+09,9E+09]];
CONST robtarget Target_405:=[[181.84808474180488, 404.0375980967141, 3.0],[0,0.383,0.924,0],[0,0,0,0],[9E+09,9E+09,9E+09,9E+09,9E+09,9E+09]];
CONST robtarget Target_406:=[[181.97861092654404, 405.02904295907274, 3.0],[0,0.383,0.924,0],[0,0,0,0],[9E+09,9E+09,9E+09,9E+09,9E+09,9E+09]];
CONST robtarget Target_407:=[[182.1091371112832, 406.02048782143146, 3.0],[0,0.383,0.924,0],[0,0,0,0],[9E+09,9E+09,9E+09,9E+09,9E+09,9E+09]];
CONST robtarget Target_408:=[[182.23966329602237, 407.0119326837902, 3.0],[0,0.383,0.924,0],[0,0,0,0],[9E+09,9E+09,9E+09,9E+09,9E+09,9E+09]];
CONST robtarget Target_409:=[[182.37018948076155, 408.00337754614884, 3.0],[0,0.383,0.924,0],[0,0,0,0],[9E+09,9E+09,9E+09,9E+09,9E+09,9E+09]];
CONST robtarget Target_410:=[[182.723890283887, 408.93502294846803, 3.0],[0,0.383,0.924,0],[0,0,0,0],[9E+09,9E+09,9E+09,9E+09,9E+09,9E+09]];
CONST robtarget Target_411:=[[183.10657373304747, 409.85890247402244, 3.0],[0,0.383,0.924,0],[0,0,0,0],[9E+09,9E+09,9E+09,9E+09,9E+09,9E+09]];
CONST robtarget Target_412:=[[183.48925718220795, 410.78278199957686, 3.0],[0,0.383,0.924,0],[0,0,0,0],[9E+09,9E+09,9E+09,9E+09,9E+09,9E+09]];
CONST robtarget Target_413:=[[183.8719406313684, 411.70666152513127, 3.0],[0,0.383,0.924,0],[0,0,0,0],[9E+09,9E+09,9E+09,9E+09,9E+09,9E+09]];
CONST robtarget Target_414:=[[184.25462408052888, 412.6305410506857, 3.0],[0,0.383,0.924,0],[0,0,0,0],[9E+09,9E+09,9E+09,9E+09,9E+09,9E+09]];
CONST robtarget Target_415:=[[184.63730752968934, 413.5544205762401, 3.0],[0,0.383,0.924,0],[0,0,0,0],[9E+09,9E+09,9E+09,9E+09,9E+09,9E+09]];
CONST robtarget Target_416:=[[185.01999097884982, 414.4783001017945, 3.0],[0,0.383,0.924,0],[0,0,0,0],[9E+09,9E+09,9E+09,9E+09,9E+09,9E+09]];
CONST robtarget Target_417:=[[185.4026744280103, 415.40217962734886, 3.0],[0,0.383,0.924,0],[0,0,0,0],[9E+09,9E+09,9E+09,9E+09,9E+09,9E+09]];
CONST robtarget Target_418:=[[185.78535787717078, 416.32605915290327, 3.0],[0,0.383,0.924,0],[0,0,0,0],[9E+09,9E+09,9E+09,9E+09,9E+09,9E+09]];
CONST robtarget Target_419:=[[186.16804132633126, 417.2499386784577, 3.0],[0,0.383,0.924,0],[0,0,0,0],[9E+09,9E+09,9E+09,9E+09,9E+09,9E+09]];
CONST robtarget Target_420:=[[186.55072477549174, 418.1738182040121, 3.0],[0,0.383,0.924,0],[0,0,0,0],[9E+09,9E+09,9E+09,9E+09,9E+09,9E+09]];
CONST robtarget Target_421:=[[186.93340822465223, 419.0976977295665, 3.0],[0,0.383,0.924,0],[0,0,0,0],[9E+09,9E+09,9E+09,9E+09,9E+09,9E+09]];
CONST robtarget Target_422:=[[187.31609167381268, 420.0215772551209, 3.0],[0,0.383,0.924,0],[0,0,0,0],[9E+09,9E+09,9E+09,9E+09,9E+09,9E+09]];
CONST robtarget Target_423:=[[187.69877512297316, 420.9454567806753, 3.0],[0,0.383,0.924,0],[0,0,0,0],[9E+09,9E+09,9E+09,9E+09,9E+09,9E+09]];
CONST robtarget Target_424:=[[188.08145857213364, 421.8693363062297, 3.0],[0,0.383,0.924,0],[0,0,0,0],[9E+09,9E+09,9E+09,9E+09,9E+09,9E+09]];
CONST robtarget Target_425:=[[188.4641420212941, 422.7932158317841, 3.0],[0,0.383,0.924,0],[0,0,0,0],[9E+09,9E+09,9E+09,9E+09,9E+09,9E+09]];
CONST robtarget Target_426:=[[188.84682547045458, 423.7170953573385, 3.0],[0,0.383,0.924,0],[0,0,0,0],[9E+09,9E+09,9E+09,9E+09,9E+09,9E+09]];
CONST robtarget Target_427:=[[189.22950891961506, 424.6409748828929, 3.0],[0,0.383,0.924,0],[0,0,0,0],[9E+09,9E+09,9E+09,9E+09,9E+09,9E+09]];
CONST robtarget Target_428:=[[189.75041507421074, 425.48505149388177, 3.0],[0,0.383,0.924,0],[0,0,0,0],[9E+09,9E+09,9E+09,9E+09,9E+09,9E+09]];
CONST robtarget Target_429:=[[190.3591764748018, 426.2784048559786, 3.0],[0,0.383,0.924,0],[0,0,0,0],[9E+09,9E+09,9E+09,9E+09,9E+09,9E+09]];
CONST robtarget Target_430:=[[190.9679378753929, 427.0717582180755, 3.0],[0,0.383,0.924,0],[0,0,0,0],[9E+09,9E+09,9E+09,9E+09,9E+09,9E+09]];
CONST robtarget Target_431:=[[191.57669927598397, 427.8651115801723, 3.0],[0,0.383,0.924,0],[0,0,0,0],[9E+09,9E+09,9E+09,9E+09,9E+09,9E+09]];
CONST robtarget Target_432:=[[192.18546067657508, 428.65846494226923, 3.0],[0,0.383,0.924,0],[0,0,0,0],[9E+09,9E+09,9E+09,9E+09,9E+09,9E+09]];
CONST robtarget Target_433:=[[192.79422207716613, 429.45181830436604, 3.0],[0,0.383,0.924,0],[0,0,0,0],[9E+09,9E+09,9E+09,9E+09,9E+09,9E+09]];
CONST robtarget Target_434:=[[193.40298347775723, 430.2451716664629, 3.0],[0,0.383,0.924,0],[0,0,0,0],[9E+09,9E+09,9E+09,9E+09,9E+09,9E+09]];
CONST robtarget Target_435:=[[194.0117448783483, 431.0385250285598, 3.0],[0,0.383,0.924,0],[0,0,0,0],[9E+09,9E+09,9E+09,9E+09,9E+09,9E+09]];
CONST robtarget Target_436:=[[194.6205062789394, 431.83187839065664, 3.0],[0,0.383,0.924,0],[0,0,0,0],[9E+09,9E+09,9E+09,9E+09,9E+09,9E+09]];
CONST robtarget Target_437:=[[195.22926767953047, 432.6252317527535, 3.0],[0,0.383,0.924,0],[0,0,0,0],[9E+09,9E+09,9E+09,9E+09,9E+09,9E+09]];
CONST robtarget Target_438:=[[195.83802908012154, 433.4185851148503, 3.0],[0,0.383,0.924,0],[0,0,0,0],[9E+09,9E+09,9E+09,9E+09,9E+09,9E+09]];
CONST robtarget Target_439:=[[196.44679048071262, 434.21193847694724, 3.0],[0,0.383,0.924,0],[0,0,0,0],[9E+09,9E+09,9E+09,9E+09,9E+09,9E+09]];
CONST robtarget Target_440:=[[197.0555518813037, 435.00529183904405, 3.0],[0,0.383,0.924,0],[0,0,0,0],[9E+09,9E+09,9E+09,9E+09,9E+09,9E+09]];
CONST robtarget Target_441:=[[197.66431328189478, 435.79864520114097, 3.0],[0,0.383,0.924,0],[0,0,0,0],[9E+09,9E+09,9E+09,9E+09,9E+09,9E+09]];
CONST robtarget Target_442:=[[198.27307468248586, 436.5919985632378, 3.0],[0,0.383,0.924,0],[0,0,0,0],[9E+09,9E+09,9E+09,9E+09,9E+09,9E+09]];
CONST robtarget Target_443:=[[198.88183608307693, 437.38535192533465, 3.0],[0,0.383,0.924,0],[0,0,0,0],[9E+09,9E+09,9E+09,9E+09,9E+09,9E+09]];
CONST robtarget Target_444:=[[199.490597483668, 438.1787052874315, 3.0],[0,0.383,0.924,0],[0,0,0,0],[9E+09,9E+09,9E+09,9E+09,9E+09,9E+09]];
CONST robtarget Target_445:=[[200.09935888425912, 438.9720586495284, 3.0],[0,0.383,0.924,0],[0,0,0,0],[9E+09,9E+09,9E+09,9E+09,9E+09,9E+09]];
CONST robtarget Target_446:=[[200.77046201162523, 439.7030702848502, 3.0],[0,0.383,0.924,0],[0,0,0,0],[9E+09,9E+09,9E+09,9E+09,9E+09,9E+09]];
CONST robtarget Target_447:=[[201.56381537372206, 440.31183168544123, 3.0],[0,0.383,0.924,0],[0,0,0,0],[9E+09,9E+09,9E+09,9E+09,9E+09,9E+09]];
CONST robtarget Target_448:=[[202.35716873581893, 440.92059308603234, 3.0],[0,0.383,0.924,0],[0,0,0,0],[9E+09,9E+09,9E+09,9E+09,9E+09,9E+09]];
CONST robtarget Target_449:=[[203.15052209791577, 441.52935448662345, 3.0],[0,0.383,0.924,0],[0,0,0,0],[9E+09,9E+09,9E+09,9E+09,9E+09,9E+09]];
CONST robtarget Target_450:=[[203.94387546001263, 442.1381158872145, 3.0],[0,0.383,0.924,0],[0,0,0,0],[9E+09,9E+09,9E+09,9E+09,9E+09,9E+09]];
CONST robtarget Target_451:=[[204.7372288221095, 442.74687728780555, 3.0],[0,0.383,0.924,0],[0,0,0,0],[9E+09,9E+09,9E+09,9E+09,9E+09,9E+09]];
CONST robtarget Target_452:=[[205.53058218420637, 443.35563868839665, 3.0],[0,0.383,0.924,0],[0,0,0,0],[9E+09,9E+09,9E+09,9E+09,9E+09,9E+09]];
CONST robtarget Target_453:=[[206.3239355463032, 443.96440008898776, 3.0],[0,0.383,0.924,0],[0,0,0,0],[9E+09,9E+09,9E+09,9E+09,9E+09,9E+09]];
CONST robtarget Target_454:=[[207.11728890840007, 444.5731614895788, 3.0],[0,0.383,0.924,0],[0,0,0,0],[9E+09,9E+09,9E+09,9E+09,9E+09,9E+09]];
CONST robtarget Target_455:=[[207.9106422704969, 445.1819228901699, 3.0],[0,0.383,0.924,0],[0,0,0,0],[9E+09,9E+09,9E+09,9E+09,9E+09,9E+09]];
CONST robtarget Target_456:=[[208.70399563259377, 445.79068429076096, 3.0],[0,0.383,0.924,0],[0,0,0,0],[9E+09,9E+09,9E+09,9E+09,9E+09,9E+09]];
CONST robtarget Target_457:=[[209.49734899469064, 446.39944569135207, 3.0],[0,0.383,0.924,0],[0,0,0,0],[9E+09,9E+09,9E+09,9E+09,9E+09,9E+09]];
CONST robtarget Target_458:=[[210.2907023567875, 447.0082070919432, 3.0],[0,0.383,0.924,0],[0,0,0,0],[9E+09,9E+09,9E+09,9E+09,9E+09,9E+09]];
CONST robtarget Target_459:=[[211.08405571888434, 447.6169684925342, 3.0],[0,0.383,0.924,0],[0,0,0,0],[9E+09,9E+09,9E+09,9E+09,9E+09,9E+09]];
CONST robtarget Target_460:=[[211.8774090809812, 448.2257298931253, 3.0],[0,0.383,0.924,0],[0,0,0,0],[9E+09,9E+09,9E+09,9E+09,9E+09,9E+09]];
CONST robtarget Target_461:=[[212.67076244307805, 448.8344912937164, 3.0],[0,0.383,0.924,0],[0,0,0,0],[9E+09,9E+09,9E+09,9E+09,9E+09,9E+09]];
CONST robtarget Target_462:=[[213.4641158051749, 449.4432526943075, 3.0],[0,0.383,0.924,0],[0,0,0,0],[9E+09,9E+09,9E+09,9E+09,9E+09,9E+09]];
CONST robtarget Target_463:=[[214.25746916727178, 450.05201409489854, 3.0],[0,0.383,0.924,0],[0,0,0,0],[9E+09,9E+09,9E+09,9E+09,9E+09,9E+09]];
CONST robtarget Target_464:=[[214.81912334102805, 450.55755181075807, 3.0288122111636344],[0,0.383,0.924,0],[0,0,0,0],[9E+09,9E+09,9E+09,9E+09,9E+09,9E+09]];
CONST robtarget Target_465:=[[211.99559001236238, 449.55496371051174, 3.478578582101534],[0,0.383,0.924,0],[0,0,0,0],[9E+09,9E+09,9E+09,9E+09,9E+09,9E+09]];
CONST robtarget Target_466:=[[209.17205668369667, 448.5523756102654, 3.928344953039433],[0,0.383,0.924,0],[0,0,0,0],[9E+09,9E+09,9E+09,9E+09,9E+09,9E+09]];
CONST robtarget Target_467:=[[206.34852335503098, 447.5497875100191, 4.378111323977333],[0,0.383,0.924,0],[0,0,0,0],[9E+09,9E+09,9E+09,9E+09,9E+09,9E+09]];
CONST robtarget Target_468:=[[203.52499002636526, 446.54719940977276, 4.827877694915232],[0,0.383,0.924,0],[0,0,0,0],[9E+09,9E+09,9E+09,9E+09,9E+09,9E+09]];
CONST robtarget Target_469:=[[200.7014566976996, 445.54461130952643, 5.277644065853126],[0,0.383,0.924,0],[0,0,0,0],[9E+09,9E+09,9E+09,9E+09,9E+09,9E+09]];
CONST robtarget Target_470:=[[197.8779233690339, 444.54202320928016, 5.7274104367910255],[0,0.383,0.924,0],[0,0,0,0],[9E+09,9E+09,9E+09,9E+09,9E+09,9E+09]];
CONST robtarget Target_471:=[[195.0543900403682, 443.53943510903383, 6.177176807728925],[0,0.383,0.924,0],[0,0,0,0],[9E+09,9E+09,9E+09,9E+09,9E+09,9E+09]];
CONST robtarget Target_472:=[[192.2308567117025, 442.5368470087875, 6.626943178666824],[0,0.383,0.924,0],[0,0,0,0],[9E+09,9E+09,9E+09,9E+09,9E+09,9E+09]];
CONST robtarget Target_473:=[[189.40732338303684, 441.53425890854123, 7.076709549604718],[0,0.383,0.924,0],[0,0,0,0],[9E+09,9E+09,9E+09,9E+09,9E+09,9E+09]];
CONST robtarget Target_474:=[[186.58379005437112, 440.53167080829485, 7.526475920542618],[0,0.383,0.924,0],[0,0,0,0],[9E+09,9E+09,9E+09,9E+09,9E+09,9E+09]];
CONST robtarget Target_475:=[[183.76025672570543, 439.5290827080486, 7.976242291480517],[0,0.383,0.924,0],[0,0,0,0],[9E+09,9E+09,9E+09,9E+09,9E+09,9E+09]];
CONST robtarget Target_476:=[[180.93672339703974, 438.52649460780225, 8.426008662418411],[0,0.383,0.924,0],[0,0,0,0],[9E+09,9E+09,9E+09,9E+09,9E+09,9E+09]];
CONST robtarget Target_477:=[[178.11319006837405, 437.5239065075559, 8.875775033356316],[0,0.383,0.924,0],[0,0,0,0],[9E+09,9E+09,9E+09,9E+09,9E+09,9E+09]];
CONST robtarget Target_478:=[[175.28965673970836, 436.5213184073096, 9.32554140429421],[0,0.383,0.924,0],[0,0,0,0],[9E+09,9E+09,9E+09,9E+09,9E+09,9E+09]];
CONST robtarget Target_479:=[[172.46612341104267, 435.51873030706327, 9.77530777523211],[0,0.383,0.924,0],[0,0,0,0],[9E+09,9E+09,9E+09,9E+09,9E+09,9E+09]];
CONST robtarget Target_480:=[[169.64259008237696, 434.516142206817, 10.225074146170009],[0,0.383,0.924,0],[0,0,0,0],[9E+09,9E+09,9E+09,9E+09,9E+09,9E+09]];
CONST robtarget Target_481:=[[166.8190567537113, 433.51355410657067, 10.674840517107908],[0,0.383,0.924,0],[0,0,0,0],[9E+09,9E+09,9E+09,9E+09,9E+09,9E+09]];
CONST robtarget Target_482:=[[163.99552342504558, 432.51096600632434, 11.124606888045808],[0,0.383,0.924,0],[0,0,0,0],[9E+09,9E+09,9E+09,9E+09,9E+09,9E+09]];
CONST robtarget Target_483:=[[161.1719900963799, 431.508377906078, 11.574373258983702],[0,0.383,0.924,0],[0,0,0,0],[9E+09,9E+09,9E+09,9E+09,9E+09,9E+09]];
CONST robtarget Target_484:=[[158.3484567677142, 430.5057898058317, 12.024139629921601],[0,0.383,0.924,0],[0,0,0,0],[9E+09,9E+09,9E+09,9E+09,9E+09,9E+09]];
CONST robtarget Target_485:=[[155.5249234390485, 429.5032017055854, 12.4739060008595],[0,0.383,0.924,0],[0,0,0,0],[9E+09,9E+09,9E+09,9E+09,9E+09,9E+09]];
CONST robtarget Target_486:=[[152.70139011038282, 428.5006136053391, 12.9236723717974],[0,0.383,0.924,0],[0,0,0,0],[9E+09,9E+09,9E+09,9E+09,9E+09,9E+09]];
CONST robtarget Target_487:=[[149.87785678171713, 427.49802550509276, 13.373438742735294],[0,0.383,0.924,0],[0,0,0,0],[9E+09,9E+09,9E+09,9E+09,9E+09,9E+09]];
CONST robtarget Target_488:=[[147.0543234530514, 426.4954374048464, 13.823205113673193],[0,0.383,0.924,0],[0,0,0,0],[9E+09,9E+09,9E+09,9E+09,9E+09,9E+09]];
CONST robtarget Target_489:=[[144.23079012438572, 425.4928493046001, 14.272971484611093],[0,0.383,0.924,0],[0,0,0,0],[9E+09,9E+09,9E+09,9E+09,9E+09,9E+09]];
CONST robtarget Target_490:=[[141.40725679572006, 424.4902612043538, 14.722737855548987],[0,0.383,0.924,0],[0,0,0,0],[9E+09,9E+09,9E+09,9E+09,9E+09,9E+09]];
CONST robtarget Target_491:=[[138.58372346705434, 423.48767310410744, 15.172504226486891],[0,0.383,0.924,0],[0,0,0,0],[9E+09,9E+09,9E+09,9E+09,9E+09,9E+09]];
CONST robtarget Target_492:=[[135.76019013838865, 422.4850850038612, 15.622270597424786],[0,0.383,0.924,0],[0,0,0,0],[9E+09,9E+09,9E+09,9E+09,9E+09,9E+09]];
CONST robtarget Target_493:=[[132.93665680972296, 421.48249690361484, 16.072036968362685],[0,0.383,0.924,0],[0,0,0,0],[9E+09,9E+09,9E+09,9E+09,9E+09,9E+09]];
CONST robtarget Target_494:=[[130.11312348105727, 420.4799088033685, 16.521803339300583],[0,0.383,0.924,0],[0,0,0,0],[9E+09,9E+09,9E+09,9E+09,9E+09,9E+09]];
CONST robtarget Target_495:=[[127.28959015239158, 419.47732070312225, 16.971569710238477],[0,0.383,0.924,0],[0,0,0,0],[9E+09,9E+09,9E+09,9E+09,9E+09,9E+09]];
CONST robtarget Target_496:=[[124.46605682372586, 418.47473260287586, 17.421336081176385],[0,0.383,0.924,0],[0,0,0,0],[9E+09,9E+09,9E+09,9E+09,9E+09,9E+09]];
CONST robtarget Target_497:=[[121.64252349506017, 417.4721445026296, 17.87110245211428],[0,0.383,0.924,0],[0,0,0,0],[9E+09,9E+09,9E+09,9E+09,9E+09,9E+09]];
CONST robtarget Target_498:=[[118.81899016639451, 416.46955640238326, 18.320868823052177],[0,0.383,0.924,0],[0,0,0,0],[9E+09,9E+09,9E+09,9E+09,9E+09,9E+09]];
CONST robtarget Target_499:=[[115.9954568377288, 415.46696830213693, 18.770635193990074],[0,0.383,0.924,0],[0,0,0,0],[9E+09,9E+09,9E+09,9E+09,9E+09,9E+09]];
CONST robtarget Target_500:=[[113.1719235090631, 414.4643802018906, 19.22040156492797],[0,0.383,0.924,0],[0,0,0,0],[9E+09,9E+09,9E+09,9E+09,9E+09,9E+09]];
CONST robtarget Target_501:=[[110.34839018039742, 413.4617921016443, 19.67016793586587],[0,0.383,0.924,0],[0,0,0,0],[9E+09,9E+09,9E+09,9E+09,9E+09,9E+09]];
CONST robtarget Target_502:=[[107.52485685173173, 412.459204001398, 20.11993430680377],[0,0.383,0.924,0],[0,0,0,0],[9E+09,9E+09,9E+09,9E+09,9E+09,9E+09]];
CONST robtarget Target_503:=[[104.70132352306604, 411.4566159011517, 20.569700677741668],[0,0.383,0.924,0],[0,0,0,0],[9E+09,9E+09,9E+09,9E+09,9E+09,9E+09]];
CONST robtarget Target_504:=[[101.87779019440035, 410.45402780090535, 21.019467048679562],[0,0.383,0.924,0],[0,0,0,0],[9E+09,9E+09,9E+09,9E+09,9E+09,9E+09]];
CONST robtarget Target_505:=[[99.05425686573463, 409.451439700659, 21.469233419617463],[0,0.383,0.924,0],[0,0,0,0],[9E+09,9E+09,9E+09,9E+09,9E+09,9E+09]];
CONST robtarget Target_506:=[[96.23072353706897, 408.4488516004127, 21.91899979055536],[0,0.383,0.924,0],[0,0,0,0],[9E+09,9E+09,9E+09,9E+09,9E+09,9E+09]];
CONST robtarget Target_507:=[[93.40719020840328, 407.4462635001664, 22.36876616149326],[0,0.383,0.924,0],[0,0,0,0],[9E+09,9E+09,9E+09,9E+09,9E+09,9E+09]];
CONST robtarget Target_508:=[[90.58365687973756, 406.44367539992004, 22.81853253243116],[0,0.383,0.924,0],[0,0,0,0],[9E+09,9E+09,9E+09,9E+09,9E+09,9E+09]];
CONST robtarget Target_509:=[[87.7601235510719, 405.44108729967377, 23.268298903369057],[0,0.383,0.924,0],[0,0,0,0],[9E+09,9E+09,9E+09,9E+09,9E+09,9E+09]];
CONST robtarget Target_510:=[[84.93659022240618, 404.43849919942744, 23.71806527430695],[0,0.383,0.924,0],[0,0,0,0],[9E+09,9E+09,9E+09,9E+09,9E+09,9E+09]];
CONST robtarget Target_511:=[[82.11305689374049, 403.4359110991811, 24.167831645244853],[0,0.383,0.924,0],[0,0,0,0],[9E+09,9E+09,9E+09,9E+09,9E+09,9E+09]];
CONST robtarget Target_512:=[[79.2895235650748, 402.43332299893484, 24.61759801618275],[0,0.383,0.924,0],[0,0,0,0],[9E+09,9E+09,9E+09,9E+09,9E+09,9E+09]];
CONST robtarget Target_513:=[[76.46599023640911, 401.43073489868846, 25.067364387120648],[0,0.383,0.924,0],[0,0,0,0],[9E+09,9E+09,9E+09,9E+09,9E+09,9E+09]];
CONST robtarget Target_514:=[[73.6424569077434, 400.4281467984422, 25.51713075805855],[0,0.383,0.924,0],[0,0,0,0],[9E+09,9E+09,9E+09,9E+09,9E+09,9E+09]];
CONST robtarget Target_515:=[[70.8189235790777, 399.42555869819586, 25.966897128996447],[0,0.383,0.924,0],[0,0,0,0],[9E+09,9E+09,9E+09,9E+09,9E+09,9E+09]];
CONST robtarget Target_516:=[[67.99539025041202, 398.42297059794953, 26.416663499934344],[0,0.383,0.924,0],[0,0,0,0],[9E+09,9E+09,9E+09,9E+09,9E+09,9E+09]];
CONST robtarget Target_517:=[[65.17185692174633, 397.4203824977032, 26.866429870872242],[0,0.383,0.924,0],[0,0,0,0],[9E+09,9E+09,9E+09,9E+09,9E+09,9E+09]];
CONST robtarget Target_518:=[[62.348323593080636, 396.4177943974569, 27.316196241810143],[0,0.383,0.924,0],[0,0,0,0],[9E+09,9E+09,9E+09,9E+09,9E+09,9E+09]];
CONST robtarget Target_519:=[[59.524790264414946, 395.4152062972106, 27.765962612748037],[0,0.383,0.924,0],[0,0,0,0],[9E+09,9E+09,9E+09,9E+09,9E+09,9E+09]];
CONST robtarget Target_520:=[[56.70125693574926, 394.4126181969643, 28.215728983685935],[0,0.383,0.924,0],[0,0,0,0],[9E+09,9E+09,9E+09,9E+09,9E+09,9E+09]];
CONST robtarget Target_521:=[[53.87772360708357, 393.41003009671795, 28.665495354623836],[0,0.383,0.924,0],[0,0,0,0],[9E+09,9E+09,9E+09,9E+09,9E+09,9E+09]];
CONST robtarget Target_522:=[[51.05419027841788, 392.4074419964716, 29.115261725561737],[0,0.383,0.924,0],[0,0,0,0],[9E+09,9E+09,9E+09,9E+09,9E+09,9E+09]];
CONST robtarget Target_523:=[[48.23065694975219, 391.4048538962253, 29.56502809649963],[0,0.383,0.924,0],[0,0,0,0],[9E+09,9E+09,9E+09,9E+09,9E+09,9E+09]];
CONST robtarget Target_524:=[[45.4071236210865, 390.402265795979, 30.01479446743753],[0,0.383,0.924,0],[0,0,0,0],[9E+09,9E+09,9E+09,9E+09,9E+09,9E+09]];
CONST robtarget Target_525:=[[42.58359029242081, 389.39967769573263, 30.464560838375426],[0,0.383,0.924,0],[0,0,0,0],[9E+09,9E+09,9E+09,9E+09,9E+09,9E+09]];
CONST robtarget Target_526:=[[39.76005696375512, 388.39708959548636, 30.914327209313328],[0,0.383,0.924,0],[0,0,0,0],[9E+09,9E+09,9E+09,9E+09,9E+09,9E+09]];
CONST robtarget Target_527:=[[36.93652363508943, 387.39450149524004, 31.36409358025122],[0,0.383,0.924,0],[0,0,0,0],[9E+09,9E+09,9E+09,9E+09,9E+09,9E+09]];
CONST robtarget Target_528:=[[34.11299030642371, 386.3919133949937, 31.813859951189123],[0,0.383,0.924,0],[0,0,0,0],[9E+09,9E+09,9E+09,9E+09,9E+09,9E+09]];
CONST robtarget Target_529:=[[31.28945697775805, 385.38932529474744, 32.263626322127024],[0,0.383,0.924,0],[0,0,0,0],[9E+09,9E+09,9E+09,9E+09,9E+09,9E+09]];
CONST robtarget Target_530:=[[28.465923649092332, 384.38673719450105, 32.71339269306492],[0,0.383,0.924,0],[0,0,0,0],[9E+09,9E+09,9E+09,9E+09,9E+09,9E+09]];
CONST robtarget Target_531:=[[25.642390320426642, 383.3841490942548, 33.16315906400282],[0,0.383,0.924,0],[0,0,0,0],[9E+09,9E+09,9E+09,9E+09,9E+09,9E+09]];
CONST robtarget Target_532:=[[22.818856991760953, 382.38156099400845, 33.61292543494071],[0,0.383,0.924,0],[0,0,0,0],[9E+09,9E+09,9E+09,9E+09,9E+09,9E+09]];
CONST robtarget Target_533:=[[19.995323663095235, 381.3789728937621, 34.062691805878615],[0,0.383,0.924,0],[0,0,0,0],[9E+09,9E+09,9E+09,9E+09,9E+09,9E+09]];
CONST robtarget Target_534:=[[17.171790334429545, 380.37638479351585, 34.51245817681651],[0,0.383,0.924,0],[0,0,0,0],[9E+09,9E+09,9E+09,9E+09,9E+09,9E+09]];
CONST robtarget Target_535:=[[14.348257005763855, 379.37379669326947, 34.96222454775441],[0,0.383,0.924,0],[0,0,0,0],[9E+09,9E+09,9E+09,9E+09,9E+09,9E+09]];
CONST robtarget Target_536:=[[11.524723677098166, 378.3712085930232, 35.41199091869231],[0,0.383,0.924,0],[0,0,0,0],[9E+09,9E+09,9E+09,9E+09,9E+09,9E+09]];
CONST robtarget Target_537:=[[8.701190348432476, 377.36862049277687, 35.861757289630205],[0,0.383,0.924,0],[0,0,0,0],[9E+09,9E+09,9E+09,9E+09,9E+09,9E+09]];
CONST robtarget Target_538:=[[5.877657019766787, 376.36603239253054, 36.311523660568106],[0,0.383,0.924,0],[0,0,0,0],[9E+09,9E+09,9E+09,9E+09,9E+09,9E+09]];
CONST robtarget Target_539:=[[3.054123691101097, 375.3634442922842, 36.76129003150601],[0,0.383,0.924,0],[0,0,0,0],[9E+09,9E+09,9E+09,9E+09,9E+09,9E+09]];
CONST robtarget Target_540:=[[0.23059036243540731, 374.3608561920379, 37.2110564024439],[0,0.383,0.924,0],[0,0,0,0],[9E+09,9E+09,9E+09,9E+09,9E+09,9E+09]];
CONST robtarget Target_541:=[[-2.5929429662302823, 373.3582680917916, 37.660822773381796],[0,0.383,0.924,0],[0,0,0,0],[9E+09,9E+09,9E+09,9E+09,9E+09,9E+09]];
CONST robtarget Target_542:=[[-5.416476294895972, 372.3556799915453, 38.1105891443197],[0,0.383,0.924,0],[0,0,0,0],[9E+09,9E+09,9E+09,9E+09,9E+09,9E+09]];
CONST robtarget Target_543:=[[-8.240009623561662, 371.35309189129896, 38.5603555152576],[0,0.383,0.924,0],[0,0,0,0],[9E+09,9E+09,9E+09,9E+09,9E+09,9E+09]];
CONST robtarget Target_544:=[[-11.063542952227351, 370.35050379105263, 39.01012188619549],[0,0.383,0.924,0],[0,0,0,0],[9E+09,9E+09,9E+09,9E+09,9E+09,9E+09]];
CONST robtarget Target_545:=[[-13.88707628089304, 369.3479156908063, 39.459888257133386],[0,0.383,0.924,0],[0,0,0,0],[9E+09,9E+09,9E+09,9E+09,9E+09,9E+09]];
CONST robtarget Target_546:=[[-16.71060960955873, 368.34532759056003, 39.90965462807129],[0,0.383,0.924,0],[0,0,0,0],[9E+09,9E+09,9E+09,9E+09,9E+09,9E+09]];
CONST robtarget Target_547:=[[-19.534142938224477, 367.3427394903137, 40.35942099900919],[0,0.383,0.924,0],[0,0,0,0],[9E+09,9E+09,9E+09,9E+09,9E+09,9E+09]];
CONST robtarget Target_548:=[[-22.357676266890167, 366.3401513900674, 40.80918736994709],[0,0.383,0.924,0],[0,0,0,0],[9E+09,9E+09,9E+09,9E+09,9E+09,9E+09]];
CONST robtarget Target_549:=[[-25.181209595555856, 365.33756328982105, 41.25895374088499],[0,0.383,0.924,0],[0,0,0,0],[9E+09,9E+09,9E+09,9E+09,9E+09,9E+09]];
CONST robtarget Target_550:=[[-28.004742924221546, 364.3349751895747, 41.708720111822885],[0,0.383,0.924,0],[0,0,0,0],[9E+09,9E+09,9E+09,9E+09,9E+09,9E+09]];
CONST robtarget Target_551:=[[-30.828276252887235, 363.33238708932845, 42.15848648276078],[0,0.383,0.924,0],[0,0,0,0],[9E+09,9E+09,9E+09,9E+09,9E+09,9E+09]];
CONST robtarget Target_552:=[[-33.651809581552925, 362.32979898908206, 42.60825285369868],[0,0.383,0.924,0],[0,0,0,0],[9E+09,9E+09,9E+09,9E+09,9E+09,9E+09]];
CONST robtarget Target_553:=[[-36.475342910218615, 361.3272108888358, 43.05801922463658],[0,0.383,0.924,0],[0,0,0,0],[9E+09,9E+09,9E+09,9E+09,9E+09,9E+09]];
CONST robtarget Target_554:=[[-38.93712292094085, 360.45307516707305, 43.4501611732472],[0,0.383,0.924,0],[0,0,0,0],[9E+09,9E+09,9E+09,9E+09,9E+09,9E+09]];
CONST robtarget Target_555:=[[-36.11358959227516, 361.4556632673193, 43.0003948023093],[0,0.383,0.924,0],[0,0,0,0],[9E+09,9E+09,9E+09,9E+09,9E+09,9E+09]];
CONST robtarget Target_556:=[[-33.29005626360947, 362.45825136756565, 42.55062843137141],[0,0.383,0.924,0],[0,0,0,0],[9E+09,9E+09,9E+09,9E+09,9E+09,9E+09]];
CONST robtarget Target_557:=[[-30.466522934943782, 363.460839467812, 42.100862060433506],[0,0.383,0.924,0],[0,0,0,0],[9E+09,9E+09,9E+09,9E+09,9E+09,9E+09]];
CONST robtarget Target_558:=[[-27.642989606278093, 364.4634275680583, 41.651095689495605],[0,0.383,0.924,0],[0,0,0,0],[9E+09,9E+09,9E+09,9E+09,9E+09,9E+09]];
CONST robtarget Target_559:=[[-24.819456277612403, 365.46601566830464, 41.20132931855771],[0,0.383,0.924,0],[0,0,0,0],[9E+09,9E+09,9E+09,9E+09,9E+09,9E+09]];
CONST robtarget Target_560:=[[-21.995922948946713, 366.4686037685509, 40.75156294761982],[0,0.383,0.924,0],[0,0,0,0],[9E+09,9E+09,9E+09,9E+09,9E+09,9E+09]];
CONST robtarget Target_561:=[[-19.172389620281024, 367.47119186879723, 40.301796576681916],[0,0.383,0.924,0],[0,0,0,0],[9E+09,9E+09,9E+09,9E+09,9E+09,9E+09]];
CONST robtarget Target_562:=[[-16.348856291615334, 368.47377996904356, 39.852030205744015],[0,0.383,0.924,0],[0,0,0,0],[9E+09,9E+09,9E+09,9E+09,9E+09,9E+09]];
CONST robtarget Target_563:=[[-13.525322962949645, 369.4763680692899, 39.40226383480612],[0,0.383,0.924,0],[0,0,0,0],[9E+09,9E+09,9E+09,9E+09,9E+09,9E+09]];
CONST robtarget Target_564:=[[-10.701789634283955, 370.4789561695362, 38.95249746386822],[0,0.383,0.924,0],[0,0,0,0],[9E+09,9E+09,9E+09,9E+09,9E+09,9E+09]];
CONST robtarget Target_565:=[[-7.878256305618265, 371.4815442697825, 38.50273109293032],[0,0.383,0.924,0],[0,0,0,0],[9E+09,9E+09,9E+09,9E+09,9E+09,9E+09]];
CONST robtarget Target_566:=[[-5.054722976952547, 372.4841323700288, 38.052964721992424],[0,0.383,0.924,0],[0,0,0,0],[9E+09,9E+09,9E+09,9E+09,9E+09,9E+09]];
CONST robtarget Target_567:=[[-2.2311896482868576, 373.48672047027515, 37.60319835105452],[0,0.383,0.924,0],[0,0,0,0],[9E+09,9E+09,9E+09,9E+09,9E+09,9E+09]];
CONST robtarget Target_568:=[[0.592343680378832, 374.4893085705215, 37.15343198011663],[0,0.383,0.924,0],[0,0,0,0],[9E+09,9E+09,9E+09,9E+09,9E+09,9E+09]];
CONST robtarget Target_569:=[[3.4158770090445216, 375.4918966707678, 36.70366560917873],[0,0.383,0.924,0],[0,0,0,0],[9E+09,9E+09,9E+09,9E+09,9E+09,9E+09]];
CONST robtarget Target_570:=[[6.23941033771024, 376.49448477101413, 36.253899238240834],[0,0.383,0.924,0],[0,0,0,0],[9E+09,9E+09,9E+09,9E+09,9E+09,9E+09]];
CONST robtarget Target_571:=[[9.0629436663759, 377.49707287126046, 35.80413286730293],[0,0.383,0.924,0],[0,0,0,0],[9E+09,9E+09,9E+09,9E+09,9E+09,9E+09]];
CONST robtarget Target_572:=[[11.886476995041619, 378.4996609715067, 35.35436649636503],[0,0.383,0.924,0],[0,0,0,0],[9E+09,9E+09,9E+09,9E+09,9E+09,9E+09]];
CONST robtarget Target_573:=[[14.710010323707309, 379.50224907175306, 34.90460012542714],[0,0.383,0.924,0],[0,0,0,0],[9E+09,9E+09,9E+09,9E+09,9E+09,9E+09]];
CONST robtarget Target_574:=[[17.533543652372998, 380.5048371719994, 34.454833754489236],[0,0.383,0.924,0],[0,0,0,0],[9E+09,9E+09,9E+09,9E+09,9E+09,9E+09]];
CONST robtarget Target_575:=[[20.357076981038688, 381.5074252722457, 34.005067383551335],[0,0.383,0.924,0],[0,0,0,0],[9E+09,9E+09,9E+09,9E+09,9E+09,9E+09]];
CONST robtarget Target_576:=[[23.180610309704377, 382.51001337249204, 33.55530101261344],[0,0.383,0.924,0],[0,0,0,0],[9E+09,9E+09,9E+09,9E+09,9E+09,9E+09]];
CONST robtarget Target_577:=[[26.004143638370067, 383.5126014727383, 33.10553464167555],[0,0.383,0.924,0],[0,0,0,0],[9E+09,9E+09,9E+09,9E+09,9E+09,9E+09]];
CONST robtarget Target_578:=[[28.827676967035785, 384.51518957298464, 32.655768270737646],[0,0.383,0.924,0],[0,0,0,0],[9E+09,9E+09,9E+09,9E+09,9E+09,9E+09]];
CONST robtarget Target_579:=[[31.651210295701475, 385.51777767323097, 32.206001899799745],[0,0.383,0.924,0],[0,0,0,0],[9E+09,9E+09,9E+09,9E+09,9E+09,9E+09]];
CONST robtarget Target_580:=[[34.474743624367136, 386.5203657734773, 31.75623552886185],[0,0.383,0.924,0],[0,0,0,0],[9E+09,9E+09,9E+09,9E+09,9E+09,9E+09]];
CONST robtarget Target_581:=[[37.298276953032854, 387.5229538737236, 31.30646915792395],[0,0.383,0.924,0],[0,0,0,0],[9E+09,9E+09,9E+09,9E+09,9E+09,9E+09]];
CONST robtarget Target_582:=[[40.121810281698544, 388.5255419739699, 30.856702786986055],[0,0.383,0.924,0],[0,0,0,0],[9E+09,9E+09,9E+09,9E+09,9E+09,9E+09]];
CONST robtarget Target_583:=[[42.94534361036423, 389.5281300742162, 30.406936416048154],[0,0.383,0.924,0],[0,0,0,0],[9E+09,9E+09,9E+09,9E+09,9E+09,9E+09]];
CONST robtarget Target_584:=[[45.76887693902992, 390.53071817446255, 29.957170045110253],[0,0.383,0.924,0],[0,0,0,0],[9E+09,9E+09,9E+09,9E+09,9E+09,9E+09]];
CONST robtarget Target_585:=[[48.59241026769561, 391.5333062747089, 29.50740367417236],[0,0.383,0.924,0],[0,0,0,0],[9E+09,9E+09,9E+09,9E+09,9E+09,9E+09]];
CONST robtarget Target_586:=[[51.41594359636133, 392.5358943749552, 29.057637303234458],[0,0.383,0.924,0],[0,0,0,0],[9E+09,9E+09,9E+09,9E+09,9E+09,9E+09]];
CONST robtarget Target_587:=[[54.23947692502702, 393.5384824752015, 28.607870932296564],[0,0.383,0.924,0],[0,0,0,0],[9E+09,9E+09,9E+09,9E+09,9E+09,9E+09]];
CONST robtarget Target_588:=[[57.06301025369268, 394.54107057544786, 28.158104561358662],[0,0.383,0.924,0],[0,0,0,0],[9E+09,9E+09,9E+09,9E+09,9E+09,9E+09]];
CONST robtarget Target_589:=[[59.8865435823584, 395.54365867569413, 27.70833819042076],[0,0.383,0.924,0],[0,0,0,0],[9E+09,9E+09,9E+09,9E+09,9E+09,9E+09]];
CONST robtarget Target_590:=[[62.71007691102409, 396.54624677594046, 27.258571819482867],[0,0.383,0.924,0],[0,0,0,0],[9E+09,9E+09,9E+09,9E+09,9E+09,9E+09]];
CONST robtarget Target_591:=[[65.53361023968978, 397.5488348761868, 26.80880544854497],[0,0.383,0.924,0],[0,0,0,0],[9E+09,9E+09,9E+09,9E+09,9E+09,9E+09]];
CONST robtarget Target_592:=[[68.35714356835547, 398.5514229764331, 26.35903907760707],[0,0.383,0.924,0],[0,0,0,0],[9E+09,9E+09,9E+09,9E+09,9E+09,9E+09]];
CONST robtarget Target_593:=[[71.18067689702116, 399.55401107667944, 25.90927270666917],[0,0.383,0.924,0],[0,0,0,0],[9E+09,9E+09,9E+09,9E+09,9E+09,9E+09]];
CONST robtarget Target_594:=[[74.00421022568685, 400.5565991769257, 25.459506335731277],[0,0.383,0.924,0],[0,0,0,0],[9E+09,9E+09,9E+09,9E+09,9E+09,9E+09]];
CONST robtarget Target_595:=[[76.82774355435257, 401.55918727717204, 25.009739964793376],[0,0.383,0.924,0],[0,0,0,0],[9E+09,9E+09,9E+09,9E+09,9E+09,9E+09]];
CONST robtarget Target_596:=[[79.65127688301823, 402.56177537741837, 24.559973593855478],[0,0.383,0.924,0],[0,0,0,0],[9E+09,9E+09,9E+09,9E+09,9E+09,9E+09]];
CONST robtarget Target_597:=[[82.47481021168392, 403.56436347766464, 24.11020722291758],[0,0.383,0.924,0],[0,0,0,0],[9E+09,9E+09,9E+09,9E+09,9E+09,9E+09]];
CONST robtarget Target_598:=[[85.29834354034963, 404.566951577911, 23.66044085197968],[0,0.383,0.924,0],[0,0,0,0],[9E+09,9E+09,9E+09,9E+09,9E+09,9E+09]];
CONST robtarget Target_599:=[[88.1218768690153, 405.5695396781573, 23.21067448104178],[0,0.383,0.924,0],[0,0,0,0],[9E+09,9E+09,9E+09,9E+09,9E+09,9E+09]];
CONST robtarget Target_600:=[[90.94541019768101, 406.5721277784036, 22.760908110103884],[0,0.383,0.924,0],[0,0,0,0],[9E+09,9E+09,9E+09,9E+09,9E+09,9E+09]];
CONST robtarget Target_601:=[[93.7689435263467, 407.57471587864995, 22.311141739165986],[0,0.383,0.924,0],[0,0,0,0],[9E+09,9E+09,9E+09,9E+09,9E+09,9E+09]];
CONST robtarget Target_602:=[[96.59247685501239, 408.5773039788963, 21.86137536822809],[0,0.383,0.924,0],[0,0,0,0],[9E+09,9E+09,9E+09,9E+09,9E+09,9E+09]];
CONST robtarget Target_603:=[[99.41601018367808, 409.5798920791426, 21.41160899729019],[0,0.383,0.924,0],[0,0,0,0],[9E+09,9E+09,9E+09,9E+09,9E+09,9E+09]];
CONST robtarget Target_604:=[[102.2395435123438, 410.5824801793889, 20.96184262635229],[0,0.383,0.924,0],[0,0,0,0],[9E+09,9E+09,9E+09,9E+09,9E+09,9E+09]];
CONST robtarget Target_605:=[[105.06307684100949, 411.58506827963527, 20.512076255414392],[0,0.383,0.924,0],[0,0,0,0],[9E+09,9E+09,9E+09,9E+09,9E+09,9E+09]];
CONST robtarget Target_606:=[[107.88661016967518, 412.58765637988154, 20.062309884476495],[0,0.383,0.924,0],[0,0,0,0],[9E+09,9E+09,9E+09,9E+09,9E+09,9E+09]];
CONST robtarget Target_607:=[[110.71014349834087, 413.59024448012786, 19.612543513538597],[0,0.383,0.924,0],[0,0,0,0],[9E+09,9E+09,9E+09,9E+09,9E+09,9E+09]];
CONST robtarget Target_608:=[[113.53367682700656, 414.5928325803742, 19.1627771426007],[0,0.383,0.924,0],[0,0,0,0],[9E+09,9E+09,9E+09,9E+09,9E+09,9E+09]];
CONST robtarget Target_609:=[[116.35721015567225, 415.59542068062046, 18.713010771662802],[0,0.383,0.924,0],[0,0,0,0],[9E+09,9E+09,9E+09,9E+09,9E+09,9E+09]];
CONST robtarget Target_610:=[[119.18074348433794, 416.59800878086685, 18.2632444007249],[0,0.383,0.924,0],[0,0,0,0],[9E+09,9E+09,9E+09,9E+09,9E+09,9E+09]];
CONST robtarget Target_611:=[[122.00427681300363, 417.6005968811131, 17.813478029787003],[0,0.383,0.924,0],[0,0,0,0],[9E+09,9E+09,9E+09,9E+09,9E+09,9E+09]];
CONST robtarget Target_612:=[[124.82781014166933, 418.60318498135945, 17.363711658849105],[0,0.383,0.924,0],[0,0,0,0],[9E+09,9E+09,9E+09,9E+09,9E+09,9E+09]];
CONST robtarget Target_613:=[[127.65134347033501, 419.6057730816058, 16.91394528791121],[0,0.383,0.924,0],[0,0,0,0],[9E+09,9E+09,9E+09,9E+09,9E+09,9E+09]];
CONST robtarget Target_614:=[[130.4748767990007, 420.60836118185205, 16.46417891697331],[0,0.383,0.924,0],[0,0,0,0],[9E+09,9E+09,9E+09,9E+09,9E+09,9E+09]];
CONST robtarget Target_615:=[[133.2984101276664, 421.61094928209843, 16.01441254603541],[0,0.383,0.924,0],[0,0,0,0],[9E+09,9E+09,9E+09,9E+09,9E+09,9E+09]];
CONST robtarget Target_616:=[[136.12194345633208, 422.6135373823447, 15.564646175097515],[0,0.383,0.924,0],[0,0,0,0],[9E+09,9E+09,9E+09,9E+09,9E+09,9E+09]];
CONST robtarget Target_617:=[[138.94547678499777, 423.61612548259103, 15.114879804159614],[0,0.383,0.924,0],[0,0,0,0],[9E+09,9E+09,9E+09,9E+09,9E+09,9E+09]];
CONST robtarget Target_618:=[[141.76901011366348, 424.61871358283736, 14.665113433221716],[0,0.383,0.924,0],[0,0,0,0],[9E+09,9E+09,9E+09,9E+09,9E+09,9E+09]];
CONST robtarget Target_619:=[[144.59254344232914, 425.6213016830837, 14.21534706228382],[0,0.383,0.924,0],[0,0,0,0],[9E+09,9E+09,9E+09,9E+09,9E+09,9E+09]];
CONST robtarget Target_620:=[[147.41607677099486, 426.62388978333, 13.76558069134592],[0,0.383,0.924,0],[0,0,0,0],[9E+09,9E+09,9E+09,9E+09,9E+09,9E+09]];
CONST robtarget Target_621:=[[150.23961009966055, 427.6264778835763, 13.315814320408023],[0,0.383,0.924,0],[0,0,0,0],[9E+09,9E+09,9E+09,9E+09,9E+09,9E+09]];
CONST robtarget Target_622:=[[153.06314342832624, 428.6290659838226, 12.866047949470124],[0,0.383,0.924,0],[0,0,0,0],[9E+09,9E+09,9E+09,9E+09,9E+09,9E+09]];
CONST robtarget Target_623:=[[155.88667675699196, 429.63165408406894, 12.416281578532224],[0,0.383,0.924,0],[0,0,0,0],[9E+09,9E+09,9E+09,9E+09,9E+09,9E+09]];
CONST robtarget Target_624:=[[158.71021008565765, 430.63424218431527, 11.966515207594329],[0,0.383,0.924,0],[0,0,0,0],[9E+09,9E+09,9E+09,9E+09,9E+09,9E+09]];
CONST robtarget Target_625:=[[161.53374341432334, 431.6368302845616, 11.51674883665643],[0,0.383,0.924,0],[0,0,0,0],[9E+09,9E+09,9E+09,9E+09,9E+09,9E+09]];
CONST robtarget Target_626:=[[164.35727674298903, 432.63941838480787, 11.066982465718532],[0,0.383,0.924,0],[0,0,0,0],[9E+09,9E+09,9E+09,9E+09,9E+09,9E+09]];
CONST robtarget Target_627:=[[167.18081007165472, 433.64200648505425, 10.617216094780632],[0,0.383,0.924,0],[0,0,0,0],[9E+09,9E+09,9E+09,9E+09,9E+09,9E+09]];
CONST robtarget Target_628:=[[170.0043434003204, 434.6445945853005, 10.167449723842735],[0,0.383,0.924,0],[0,0,0,0],[9E+09,9E+09,9E+09,9E+09,9E+09,9E+09]];
CONST robtarget Target_629:=[[172.8278767289861, 435.64718268554685, 9.717683352904837],[0,0.383,0.924,0],[0,0,0,0],[9E+09,9E+09,9E+09,9E+09,9E+09,9E+09]];
CONST robtarget Target_630:=[[175.6514100576518, 436.6497707857932, 9.267916981966938],[0,0.383,0.924,0],[0,0,0,0],[9E+09,9E+09,9E+09,9E+09,9E+09,9E+09]];
CONST robtarget Target_631:=[[178.47494338631748, 437.65235888603945, 8.81815061102904],[0,0.383,0.924,0],[0,0,0,0],[9E+09,9E+09,9E+09,9E+09,9E+09,9E+09]];
CONST robtarget Target_632:=[[181.29847671498317, 438.65494698628584, 8.368384240091142],[0,0.383,0.924,0],[0,0,0,0],[9E+09,9E+09,9E+09,9E+09,9E+09,9E+09]];
CONST robtarget Target_633:=[[184.12201004364886, 439.6575350865321, 7.918617869153244],[0,0.383,0.924,0],[0,0,0,0],[9E+09,9E+09,9E+09,9E+09,9E+09,9E+09]];
CONST robtarget Target_634:=[[186.94554337231457, 440.66012318677843, 7.468851498215345],[0,0.383,0.924,0],[0,0,0,0],[9E+09,9E+09,9E+09,9E+09,9E+09,9E+09]];
CONST robtarget Target_635:=[[189.76907670098026, 441.66271128702476, 7.019085127277448],[0,0.383,0.924,0],[0,0,0,0],[9E+09,9E+09,9E+09,9E+09,9E+09,9E+09]];
CONST robtarget Target_636:=[[192.59261002964595, 442.66529938727103, 6.569318756339549],[0,0.383,0.924,0],[0,0,0,0],[9E+09,9E+09,9E+09,9E+09,9E+09,9E+09]];
CONST robtarget Target_637:=[[195.41614335831164, 443.6678874875174, 6.119552385401651],[0,0.383,0.924,0],[0,0,0,0],[9E+09,9E+09,9E+09,9E+09,9E+09,9E+09]];
CONST robtarget Target_638:=[[198.23967668697733, 444.6704755877637, 5.669786014463753],[0,0.383,0.924,0],[0,0,0,0],[9E+09,9E+09,9E+09,9E+09,9E+09,9E+09]];
CONST robtarget Target_639:=[[201.06321001564302, 445.67306368801, 5.220019643525854],[0,0.383,0.924,0],[0,0,0,0],[9E+09,9E+09,9E+09,9E+09,9E+09,9E+09]];
CONST robtarget Target_640:=[[203.8867433443087, 446.67565178825635, 4.770253272587956],[0,0.383,0.924,0],[0,0,0,0],[9E+09,9E+09,9E+09,9E+09,9E+09,9E+09]];
CONST robtarget Target_641:=[[206.71027667297443, 447.6782398885027, 4.320486901650058],[0,0.383,0.924,0],[0,0,0,0],[9E+09,9E+09,9E+09,9E+09,9E+09,9E+09]];
CONST robtarget Target_642:=[[209.53381000164012, 448.680827988749, 3.8707205307121595],[0,0.383,0.924,0],[0,0,0,0],[9E+09,9E+09,9E+09,9E+09,9E+09,9E+09]];
CONST robtarget Target_643:=[[212.3573433303058, 449.6834160889953, 3.4209541597742614],[0,0.383,0.924,0],[0,0,0,0],[9E+09,9E+09,9E+09,9E+09,9E+09,9E+09]];
CONST robtarget Target_644:=[[215.0591840868948, 450.646292852729, 3.0],[0,0.383,0.924,0],[0,0,0,0],[9E+09,9E+09,9E+09,9E+09,9E+09,9E+09]];
CONST robtarget Target_645:=[[215.9830636124492, 451.0289763018895, 3.0],[0,0.383,0.924,0],[0,0,0,0],[9E+09,9E+09,9E+09,9E+09,9E+09,9E+09]];
CONST robtarget Target_646:=[[216.9069431380036, 451.41165975104997, 3.0],[0,0.383,0.924,0],[0,0,0,0],[9E+09,9E+09,9E+09,9E+09,9E+09,9E+09]];
CONST robtarget Target_647:=[[217.830822663558, 451.79434320021045, 3.0],[0,0.383,0.924,0],[0,0,0,0],[9E+09,9E+09,9E+09,9E+09,9E+09,9E+09]];
CONST robtarget Target_648:=[[218.7547021891124, 452.1770266493709, 3.0],[0,0.383,0.924,0],[0,0,0,0],[9E+09,9E+09,9E+09,9E+09,9E+09,9E+09]];
CONST robtarget Target_649:=[[219.67858171466682, 452.55971009853135, 3.0],[0,0.383,0.924,0],[0,0,0,0],[9E+09,9E+09,9E+09,9E+09,9E+09,9E+09]];
CONST robtarget Target_650:=[[220.60246124022123, 452.94239354769184, 3.0],[0,0.383,0.924,0],[0,0,0,0],[9E+09,9E+09,9E+09,9E+09,9E+09,9E+09]];
CONST robtarget Target_651:=[[221.52634076577564, 453.3250769968523, 3.0],[0,0.383,0.924,0],[0,0,0,0],[9E+09,9E+09,9E+09,9E+09,9E+09,9E+09]];
CONST robtarget Target_652:=[[222.45022029133003, 453.7077604460128, 3.0],[0,0.383,0.924,0],[0,0,0,0],[9E+09,9E+09,9E+09,9E+09,9E+09,9E+09]];
CONST robtarget Target_653:=[[223.37409981688444, 454.0904438951733, 3.0],[0,0.383,0.924,0],[0,0,0,0],[9E+09,9E+09,9E+09,9E+09,9E+09,9E+09]];
CONST robtarget Target_654:=[[224.29797934243885, 454.47312734433376, 3.0],[0,0.383,0.924,0],[0,0,0,0],[9E+09,9E+09,9E+09,9E+09,9E+09,9E+09]];
CONST robtarget Target_655:=[[225.22185886799326, 454.85581079349424, 3.0],[0,0.383,0.924,0],[0,0,0,0],[9E+09,9E+09,9E+09,9E+09,9E+09,9E+09]];
CONST robtarget Target_656:=[[226.14573839354767, 455.2384942426547, 3.0],[0,0.383,0.924,0],[0,0,0,0],[9E+09,9E+09,9E+09,9E+09,9E+09,9E+09]];
CONST robtarget Target_657:=[[227.0696179191021, 455.6211776918152, 3.0],[0,0.383,0.924,0],[0,0,0,0],[9E+09,9E+09,9E+09,9E+09,9E+09,9E+09]];
CONST robtarget Target_658:=[[227.9934974446565, 456.0038611409757, 3.0],[0,0.383,0.924,0],[0,0,0,0],[9E+09,9E+09,9E+09,9E+09,9E+09,9E+09]];
CONST robtarget Target_659:=[[228.9173769702109, 456.38654459013617, 3.0],[0,0.383,0.924,0],[0,0,0,0],[9E+09,9E+09,9E+09,9E+09,9E+09,9E+09]];
CONST robtarget Target_660:=[[229.8412564957653, 456.76922803929665, 3.0],[0,0.383,0.924,0],[0,0,0,0],[9E+09,9E+09,9E+09,9E+09,9E+09,9E+09]];
CONST robtarget Target_661:=[[230.7651360213197, 457.15191148845713, 3.0],[0,0.383,0.924,0],[0,0,0,0],[9E+09,9E+09,9E+09,9E+09,9E+09,9E+09]];
CONST robtarget Target_662:=[[231.68901554687412, 457.5345949376176, 3.0],[0,0.383,0.924,0],[0,0,0,0],[9E+09,9E+09,9E+09,9E+09,9E+09,9E+09]];
CONST robtarget Target_663:=[[232.6662982535716, 457.71797500570494, 3.0],[0,0.383,0.924,0],[0,0,0,0],[9E+09,9E+09,9E+09,9E+09,9E+09,9E+09]];
CONST robtarget Target_664:=[[233.6577431159303, 457.8485011904441, 3.0],[0,0.383,0.924,0],[0,0,0,0],[9E+09,9E+09,9E+09,9E+09,9E+09,9E+09]];
CONST robtarget Target_665:=[[234.64918797828898, 457.97902737518325, 3.0],[0,0.383,0.924,0],[0,0,0,0],[9E+09,9E+09,9E+09,9E+09,9E+09,9E+09]];
CONST robtarget Target_666:=[[235.64063284064767, 458.10955355992246, 3.0],[0,0.383,0.924,0],[0,0,0,0],[9E+09,9E+09,9E+09,9E+09,9E+09,9E+09]];
CONST robtarget Target_667:=[[236.63207770300636, 458.2400797446616, 3.0],[0,0.383,0.924,0],[0,0,0,0],[9E+09,9E+09,9E+09,9E+09,9E+09,9E+09]];
CONST robtarget Target_668:=[[237.62352256536505, 458.37060592940077, 3.0],[0,0.383,0.924,0],[0,0,0,0],[9E+09,9E+09,9E+09,9E+09,9E+09,9E+09]];
CONST robtarget Target_669:=[[238.61496742772374, 458.50113211414, 3.0],[0,0.383,0.924,0],[0,0,0,0],[9E+09,9E+09,9E+09,9E+09,9E+09,9E+09]];
CONST robtarget Target_670:=[[239.60641229008243, 458.6316582988791, 3.0],[0,0.383,0.924,0],[0,0,0,0],[9E+09,9E+09,9E+09,9E+09,9E+09,9E+09]];
CONST robtarget Target_671:=[[240.59785715244112, 458.7621844836183, 3.0],[0,0.383,0.924,0],[0,0,0,0],[9E+09,9E+09,9E+09,9E+09,9E+09,9E+09]];
CONST robtarget Target_672:=[[241.58930201479978, 458.89271066835744, 3.0],[0,0.383,0.924,0],[0,0,0,0],[9E+09,9E+09,9E+09,9E+09,9E+09,9E+09]];
