CONST robtarget Target_1:=[[-50.0, 550.0, 93.0],[0,0.383,0.924,0],[0,0,0,0],[9E+09,9E+09,9E+09,9E+09,9E+09,9E+09]];
CONST robtarget Target_2:=[[-44.41334502177034, 547.904936457872, 91.10264547909182],[0,0.383,0.924,0],[0,0,0,0],[9E+09,9E+09,9E+09,9E+09,9E+09,9E+09]];
CONST robtarget Target_3:=[[-38.82669004354068, 545.8098729157441, 89.20529095818362],[0,0.383,0.924,0],[0,0,0,0],[9E+09,9E+09,9E+09,9E+09,9E+09,9E+09]];
CONST robtarget Target_4:=[[-33.24003506531096, 543.714809373616, 87.30793643727543],[0,0.383,0.924,0],[0,0,0,0],[9E+09,9E+09,9E+09,9E+09,9E+09,9E+09]];
CONST robtarget Target_5:=[[-27.65338008708136, 541.6197458314881, 85.41058191636724],[0,0.383,0.924,0],[0,0,0,0],[9E+09,9E+09,9E+09,9E+09,9E+09,9E+09]];
CONST robtarget Target_6:=[[-22.066725108851642, 539.52468228936, 83.51322739545905],[0,0.383,0.924,0],[0,0,0,0],[9E+09,9E+09,9E+09,9E+09,9E+09,9E+09]];
CONST robtarget Target_7:=[[-16.48007013062204, 537.4296187472321, 81.61587287455086],[0,0.383,0.924,0],[0,0,0,0],[9E+09,9E+09,9E+09,9E+09,9E+09,9E+09]];
CONST robtarget Target_8:=[[-10.893415152392322, 535.3345552051042, 79.71851835364266],[0,0.383,0.924,0],[0,0,0,0],[9E+09,9E+09,9E+09,9E+09,9E+09,9E+09]];
CONST robtarget Target_9:=[[-5.306760174162662, 533.2394916629762, 77.82116383273447],[0,0.383,0.924,0],[0,0,0,0],[9E+09,9E+09,9E+09,9E+09,9E+09,9E+09]];
CONST robtarget Target_10:=[[0.2798948040669984, 531.1444281208483, 75.92380931182629],[0,0.383,0.924,0],[0,0,0,0],[9E+09,9E+09,9E+09,9E+09,9E+09,9E+09]];
CONST robtarget Target_11:=[[5.866549782296659, 529.0493645787202, 74.02645479091811],[0,0.383,0.924,0],[0,0,0,0],[9E+09,9E+09,9E+09,9E+09,9E+09,9E+09]];
CONST robtarget Target_12:=[[11.453204760526347, 526.9543010365923, 72.1291002700099],[0,0.383,0.924,0],[0,0,0,0],[9E+09,9E+09,9E+09,9E+09,9E+09,9E+09]];
CONST robtarget Target_13:=[[17.039859738756007, 524.8592374944642, 70.23174574910172],[0,0.383,0.924,0],[0,0,0,0],[9E+09,9E+09,9E+09,9E+09,9E+09,9E+09]];
CONST robtarget Target_14:=[[22.626514716985668, 522.7641739523363, 68.33439122819352],[0,0.383,0.924,0],[0,0,0,0],[9E+09,9E+09,9E+09,9E+09,9E+09,9E+09]];
CONST robtarget Target_15:=[[28.2131696952153, 520.6691104102083, 66.43703670728534],[0,0.383,0.924,0],[0,0,0,0],[9E+09,9E+09,9E+09,9E+09,9E+09,9E+09]];
CONST robtarget Target_16:=[[33.79982467344496, 518.5740468680804, 64.53968218637715],[0,0.383,0.924,0],[0,0,0,0],[9E+09,9E+09,9E+09,9E+09,9E+09,9E+09]];
CONST robtarget Target_17:=[[39.38647965167465, 516.4789833259524, 62.642327665468954],[0,0.383,0.924,0],[0,0,0,0],[9E+09,9E+09,9E+09,9E+09,9E+09,9E+09]];
CONST robtarget Target_18:=[[44.97313462990431, 514.3839197838244, 60.74497314456077],[0,0.383,0.924,0],[0,0,0,0],[9E+09,9E+09,9E+09,9E+09,9E+09,9E+09]];
CONST robtarget Target_19:=[[50.55978960813397, 512.2888562416964, 58.84761862365258],[0,0.383,0.924,0],[0,0,0,0],[9E+09,9E+09,9E+09,9E+09,9E+09,9E+09]];
CONST robtarget Target_20:=[[56.14644458636363, 510.1937926995684, 56.95026410274439],[0,0.383,0.924,0],[0,0,0,0],[9E+09,9E+09,9E+09,9E+09,9E+09,9E+09]];
CONST robtarget Target_21:=[[61.73309956459332, 508.0987291574404, 55.05290958183619],[0,0.383,0.924,0],[0,0,0,0],[9E+09,9E+09,9E+09,9E+09,9E+09,9E+09]];
CONST robtarget Target_22:=[[67.31975454282298, 506.00366561531246, 53.15555506092801],[0,0.383,0.924,0],[0,0,0,0],[9E+09,9E+09,9E+09,9E+09,9E+09,9E+09]];
CONST robtarget Target_23:=[[72.90640952105264, 503.9086020731845, 51.258200540019814],[0,0.383,0.924,0],[0,0,0,0],[9E+09,9E+09,9E+09,9E+09,9E+09,9E+09]];
CONST robtarget Target_24:=[[78.4930644992823, 501.8135385310565, 49.360846019111634],[0,0.383,0.924,0],[0,0,0,0],[9E+09,9E+09,9E+09,9E+09,9E+09,9E+09]];
CONST robtarget Target_25:=[[84.07971947751199, 499.7184749889285, 47.46349149820344],[0,0.383,0.924,0],[0,0,0,0],[9E+09,9E+09,9E+09,9E+09,9E+09,9E+09]];
CONST robtarget Target_26:=[[89.66637445574165, 497.62341144680056, 45.56613697729525],[0,0.383,0.924,0],[0,0,0,0],[9E+09,9E+09,9E+09,9E+09,9E+09,9E+09]];
CONST robtarget Target_27:=[[95.2530294339713, 495.52834790467256, 43.66878245638706],[0,0.383,0.924,0],[0,0,0,0],[9E+09,9E+09,9E+09,9E+09,9E+09,9E+09]];
CONST robtarget Target_28:=[[100.83968441220097, 493.43328436254455, 41.771427935478876],[0,0.383,0.924,0],[0,0,0,0],[9E+09,9E+09,9E+09,9E+09,9E+09,9E+09]];
CONST robtarget Target_29:=[[106.42633939043066, 491.3382208204166, 39.87407341457068],[0,0.383,0.924,0],[0,0,0,0],[9E+09,9E+09,9E+09,9E+09,9E+09,9E+09]];
CONST robtarget Target_30:=[[112.01299436866032, 489.24315727828866, 37.97671889366249],[0,0.383,0.924,0],[0,0,0,0],[9E+09,9E+09,9E+09,9E+09,9E+09,9E+09]];
CONST robtarget Target_31:=[[117.59964934688998, 487.14809373616066, 36.0793643727543],[0,0.383,0.924,0],[0,0,0,0],[9E+09,9E+09,9E+09,9E+09,9E+09,9E+09]];
CONST robtarget Target_32:=[[123.18630432511964, 485.05303019403266, 34.18200985184611],[0,0.383,0.924,0],[0,0,0,0],[9E+09,9E+09,9E+09,9E+09,9E+09,9E+09]];
CONST robtarget Target_33:=[[128.7729593033493, 482.9579666519047, 32.28465533093792],[0,0.383,0.924,0],[0,0,0,0],[9E+09,9E+09,9E+09,9E+09,9E+09,9E+09]];
CONST robtarget Target_34:=[[134.35961428157896, 480.8629031097767, 30.387300810029732],[0,0.383,0.924,0],[0,0,0,0],[9E+09,9E+09,9E+09,9E+09,9E+09,9E+09]];
CONST robtarget Target_35:=[[139.94626925980864, 478.7678395676487, 28.48994628912154],[0,0.383,0.924,0],[0,0,0,0],[9E+09,9E+09,9E+09,9E+09,9E+09,9E+09]];
CONST robtarget Target_36:=[[145.5329242380383, 476.67277602552076, 26.592591768213353],[0,0.383,0.924,0],[0,0,0,0],[9E+09,9E+09,9E+09,9E+09,9E+09,9E+09]];
CONST robtarget Target_37:=[[151.11957921626797, 474.5777124833928, 24.695237247305162],[0,0.383,0.924,0],[0,0,0,0],[9E+09,9E+09,9E+09,9E+09,9E+09,9E+09]];
CONST robtarget Target_38:=[[156.70623419449763, 472.4826489412648, 22.79788272639697],[0,0.383,0.924,0],[0,0,0,0],[9E+09,9E+09,9E+09,9E+09,9E+09,9E+09]];
CONST robtarget Target_39:=[[162.2928891727273, 470.3875853991368, 20.90052820548878],[0,0.383,0.924,0],[0,0,0,0],[9E+09,9E+09,9E+09,9E+09,9E+09,9E+09]];
CONST robtarget Target_40:=[[167.87954415095697, 468.29252185700886, 19.003173684580588],[0,0.383,0.924,0],[0,0,0,0],[9E+09,9E+09,9E+09,9E+09,9E+09,9E+09]];
CONST robtarget Target_41:=[[173.46619912918663, 466.19745831488086, 17.1058191636724],[0,0.383,0.924,0],[0,0,0,0],[9E+09,9E+09,9E+09,9E+09,9E+09,9E+09]];
CONST robtarget Target_42:=[[179.0528541074163, 464.10239477275286, 15.20846464276421],[0,0.383,0.924,0],[0,0,0,0],[9E+09,9E+09,9E+09,9E+09,9E+09,9E+09]];
CONST robtarget Target_43:=[[184.63950908564595, 462.0073312306249, 13.311110121856021],[0,0.383,0.924,0],[0,0,0,0],[9E+09,9E+09,9E+09,9E+09,9E+09,9E+09]];
CONST robtarget Target_44:=[[190.22616406387561, 459.91226768849697, 11.41375560094783],[0,0.383,0.924,0],[0,0,0,0],[9E+09,9E+09,9E+09,9E+09,9E+09,9E+09]];
CONST robtarget Target_45:=[[195.81281904210528, 457.8172041463689, 9.51640108003964],[0,0.383,0.924,0],[0,0,0,0],[9E+09,9E+09,9E+09,9E+09,9E+09,9E+09]];
CONST robtarget Target_46:=[[201.39947402033496, 455.72214060424096, 7.6190465591314505],[0,0.383,0.924,0],[0,0,0,0],[9E+09,9E+09,9E+09,9E+09,9E+09,9E+09]];
CONST robtarget Target_47:=[[206.98612899856462, 453.627077062113, 5.721692038223261],[0,0.383,0.924,0],[0,0,0,0],[9E+09,9E+09,9E+09,9E+09,9E+09,9E+09]];
CONST robtarget Target_48:=[[212.57278397679428, 451.532013519985, 3.8243375173150707],[0,0.383,0.924,0],[0,0,0,0],[9E+09,9E+09,9E+09,9E+09,9E+09,9E+09]];
CONST robtarget Target_49:=[[214.1026646438427, 449.9332284150201, 3.0],[0,0.383,0.924,0],[0,0,0,0],[9E+09,9E+09,9E+09,9E+09,9E+09,9E+09]];
CONST robtarget Target_50:=[[212.515957919649, 448.71570561383794, 3.0],[0,0.383,0.924,0],[0,0,0,0],[9E+09,9E+09,9E+09,9E+09,9E+09,9E+09]];
CONST robtarget Target_51:=[[210.92925119545527, 447.4981828126558, 3.0],[0,0.383,0.924,0],[0,0,0,0],[9E+09,9E+09,9E+09,9E+09,9E+09,9E+09]];
CONST robtarget Target_52:=[[209.34254447126153, 446.2806600114736, 3.0],[0,0.383,0.924,0],[0,0,0,0],[9E+09,9E+09,9E+09,9E+09,9E+09,9E+09]];
CONST robtarget Target_53:=[[207.75583774706783, 445.0631372102914, 3.0],[0,0.383,0.924,0],[0,0,0,0],[9E+09,9E+09,9E+09,9E+09,9E+09,9E+09]];
CONST robtarget Target_54:=[[206.16913102287413, 443.8456144091093, 3.0],[0,0.383,0.924,0],[0,0,0,0],[9E+09,9E+09,9E+09,9E+09,9E+09,9E+09]];
CONST robtarget Target_55:=[[204.5824242986804, 442.6280916079271, 3.0],[0,0.383,0.924,0],[0,0,0,0],[9E+09,9E+09,9E+09,9E+09,9E+09,9E+09]];
CONST robtarget Target_56:=[[202.9957175744867, 441.410568806745, 3.0],[0,0.383,0.924,0],[0,0,0,0],[9E+09,9E+09,9E+09,9E+09,9E+09,9E+09]];
CONST robtarget Target_57:=[[201.409010850293, 440.1930460055628, 3.0],[0,0.383,0.924,0],[0,0,0,0],[9E+09,9E+09,9E+09,9E+09,9E+09,9E+09]];
CONST robtarget Target_58:=[[199.98057320438065, 438.8172541260993, 3.0],[0,0.383,0.924,0],[0,0,0,0],[9E+09,9E+09,9E+09,9E+09,9E+09,9E+09]];
CONST robtarget Target_59:=[[198.7630504031985, 437.23054740190554, 3.0],[0,0.383,0.924,0],[0,0,0,0],[9E+09,9E+09,9E+09,9E+09,9E+09,9E+09]];
CONST robtarget Target_60:=[[197.54552760201634, 435.64384067771186, 3.0],[0,0.383,0.924,0],[0,0,0,0],[9E+09,9E+09,9E+09,9E+09,9E+09,9E+09]];
CONST robtarget Target_61:=[[196.32800480083418, 434.05713395351813, 3.0],[0,0.383,0.924,0],[0,0,0,0],[9E+09,9E+09,9E+09,9E+09,9E+09,9E+09]];
CONST robtarget Target_62:=[[195.11048199965202, 432.4704272293244, 3.0],[0,0.383,0.924,0],[0,0,0,0],[9E+09,9E+09,9E+09,9E+09,9E+09,9E+09]];
CONST robtarget Target_63:=[[193.89295919846987, 430.88372050513067, 3.0],[0,0.383,0.924,0],[0,0,0,0],[9E+09,9E+09,9E+09,9E+09,9E+09,9E+09]];
CONST robtarget Target_64:=[[192.6754363972877, 429.29701378093694, 3.0],[0,0.383,0.924,0],[0,0,0,0],[9E+09,9E+09,9E+09,9E+09,9E+09,9E+09]];
CONST robtarget Target_65:=[[191.45791359610553, 427.71030705674326, 3.0],[0,0.383,0.924,0],[0,0,0,0],[9E+09,9E+09,9E+09,9E+09,9E+09,9E+09]];
CONST robtarget Target_66:=[[190.24039079492337, 426.1236003325496, 3.0],[0,0.383,0.924,0],[0,0,0,0],[9E+09,9E+09,9E+09,9E+09,9E+09,9E+09]];
CONST robtarget Target_67:=[[189.15483711282405, 424.46070120348065, 3.0],[0,0.383,0.924,0],[0,0,0,0],[9E+09,9E+09,9E+09,9E+09,9E+09,9E+09]];
CONST robtarget Target_68:=[[188.38947021450312, 422.61294215237183, 3.0],[0,0.383,0.924,0],[0,0,0,0],[9E+09,9E+09,9E+09,9E+09,9E+09,9E+09]];
CONST robtarget Target_69:=[[187.62410331618216, 420.765183101263, 3.0],[0,0.383,0.924,0],[0,0,0,0],[9E+09,9E+09,9E+09,9E+09,9E+09,9E+09]];
CONST robtarget Target_70:=[[186.85873641786122, 418.9174240501542, 3.0],[0,0.383,0.924,0],[0,0,0,0],[9E+09,9E+09,9E+09,9E+09,9E+09,9E+09]];
CONST robtarget Target_71:=[[186.09336951954026, 417.06966499904536, 3.0],[0,0.383,0.924,0],[0,0,0,0],[9E+09,9E+09,9E+09,9E+09,9E+09,9E+09]];
CONST robtarget Target_72:=[[185.3280026212193, 415.22190594793653, 3.0],[0,0.383,0.924,0],[0,0,0,0],[9E+09,9E+09,9E+09,9E+09,9E+09,9E+09]];
CONST robtarget Target_73:=[[184.56263572289834, 413.3741468968277, 3.0],[0,0.383,0.924,0],[0,0,0,0],[9E+09,9E+09,9E+09,9E+09,9E+09,9E+09]];
CONST robtarget Target_74:=[[183.7972688245774, 411.5263878457189, 3.0],[0,0.383,0.924,0],[0,0,0,0],[9E+09,9E+09,9E+09,9E+09,9E+09,9E+09]];
CONST robtarget Target_75:=[[183.03190192625644, 409.67862879461006, 3.0],[0,0.383,0.924,0],[0,0,0,0],[9E+09,9E+09,9E+09,9E+09,9E+09,9E+09]];
CONST robtarget Target_76:=[[182.3447203206257, 407.8099200570194, 3.0],[0,0.383,0.924,0],[0,0,0,0],[9E+09,9E+09,9E+09,9E+09,9E+09,9E+09]];
CONST robtarget Target_77:=[[182.08366795114733, 405.827030332302, 3.0],[0,0.383,0.924,0],[0,0,0,0],[9E+09,9E+09,9E+09,9E+09,9E+09,9E+09]];
CONST robtarget Target_78:=[[181.822615581669, 403.8441406075846, 3.0],[0,0.383,0.924,0],[0,0,0,0],[9E+09,9E+09,9E+09,9E+09,9E+09,9E+09]];
CONST robtarget Target_79:=[[181.56156321219066, 401.86125088286724, 3.0],[0,0.383,0.924,0],[0,0,0,0],[9E+09,9E+09,9E+09,9E+09,9E+09,9E+09]];
CONST robtarget Target_80:=[[181.30051084271233, 399.8783611581499, 3.0],[0,0.383,0.924,0],[0,0,0,0],[9E+09,9E+09,9E+09,9E+09,9E+09,9E+09]];
CONST robtarget Target_81:=[[181.039458473234, 397.8954714334325, 3.0],[0,0.383,0.924,0],[0,0,0,0],[9E+09,9E+09,9E+09,9E+09,9E+09,9E+09]];
CONST robtarget Target_82:=[[180.77840610375566, 395.91258170871515, 3.0],[0,0.383,0.924,0],[0,0,0,0],[9E+09,9E+09,9E+09,9E+09,9E+09,9E+09]];
CONST robtarget Target_83:=[[180.51735373427732, 393.9296919839977, 3.0],[0,0.383,0.924,0],[0,0,0,0],[9E+09,9E+09,9E+09,9E+09,9E+09,9E+09]];
CONST robtarget Target_84:=[[180.25630136479896, 391.9468022592804, 3.0],[0,0.383,0.924,0],[0,0,0,0],[9E+09,9E+09,9E+09,9E+09,9E+09,9E+09]];
CONST robtarget Target_85:=[[179.99524899532065, 389.963912534563, 3.0],[0,0.383,0.924,0],[0,0,0,0],[9E+09,9E+09,9E+09,9E+09,9E+09,9E+09]];
CONST robtarget Target_86:=[[179.7341966258423, 387.9810228098456, 3.0],[0,0.383,0.924,0],[0,0,0,0],[9E+09,9E+09,9E+09,9E+09,9E+09,9E+09]];
CONST robtarget Target_87:=[[179.47314425636398, 385.99813308512825, 3.0],[0,0.383,0.924,0],[0,0,0,0],[9E+09,9E+09,9E+09,9E+09,9E+09,9E+09]];
CONST robtarget Target_88:=[[179.21209188688562, 384.01524336041086, 3.0],[0,0.383,0.924,0],[0,0,0,0],[9E+09,9E+09,9E+09,9E+09,9E+09,9E+09]];
CONST robtarget Target_89:=[[178.95103951740728, 382.03235363569354, 3.0],[0,0.383,0.924,0],[0,0,0,0],[9E+09,9E+09,9E+09,9E+09,9E+09,9E+09]];
CONST robtarget Target_90:=[[178.68998714792895, 380.0494639109761, 3.0],[0,0.383,0.924,0],[0,0,0,0],[9E+09,9E+09,9E+09,9E+09,9E+09,9E+09]];
CONST robtarget Target_91:=[[178.4289347784506, 378.0665741862588, 3.0],[0,0.383,0.924,0],[0,0,0,0],[9E+09,9E+09,9E+09,9E+09,9E+09,9E+09]];
CONST robtarget Target_92:=[[178.16788240897228, 376.0836844615414, 3.0],[0,0.383,0.924,0],[0,0,0,0],[9E+09,9E+09,9E+09,9E+09,9E+09,9E+09]];
CONST robtarget Target_93:=[[177.9068300394939, 374.100794736824, 3.0],[0,0.383,0.924,0],[0,0,0,0],[9E+09,9E+09,9E+09,9E+09,9E+09,9E+09]];
CONST robtarget Target_94:=[[177.6457776700156, 372.11790501210663, 3.0],[0,0.383,0.924,0],[0,0,0,0],[9E+09,9E+09,9E+09,9E+09,9E+09,9E+09]];
CONST robtarget Target_95:=[[176.94023958908303, 370.2541148773536, 3.0],[0,0.383,0.924,0],[0,0,0,0],[9E+09,9E+09,9E+09,9E+09,9E+09,9E+09]];
CONST robtarget Target_96:=[[176.17487269076207, 368.40635582624475, 3.0],[0,0.383,0.924,0],[0,0,0,0],[9E+09,9E+09,9E+09,9E+09,9E+09,9E+09]];
CONST robtarget Target_97:=[[175.4095057924411, 366.5585967751359, 3.0],[0,0.383,0.924,0],[0,0,0,0],[9E+09,9E+09,9E+09,9E+09,9E+09,9E+09]];
CONST robtarget Target_98:=[[174.64413889412018, 364.7108377240271, 3.0],[0,0.383,0.924,0],[0,0,0,0],[9E+09,9E+09,9E+09,9E+09,9E+09,9E+09]];
CONST robtarget Target_99:=[[173.8787719957992, 362.8630786729183, 3.0],[0,0.383,0.924,0],[0,0,0,0],[9E+09,9E+09,9E+09,9E+09,9E+09,9E+09]];
CONST robtarget Target_100:=[[173.11340509747828, 361.01531962180945, 3.0],[0,0.383,0.924,0],[0,0,0,0],[9E+09,9E+09,9E+09,9E+09,9E+09,9E+09]];
CONST robtarget Target_101:=[[172.34803819915732, 359.16756057070063, 3.0],[0,0.383,0.924,0],[0,0,0,0],[9E+09,9E+09,9E+09,9E+09,9E+09,9E+09]];
CONST robtarget Target_102:=[[171.58267130083635, 357.3198015195918, 3.0],[0,0.383,0.924,0],[0,0,0,0],[9E+09,9E+09,9E+09,9E+09,9E+09,9E+09]];
CONST robtarget Target_103:=[[170.8173044025154, 355.472042468483, 3.0],[0,0.383,0.924,0],[0,0,0,0],[9E+09,9E+09,9E+09,9E+09,9E+09,9E+09]];
CONST robtarget Target_104:=[[169.71529275978094, 353.81864534722354, 3.0],[0,0.383,0.924,0],[0,0,0,0],[9E+09,9E+09,9E+09,9E+09,9E+09,9E+09]];
CONST robtarget Target_105:=[[168.49776995859878, 352.2319386230298, 3.0],[0,0.383,0.924,0],[0,0,0,0],[9E+09,9E+09,9E+09,9E+09,9E+09,9E+09]];
CONST robtarget Target_106:=[[167.28024715741662, 350.64523189883613, 3.0],[0,0.383,0.924,0],[0,0,0,0],[9E+09,9E+09,9E+09,9E+09,9E+09,9E+09]];
CONST robtarget Target_107:=[[166.06272435623447, 349.0585251746424, 3.0],[0,0.383,0.924,0],[0,0,0,0],[9E+09,9E+09,9E+09,9E+09,9E+09,9E+09]];
CONST robtarget Target_108:=[[164.84520155505228, 347.4718184504487, 3.0],[0,0.383,0.924,0],[0,0,0,0],[9E+09,9E+09,9E+09,9E+09,9E+09,9E+09]];
CONST robtarget Target_109:=[[163.62767875387013, 345.885111726255, 3.0],[0,0.383,0.924,0],[0,0,0,0],[9E+09,9E+09,9E+09,9E+09,9E+09,9E+09]];
CONST robtarget Target_110:=[[162.41015595268797, 344.29840500206126, 3.0],[0,0.383,0.924,0],[0,0,0,0],[9E+09,9E+09,9E+09,9E+09,9E+09,9E+09]];
CONST robtarget Target_111:=[[161.19263315150582, 342.7116982778675, 3.0],[0,0.383,0.924,0],[0,0,0,0],[9E+09,9E+09,9E+09,9E+09,9E+09,9E+09]];
CONST robtarget Target_112:=[[159.97511035032366, 341.12499155367385, 3.0],[0,0.383,0.924,0],[0,0,0,0],[9E+09,9E+09,9E+09,9E+09,9E+09,9E+09]];
CONST robtarget Target_113:=[[158.53323482948014, 339.7626375491415, 3.0],[0,0.383,0.924,0],[0,0,0,0],[9E+09,9E+09,9E+09,9E+09,9E+09,9E+09]];
CONST robtarget Target_114:=[[156.9465281052864, 338.54511474795936, 3.0],[0,0.383,0.924,0],[0,0,0,0],[9E+09,9E+09,9E+09,9E+09,9E+09,9E+09]];
CONST robtarget Target_115:=[[155.35982138109267, 337.3275919467772, 3.0],[0,0.383,0.924,0],[0,0,0,0],[9E+09,9E+09,9E+09,9E+09,9E+09,9E+09]];
CONST robtarget Target_116:=[[153.77311465689897, 336.11006914559505, 3.0],[0,0.383,0.924,0],[0,0,0,0],[9E+09,9E+09,9E+09,9E+09,9E+09,9E+09]];
CONST robtarget Target_117:=[[152.18640793270527, 334.89254634441284, 3.0],[0,0.383,0.924,0],[0,0,0,0],[9E+09,9E+09,9E+09,9E+09,9E+09,9E+09]];
CONST robtarget Target_118:=[[150.59970120851153, 333.6750235432307, 3.0],[0,0.383,0.924,0],[0,0,0,0],[9E+09,9E+09,9E+09,9E+09,9E+09,9E+09]];
CONST robtarget Target_119:=[[149.0129944843178, 332.4575007420485, 3.0],[0,0.383,0.924,0],[0,0,0,0],[9E+09,9E+09,9E+09,9E+09,9E+09,9E+09]];
CONST robtarget Target_120:=[[147.4262877601241, 331.23997794086637, 3.0],[0,0.383,0.924,0],[0,0,0,0],[9E+09,9E+09,9E+09,9E+09,9E+09,9E+09]];
CONST robtarget Target_121:=[[145.8395810359304, 330.0224551396842, 3.0],[0,0.383,0.924,0],[0,0,0,0],[9E+09,9E+09,9E+09,9E+09,9E+09,9E+09]];
CONST robtarget Target_122:=[[144.1299537389268, 329.017837020241, 3.0],[0,0.383,0.924,0],[0,0,0,0],[9E+09,9E+09,9E+09,9E+09,9E+09,9E+09]];
CONST robtarget Target_123:=[[142.28219468781796, 328.25247012192006, 3.0],[0,0.383,0.924,0],[0,0,0,0],[9E+09,9E+09,9E+09,9E+09,9E+09,9E+09]];
CONST robtarget Target_124:=[[140.43443563670914, 327.4871032235991, 3.0],[0,0.383,0.924,0],[0,0,0,0],[9E+09,9E+09,9E+09,9E+09,9E+09,9E+09]];
CONST robtarget Target_125:=[[138.58667658560034, 326.72173632527813, 3.0],[0,0.383,0.924,0],[0,0,0,0],[9E+09,9E+09,9E+09,9E+09,9E+09,9E+09]];
CONST robtarget Target_126:=[[136.73891753449152, 325.95636942695717, 3.0],[0,0.383,0.924,0],[0,0,0,0],[9E+09,9E+09,9E+09,9E+09,9E+09,9E+09]];
CONST robtarget Target_127:=[[134.8911584833827, 325.19100252863626, 3.0],[0,0.383,0.924,0],[0,0,0,0],[9E+09,9E+09,9E+09,9E+09,9E+09,9E+09]];
CONST robtarget Target_128:=[[133.04339943227387, 324.4256356303153, 3.0],[0,0.383,0.924,0],[0,0,0,0],[9E+09,9E+09,9E+09,9E+09,9E+09,9E+09]];
CONST robtarget Target_129:=[[131.19564038116508, 323.66026873199434, 3.0],[0,0.383,0.924,0],[0,0,0,0],[9E+09,9E+09,9E+09,9E+09,9E+09,9E+09]];
CONST robtarget Target_130:=[[129.34788133005625, 322.8949018336734, 3.0],[0,0.383,0.924,0],[0,0,0,0],[9E+09,9E+09,9E+09,9E+09,9E+09,9E+09]];
CONST robtarget Target_131:=[[127.45498430468386, 322.2979921450722, 3.0],[0,0.383,0.924,0],[0,0,0,0],[9E+09,9E+09,9E+09,9E+09,9E+09,9E+09]];
CONST robtarget Target_132:=[[125.4720945799665, 322.03693977559385, 3.0],[0,0.383,0.924,0],[0,0,0,0],[9E+09,9E+09,9E+09,9E+09,9E+09,9E+09]];
CONST robtarget Target_133:=[[123.48920485524911, 321.77588740611554, 3.0],[0,0.383,0.924,0],[0,0,0,0],[9E+09,9E+09,9E+09,9E+09,9E+09,9E+09]];
CONST robtarget Target_134:=[[121.50631513053173, 321.5148350366372, 3.0],[0,0.383,0.924,0],[0,0,0,0],[9E+09,9E+09,9E+09,9E+09,9E+09,9E+09]];
CONST robtarget Target_135:=[[119.52342540581435, 321.2537826671589, 3.0],[0,0.383,0.924,0],[0,0,0,0],[9E+09,9E+09,9E+09,9E+09,9E+09,9E+09]];
CONST robtarget Target_136:=[[117.540535681097, 320.9927302976805, 3.0],[0,0.383,0.924,0],[0,0,0,0],[9E+09,9E+09,9E+09,9E+09,9E+09,9E+09]];
CONST robtarget Target_137:=[[115.55764595637962, 320.7316779282022, 3.0],[0,0.383,0.924,0],[0,0,0,0],[9E+09,9E+09,9E+09,9E+09,9E+09,9E+09]];
CONST robtarget Target_138:=[[113.57475623166223, 320.47062555872384, 3.0],[0,0.383,0.924,0],[0,0,0,0],[9E+09,9E+09,9E+09,9E+09,9E+09,9E+09]];
CONST robtarget Target_139:=[[111.59186650694485, 320.2095731892455, 3.0],[0,0.383,0.924,0],[0,0,0,0],[9E+09,9E+09,9E+09,9E+09,9E+09,9E+09]];
CONST robtarget Target_140:=[[109.6089767822275, 319.94852081976717, 3.0],[0,0.383,0.924,0],[0,0,0,0],[9E+09,9E+09,9E+09,9E+09,9E+09,9E+09]];
CONST robtarget Target_141:=[[107.62608705751012, 319.68746845028886, 3.0],[0,0.383,0.924,0],[0,0,0,0],[9E+09,9E+09,9E+09,9E+09,9E+09,9E+09]];
CONST robtarget Target_142:=[[105.64319733279274, 319.4264160808105, 3.0],[0,0.383,0.924,0],[0,0,0,0],[9E+09,9E+09,9E+09,9E+09,9E+09,9E+09]];
CONST robtarget Target_143:=[[103.66030760807536, 319.16536371133213, 3.0],[0,0.383,0.924,0],[0,0,0,0],[9E+09,9E+09,9E+09,9E+09,9E+09,9E+09]];
CONST robtarget Target_144:=[[101.67741788335798, 318.9043113418538, 3.0],[0,0.383,0.924,0],[0,0,0,0],[9E+09,9E+09,9E+09,9E+09,9E+09,9E+09]];
CONST robtarget Target_145:=[[99.69452815864062, 318.64325897237546, 3.0],[0,0.383,0.924,0],[0,0,0,0],[9E+09,9E+09,9E+09,9E+09,9E+09,9E+09]];
CONST robtarget Target_146:=[[97.71163843392324, 318.38220660289716, 3.0],[0,0.383,0.924,0],[0,0,0,0],[9E+09,9E+09,9E+09,9E+09,9E+09,9E+09]];
CONST robtarget Target_147:=[[95.72874870920586, 318.1211542334188, 3.0],[0,0.383,0.924,0],[0,0,0,0],[9E+09,9E+09,9E+09,9E+09,9E+09,9E+09]];
CONST robtarget Target_148:=[[93.74585898448848, 317.8601018639405, 3.0],[0,0.383,0.924,0],[0,0,0,0],[9E+09,9E+09,9E+09,9E+09,9E+09,9E+09]];
CONST robtarget Target_149:=[[91.77112646390856, 317.5686063948209, 3.0],[0,0.383,0.924,0],[0,0,0,0],[9E+09,9E+09,9E+09,9E+09,9E+09,9E+09]];
CONST robtarget Target_150:=[[89.92336741279973, 316.8032394965, 3.0],[0,0.383,0.924,0],[0,0,0,0],[9E+09,9E+09,9E+09,9E+09,9E+09,9E+09]];
CONST robtarget Target_151:=[[88.07560836169091, 316.03787259817904, 3.0],[0,0.383,0.924,0],[0,0,0,0],[9E+09,9E+09,9E+09,9E+09,9E+09,9E+09]];
CONST robtarget Target_152:=[[86.22784931058209, 315.2725056998581, 3.0],[0,0.383,0.924,0],[0,0,0,0],[9E+09,9E+09,9E+09,9E+09,9E+09,9E+09]];
CONST robtarget Target_153:=[[84.38009025947326, 314.5071388015371, 3.0],[0,0.383,0.924,0],[0,0,0,0],[9E+09,9E+09,9E+09,9E+09,9E+09,9E+09]];
CONST robtarget Target_154:=[[82.53233120836444, 313.74177190321615, 3.0],[0,0.383,0.924,0],[0,0,0,0],[9E+09,9E+09,9E+09,9E+09,9E+09,9E+09]];
CONST robtarget Target_155:=[[80.68457215725564, 312.97640500489524, 3.0],[0,0.383,0.924,0],[0,0,0,0],[9E+09,9E+09,9E+09,9E+09,9E+09,9E+09]];
CONST robtarget Target_156:=[[78.83681310614682, 312.2110381065743, 3.0],[0,0.383,0.924,0],[0,0,0,0],[9E+09,9E+09,9E+09,9E+09,9E+09,9E+09]];
CONST robtarget Target_157:=[[76.989054055038, 311.4456712082533, 3.0],[0,0.383,0.924,0],[0,0,0,0],[9E+09,9E+09,9E+09,9E+09,9E+09,9E+09]];
CONST robtarget Target_158:=[[75.14129500392917, 310.68030430993235, 3.0],[0,0.383,0.924,0],[0,0,0,0],[9E+09,9E+09,9E+09,9E+09,9E+09,9E+09]];
CONST robtarget Target_159:=[[73.5346260506044, 309.4973571045418, 3.0],[0,0.383,0.924,0],[0,0,0,0],[9E+09,9E+09,9E+09,9E+09,9E+09,9E+09]];
CONST robtarget Target_160:=[[71.9479193264107, 308.2798343033596, 3.0],[0,0.383,0.924,0],[0,0,0,0],[9E+09,9E+09,9E+09,9E+09,9E+09,9E+09]];
CONST robtarget Target_161:=[[70.361212602217, 307.06231150217747, 3.0],[0,0.383,0.924,0],[0,0,0,0],[9E+09,9E+09,9E+09,9E+09,9E+09,9E+09]];
CONST robtarget Target_162:=[[68.77450587802326, 305.8447887009953, 3.0],[0,0.383,0.924,0],[0,0,0,0],[9E+09,9E+09,9E+09,9E+09,9E+09,9E+09]];
CONST robtarget Target_163:=[[67.18779915382956, 304.62726589981315, 3.0],[0,0.383,0.924,0],[0,0,0,0],[9E+09,9E+09,9E+09,9E+09,9E+09,9E+09]];
CONST robtarget Target_164:=[[65.60109242963586, 303.409743098631, 3.0],[0,0.383,0.924,0],[0,0,0,0],[9E+09,9E+09,9E+09,9E+09,9E+09,9E+09]];
CONST robtarget Target_165:=[[64.01438570544212, 302.19222029744884, 3.0],[0,0.383,0.924,0],[0,0,0,0],[9E+09,9E+09,9E+09,9E+09,9E+09,9E+09]];
CONST robtarget Target_166:=[[62.42767898124842, 300.9746974962667, 3.0],[0,0.383,0.924,0],[0,0,0,0],[9E+09,9E+09,9E+09,9E+09,9E+09,9E+09]];
CONST robtarget Target_167:=[[60.840972257054716, 299.75717469508453, 3.0],[0,0.383,0.924,0],[0,0,0,0],[9E+09,9E+09,9E+09,9E+09,9E+09,9E+09]];
CONST robtarget Target_168:=[[59.54470189390236, 298.249215532861, 3.0],[0,0.383,0.924,0],[0,0,0,0],[9E+09,9E+09,9E+09,9E+09,9E+09,9E+09]];
CONST robtarget Target_169:=[[58.3271790927202, 296.66250880866727, 3.0],[0,0.383,0.924,0],[0,0,0,0],[9E+09,9E+09,9E+09,9E+09,9E+09,9E+09]];
CONST robtarget Target_170:=[[57.109656291538045, 295.0758020844736, 3.0],[0,0.383,0.924,0],[0,0,0,0],[9E+09,9E+09,9E+09,9E+09,9E+09,9E+09]];
CONST robtarget Target_171:=[[55.89213349035589, 293.48909536027986, 3.0],[0,0.383,0.924,0],[0,0,0,0],[9E+09,9E+09,9E+09,9E+09,9E+09,9E+09]];
CONST robtarget Target_172:=[[54.674610689173704, 291.90238863608613, 3.0],[0,0.383,0.924,0],[0,0,0,0],[9E+09,9E+09,9E+09,9E+09,9E+09,9E+09]];
CONST robtarget Target_173:=[[53.45708788799155, 290.3156819118924, 3.0],[0,0.383,0.924,0],[0,0,0,0],[9E+09,9E+09,9E+09,9E+09,9E+09,9E+09]];
CONST robtarget Target_174:=[[52.23956508680939, 288.72897518769867, 3.0],[0,0.383,0.924,0],[0,0,0,0],[9E+09,9E+09,9E+09,9E+09,9E+09,9E+09]];
CONST robtarget Target_175:=[[51.022042285627236, 287.142268463505, 3.0],[0,0.383,0.924,0],[0,0,0,0],[9E+09,9E+09,9E+09,9E+09,9E+09,9E+09]];
CONST robtarget Target_176:=[[49.80451948444508, 285.55556173931126, 3.0],[0,0.383,0.924,0],[0,0,0,0],[9E+09,9E+09,9E+09,9E+09,9E+09,9E+09]];
CONST robtarget Target_177:=[[48.88083692765795, 283.799206274373, 3.0],[0,0.383,0.924,0],[0,0,0,0],[9E+09,9E+09,9E+09,9E+09,9E+09,9E+09]];
CONST robtarget Target_178:=[[48.11547002933699, 281.95144722326415, 3.0],[0,0.383,0.924,0],[0,0,0,0],[9E+09,9E+09,9E+09,9E+09,9E+09,9E+09]];
CONST robtarget Target_179:=[[47.350103131016056, 280.10368817215533, 3.0],[0,0.383,0.924,0],[0,0,0,0],[9E+09,9E+09,9E+09,9E+09,9E+09,9E+09]];
CONST robtarget Target_180:=[[46.58473623269509, 278.2559291210465, 3.0],[0,0.383,0.924,0],[0,0,0,0],[9E+09,9E+09,9E+09,9E+09,9E+09,9E+09]];
CONST robtarget Target_181:=[[45.81936933437416, 276.40817006993774, 3.0],[0,0.383,0.924,0],[0,0,0,0],[9E+09,9E+09,9E+09,9E+09,9E+09,9E+09]];
CONST robtarget Target_182:=[[45.054002436053196, 274.5604110188289, 3.0],[0,0.383,0.924,0],[0,0,0,0],[9E+09,9E+09,9E+09,9E+09,9E+09,9E+09]];
CONST robtarget Target_183:=[[44.28863553773223, 272.7126519677201, 3.0],[0,0.383,0.924,0],[0,0,0,0],[9E+09,9E+09,9E+09,9E+09,9E+09,9E+09]];
CONST robtarget Target_184:=[[43.5232686394113, 270.86489291661127, 3.0],[0,0.383,0.924,0],[0,0,0,0],[9E+09,9E+09,9E+09,9E+09,9E+09,9E+09]];
CONST robtarget Target_185:=[[42.757901741090336, 269.01713386550244, 3.0],[0,0.383,0.924,0],[0,0,0,0],[9E+09,9E+09,9E+09,9E+09,9E+09,9E+09]];
CONST robtarget Target_186:=[[42.25126396951873, 267.10004855234837, 3.0],[0,0.383,0.924,0],[0,0,0,0],[9E+09,9E+09,9E+09,9E+09,9E+09,9E+09]];
CONST robtarget Target_187:=[[41.990211600040396, 265.117158827631, 3.0],[0,0.383,0.924,0],[0,0,0,0],[9E+09,9E+09,9E+09,9E+09,9E+09,9E+09]];
CONST robtarget Target_188:=[[41.72915923056206, 263.1342691029136, 3.0],[0,0.383,0.924,0],[0,0,0,0],[9E+09,9E+09,9E+09,9E+09,9E+09,9E+09]];
CONST robtarget Target_189:=[[41.468106861083726, 261.1513793781962, 3.0],[0,0.383,0.924,0],[0,0,0,0],[9E+09,9E+09,9E+09,9E+09,9E+09,9E+09]];
CONST robtarget Target_190:=[[41.20705449160539, 259.16848965347884, 3.0],[0,0.383,0.924,0],[0,0,0,0],[9E+09,9E+09,9E+09,9E+09,9E+09,9E+09]];
CONST robtarget Target_191:=[[40.946002122127055, 257.18559992876146, 3.0],[0,0.383,0.924,0],[0,0,0,0],[9E+09,9E+09,9E+09,9E+09,9E+09,9E+09]];
CONST robtarget Target_192:=[[40.68494975264872, 255.2027102040441, 3.0],[0,0.383,0.924,0],[0,0,0,0],[9E+09,9E+09,9E+09,9E+09,9E+09,9E+09]];
CONST robtarget Target_193:=[[40.423897383170385, 253.21982047932673, 3.0],[0,0.383,0.924,0],[0,0,0,0],[9E+09,9E+09,9E+09,9E+09,9E+09,9E+09]];
CONST robtarget Target_194:=[[40.16284501369205, 251.23693075460935, 3.0],[0,0.383,0.924,0],[0,0,0,0],[9E+09,9E+09,9E+09,9E+09,9E+09,9E+09]];
CONST robtarget Target_195:=[[40.098207355786315, 249.25404102989197, 3.0],[0,0.383,0.924,0],[0,0,0,0],[9E+09,9E+09,9E+09,9E+09,9E+09,9E+09]];
CONST robtarget Target_196:=[[40.35925972526465, 247.2711513051746, 3.0],[0,0.383,0.924,0],[0,0,0,0],[9E+09,9E+09,9E+09,9E+09,9E+09,9E+09]];
CONST robtarget Target_197:=[[40.620312094742985, 245.28826158045723, 3.0],[0,0.383,0.924,0],[0,0,0,0],[9E+09,9E+09,9E+09,9E+09,9E+09,9E+09]];
CONST robtarget Target_198:=[[40.88136446422132, 243.30537185573985, 3.0],[0,0.383,0.924,0],[0,0,0,0],[9E+09,9E+09,9E+09,9E+09,9E+09,9E+09]];
CONST robtarget Target_199:=[[41.142416833699656, 241.32248213102247, 3.0],[0,0.383,0.924,0],[0,0,0,0],[9E+09,9E+09,9E+09,9E+09,9E+09,9E+09]];
CONST robtarget Target_200:=[[41.40346920317799, 239.3395924063051, 3.0],[0,0.383,0.924,0],[0,0,0,0],[9E+09,9E+09,9E+09,9E+09,9E+09,9E+09]];
CONST robtarget Target_201:=[[41.66452157265633, 237.35670268158773, 3.0],[0,0.383,0.924,0],[0,0,0,0],[9E+09,9E+09,9E+09,9E+09,9E+09,9E+09]];
CONST robtarget Target_202:=[[41.92557394213466, 235.37381295687035, 3.0],[0,0.383,0.924,0],[0,0,0,0],[9E+09,9E+09,9E+09,9E+09,9E+09,9E+09]];
CONST robtarget Target_203:=[[42.186626311613, 233.39092323215297, 3.0],[0,0.383,0.924,0],[0,0,0,0],[9E+09,9E+09,9E+09,9E+09,9E+09,9E+09]];
CONST robtarget Target_204:=[[42.568393697762104, 231.44037899935475, 3.0],[0,0.383,0.924,0],[0,0,0,0],[9E+09,9E+09,9E+09,9E+09,9E+09,9E+09]];
CONST robtarget Target_205:=[[43.33376059608304, 229.59261994824593, 3.0],[0,0.383,0.924,0],[0,0,0,0],[9E+09,9E+09,9E+09,9E+09,9E+09,9E+09]];
CONST robtarget Target_206:=[[44.099127494404, 227.7448608971371, 3.0],[0,0.383,0.924,0],[0,0,0,0],[9E+09,9E+09,9E+09,9E+09,9E+09,9E+09]];
CONST robtarget Target_207:=[[44.864494392724964, 225.8971018460283, 3.0],[0,0.383,0.924,0],[0,0,0,0],[9E+09,9E+09,9E+09,9E+09,9E+09,9E+09]];
CONST robtarget Target_208:=[[45.6298612910459, 224.04934279491948, 3.0],[0,0.383,0.924,0],[0,0,0,0],[9E+09,9E+09,9E+09,9E+09,9E+09,9E+09]];
CONST robtarget Target_209:=[[46.39522818936686, 222.20158374381066, 3.0],[0,0.383,0.924,0],[0,0,0,0],[9E+09,9E+09,9E+09,9E+09,9E+09,9E+09]];
CONST robtarget Target_210:=[[47.160595087687824, 220.35382469270183, 3.0],[0,0.383,0.924,0],[0,0,0,0],[9E+09,9E+09,9E+09,9E+09,9E+09,9E+09]];
CONST robtarget Target_211:=[[47.92596198600876, 218.506065641593, 3.0],[0,0.383,0.924,0],[0,0,0,0],[9E+09,9E+09,9E+09,9E+09,9E+09,9E+09]];
CONST robtarget Target_212:=[[48.69132888432972, 216.6583065904842, 3.0],[0,0.383,0.924,0],[0,0,0,0],[9E+09,9E+09,9E+09,9E+09,9E+09,9E+09]];
CONST robtarget Target_213:=[[49.203903689162075, 215.58762003339854, 3.1578680686742864],[0,0.383,0.924,0],[0,0,0,0],[9E+09,9E+09,9E+09,9E+09,9E+09,9E+09]];
CONST robtarget Target_214:=[[47.50375033373251, 221.3187687962423, 4.697579676602448],[0,0.383,0.924,0],[0,0,0,0],[9E+09,9E+09,9E+09,9E+09,9E+09,9E+09]];
CONST robtarget Target_215:=[[45.80359697830295, 227.049917559086, 6.23729128453061],[0,0.383,0.924,0],[0,0,0,0],[9E+09,9E+09,9E+09,9E+09,9E+09,9E+09]];
CONST robtarget Target_216:=[[44.10344362287336, 232.7810663219297, 7.777002892458761],[0,0.383,0.924,0],[0,0,0,0],[9E+09,9E+09,9E+09,9E+09,9E+09,9E+09]];
CONST robtarget Target_217:=[[42.403290267443765, 238.5122150847734, 9.316714500386922],[0,0.383,0.924,0],[0,0,0,0],[9E+09,9E+09,9E+09,9E+09,9E+09,9E+09]];
CONST robtarget Target_218:=[[40.7031369120142, 244.2433638476171, 10.856426108315095],[0,0.383,0.924,0],[0,0,0,0],[9E+09,9E+09,9E+09,9E+09,9E+09,9E+09]];
CONST robtarget Target_219:=[[39.00298355658464, 249.9745126104608, 12.396137716243246],[0,0.383,0.924,0],[0,0,0,0],[9E+09,9E+09,9E+09,9E+09,9E+09,9E+09]];
CONST robtarget Target_220:=[[37.30283020115505, 255.7056613733045, 13.935849324171407],[0,0.383,0.924,0],[0,0,0,0],[9E+09,9E+09,9E+09,9E+09,9E+09,9E+09]];
CONST robtarget Target_221:=[[35.602676845725455, 261.43681013614827, 15.475560932099569],[0,0.383,0.924,0],[0,0,0,0],[9E+09,9E+09,9E+09,9E+09,9E+09,9E+09]];
CONST robtarget Target_222:=[[33.90252349029589, 267.16795889899197, 17.01527254002772],[0,0.383,0.924,0],[0,0,0,0],[9E+09,9E+09,9E+09,9E+09,9E+09,9E+09]];
CONST robtarget Target_223:=[[32.20237013486633, 272.89910766183567, 18.554984147955892],[0,0.383,0.924,0],[0,0,0,0],[9E+09,9E+09,9E+09,9E+09,9E+09,9E+09]];
CONST robtarget Target_224:=[[30.502216779436736, 278.6302564246794, 20.094695755884054],[0,0.383,0.924,0],[0,0,0,0],[9E+09,9E+09,9E+09,9E+09,9E+09,9E+09]];
CONST robtarget Target_225:=[[28.802063424007144, 284.36140518752313, 21.634407363812215],[0,0.383,0.924,0],[0,0,0,0],[9E+09,9E+09,9E+09,9E+09,9E+09,9E+09]];
CONST robtarget Target_226:=[[27.10191006857758, 290.0925539503668, 23.174118971740366],[0,0.383,0.924,0],[0,0,0,0],[9E+09,9E+09,9E+09,9E+09,9E+09,9E+09]];
CONST robtarget Target_227:=[[25.401756713148018, 295.82370271321054, 24.713830579668528],[0,0.383,0.924,0],[0,0,0,0],[9E+09,9E+09,9E+09,9E+09,9E+09,9E+09]];
CONST robtarget Target_228:=[[23.701603357718426, 301.55485147605424, 26.2535421875967],[0,0.383,0.924,0],[0,0,0,0],[9E+09,9E+09,9E+09,9E+09,9E+09,9E+09]];
CONST robtarget Target_229:=[[22.001450002288863, 307.28600023889794, 27.79325379552485],[0,0.383,0.924,0],[0,0,0,0],[9E+09,9E+09,9E+09,9E+09,9E+09,9E+09]];
CONST robtarget Target_230:=[[20.30129664685927, 313.01714900174164, 29.332965403453013],[0,0.383,0.924,0],[0,0,0,0],[9E+09,9E+09,9E+09,9E+09,9E+09,9E+09]];
CONST robtarget Target_231:=[[18.601143291429707, 318.74829776458535, 30.872677011381175],[0,0.383,0.924,0],[0,0,0,0],[9E+09,9E+09,9E+09,9E+09,9E+09,9E+09]];
CONST robtarget Target_232:=[[16.900989936000144, 324.47944652742905, 32.412388619309326],[0,0.383,0.924,0],[0,0,0,0],[9E+09,9E+09,9E+09,9E+09,9E+09,9E+09]];
CONST robtarget Target_233:=[[15.200836580570552, 330.21059529027275, 33.952100227237494],[0,0.383,0.924,0],[0,0,0,0],[9E+09,9E+09,9E+09,9E+09,9E+09,9E+09]];
CONST robtarget Target_234:=[[13.50068322514096, 335.9417440531165, 35.49181183516566],[0,0.383,0.924,0],[0,0,0,0],[9E+09,9E+09,9E+09,9E+09,9E+09,9E+09]];
CONST robtarget Target_235:=[[11.800529869711397, 341.67289281596015, 37.03152344309381],[0,0.383,0.924,0],[0,0,0,0],[9E+09,9E+09,9E+09,9E+09,9E+09,9E+09]];
CONST robtarget Target_236:=[[10.100376514281834, 347.4040415788039, 38.57123505102197],[0,0.383,0.924,0],[0,0,0,0],[9E+09,9E+09,9E+09,9E+09,9E+09,9E+09]];
CONST robtarget Target_237:=[[8.400223158852242, 353.1351903416477, 40.110946658950134],[0,0.383,0.924,0],[0,0,0,0],[9E+09,9E+09,9E+09,9E+09,9E+09,9E+09]];
CONST robtarget Target_238:=[[6.70006980342265, 358.8663391044914, 41.65065826687831],[0,0.383,0.924,0],[0,0,0,0],[9E+09,9E+09,9E+09,9E+09,9E+09,9E+09]];
CONST robtarget Target_239:=[[4.999916447993087, 364.5974878673351, 43.19036987480646],[0,0.383,0.924,0],[0,0,0,0],[9E+09,9E+09,9E+09,9E+09,9E+09,9E+09]];
CONST robtarget Target_240:=[[3.2997630925635235, 370.3286366301788, 44.73008148273462],[0,0.383,0.924,0],[0,0,0,0],[9E+09,9E+09,9E+09,9E+09,9E+09,9E+09]];
CONST robtarget Target_241:=[[1.5996097371339317, 376.0597853930225, 46.26979309066279],[0,0.383,0.924,0],[0,0,0,0],[9E+09,9E+09,9E+09,9E+09,9E+09,9E+09]];
CONST robtarget Target_242:=[[-0.10054361829563163, 381.7909341558662, 47.809504698590935],[0,0.383,0.924,0],[0,0,0,0],[9E+09,9E+09,9E+09,9E+09,9E+09,9E+09]];
CONST robtarget Target_243:=[[-1.8006969737252234, 387.5220829187099, 49.349216306519104],[0,0.383,0.924,0],[0,0,0,0],[9E+09,9E+09,9E+09,9E+09,9E+09,9E+09]];
CONST robtarget Target_244:=[[-3.5008503291547868, 393.25323168155364, 50.88892791444726],[0,0.383,0.924,0],[0,0,0,0],[9E+09,9E+09,9E+09,9E+09,9E+09,9E+09]];
CONST robtarget Target_245:=[[-5.201003684584379, 398.98438044439735, 52.42863952237543],[0,0.383,0.924,0],[0,0,0,0],[9E+09,9E+09,9E+09,9E+09,9E+09,9E+09]];
CONST robtarget Target_246:=[[-6.9011570400139135, 404.71552920724105, 53.96835113030359],[0,0.383,0.924,0],[0,0,0,0],[9E+09,9E+09,9E+09,9E+09,9E+09,9E+09]];
CONST robtarget Target_247:=[[-8.601310395443534, 410.44667797008475, 55.50806273823174],[0,0.383,0.924,0],[0,0,0,0],[9E+09,9E+09,9E+09,9E+09,9E+09,9E+09]];
CONST robtarget Target_248:=[[-10.301463750873097, 416.17782673292845, 57.04777434615991],[0,0.383,0.924,0],[0,0,0,0],[9E+09,9E+09,9E+09,9E+09,9E+09,9E+09]];
CONST robtarget Target_249:=[[-12.00161710630266, 421.9089754957722, 58.587485954088066],[0,0.383,0.924,0],[0,0,0,0],[9E+09,9E+09,9E+09,9E+09,9E+09,9E+09]];
CONST robtarget Target_250:=[[-13.70177046173228, 427.6401242586159, 60.12719756201622],[0,0.383,0.924,0],[0,0,0,0],[9E+09,9E+09,9E+09,9E+09,9E+09,9E+09]];
CONST robtarget Target_251:=[[-15.401923817161844, 433.3712730214596, 61.66690916994439],[0,0.383,0.924,0],[0,0,0,0],[9E+09,9E+09,9E+09,9E+09,9E+09,9E+09]];
CONST robtarget Target_252:=[[-17.102077172591407, 439.1024217843033, 63.20662077787254],[0,0.383,0.924,0],[0,0,0,0],[9E+09,9E+09,9E+09,9E+09,9E+09,9E+09]];
CONST robtarget Target_253:=[[-18.80223052802097, 444.833570547147, 64.74633238580071],[0,0.383,0.924,0],[0,0,0,0],[9E+09,9E+09,9E+09,9E+09,9E+09,9E+09]];
CONST robtarget Target_254:=[[-20.502383883450534, 450.5647193099907, 66.28604399372887],[0,0.383,0.924,0],[0,0,0,0],[9E+09,9E+09,9E+09,9E+09,9E+09,9E+09]];
CONST robtarget Target_255:=[[-22.202537238880154, 456.2958680728344, 67.82575560165702],[0,0.383,0.924,0],[0,0,0,0],[9E+09,9E+09,9E+09,9E+09,9E+09,9E+09]];
CONST robtarget Target_256:=[[-23.902690594309718, 462.0270168356782, 69.36546720958518],[0,0.383,0.924,0],[0,0,0,0],[9E+09,9E+09,9E+09,9E+09,9E+09,9E+09]];
CONST robtarget Target_257:=[[-25.60284394973928, 467.7581655985218, 70.90517881751335],[0,0.383,0.924,0],[0,0,0,0],[9E+09,9E+09,9E+09,9E+09,9E+09,9E+09]];
CONST robtarget Target_258:=[[-27.302997305168844, 473.4893143613656, 72.44489042544151],[0,0.383,0.924,0],[0,0,0,0],[9E+09,9E+09,9E+09,9E+09,9E+09,9E+09]];
CONST robtarget Target_259:=[[-29.003150660598465, 479.2204631242093, 73.98460203336967],[0,0.383,0.924,0],[0,0,0,0],[9E+09,9E+09,9E+09,9E+09,9E+09,9E+09]];
CONST robtarget Target_260:=[[-30.703304016028028, 484.951611887053, 75.52431364129782],[0,0.383,0.924,0],[0,0,0,0],[9E+09,9E+09,9E+09,9E+09,9E+09,9E+09]];
CONST robtarget Target_261:=[[-32.40345737145759, 490.6827606498967, 77.06402524922599],[0,0.383,0.924,0],[0,0,0,0],[9E+09,9E+09,9E+09,9E+09,9E+09,9E+09]];
CONST robtarget Target_262:=[[-34.103610726887155, 496.4139094127404, 78.60373685715416],[0,0.383,0.924,0],[0,0,0,0],[9E+09,9E+09,9E+09,9E+09,9E+09,9E+09]];
CONST robtarget Target_263:=[[-35.803764082316775, 502.14505817558415, 80.14344846508232],[0,0.383,0.924,0],[0,0,0,0],[9E+09,9E+09,9E+09,9E+09,9E+09,9E+09]];
CONST robtarget Target_264:=[[-37.50391743774634, 507.87620693842786, 81.68316007301047],[0,0.383,0.924,0],[0,0,0,0],[9E+09,9E+09,9E+09,9E+09,9E+09,9E+09]];
CONST robtarget Target_265:=[[-39.2040707931759, 513.6073557012716, 83.22287168093862],[0,0.383,0.924,0],[0,0,0,0],[9E+09,9E+09,9E+09,9E+09,9E+09,9E+09]];
CONST robtarget Target_266:=[[-40.904224148605465, 519.3385044641152, 84.7625832888668],[0,0.383,0.924,0],[0,0,0,0],[9E+09,9E+09,9E+09,9E+09,9E+09,9E+09]];
CONST robtarget Target_267:=[[-42.60437750403503, 525.069653226959, 86.30229489679495],[0,0.383,0.924,0],[0,0,0,0],[9E+09,9E+09,9E+09,9E+09,9E+09,9E+09]];
CONST robtarget Target_268:=[[-44.30453085946465, 530.8008019898027, 87.84200650472312],[0,0.383,0.924,0],[0,0,0,0],[9E+09,9E+09,9E+09,9E+09,9E+09,9E+09]];
CONST robtarget Target_269:=[[-46.00468421489421, 536.5319507526465, 89.38171811265127],[0,0.383,0.924,0],[0,0,0,0],[9E+09,9E+09,9E+09,9E+09,9E+09,9E+09]];
CONST robtarget Target_270:=[[-47.704837570323775, 542.2630995154901, 90.92142972057944],[0,0.383,0.924,0],[0,0,0,0],[9E+09,9E+09,9E+09,9E+09,9E+09,9E+09]];
CONST robtarget Target_271:=[[-49.40499092575334, 547.9942482783338, 92.4611413285076],[0,0.383,0.924,0],[0,0,0,0],[9E+09,9E+09,9E+09,9E+09,9E+09,9E+09]];
CONST robtarget Target_272:=[[-50.0, 550.0, 93.0],[0,0.383,0.924,0],[0,0,0,0],[9E+09,9E+09,9E+09,9E+09,9E+09,9E+09]];
CONST robtarget Target_273:=[[-50.0, 550.0, 93.0],[0,0.383,0.924,0],[0,0,0,0],[9E+09,9E+09,9E+09,9E+09,9E+09,9E+09]];
CONST robtarget Target_274:=[[-50.0, 550.0, 93.0],[0,0.383,0.924,0],[0,0,0,0],[9E+09,9E+09,9E+09,9E+09,9E+09,9E+09]];
CONST robtarget Target_275:=[[-50.0, 550.0, 93.0],[0,0.383,0.924,0],[0,0,0,0],[9E+09,9E+09,9E+09,9E+09,9E+09,9E+09]];
CONST robtarget Target_276:=[[-50.0, 550.0, 93.0],[0,0.383,0.924,0],[0,0,0,0],[9E+09,9E+09,9E+09,9E+09,9E+09,9E+09]];
CONST robtarget Target_277:=[[-50.0, 550.0, 93.0],[0,0.383,0.924,0],[0,0,0,0],[9E+09,9E+09,9E+09,9E+09,9E+09,9E+09]];
CONST robtarget Target_278:=[[-50.0, 550.0, 93.0],[0,0.383,0.924,0],[0,0,0,0],[9E+09,9E+09,9E+09,9E+09,9E+09,9E+09]];
CONST robtarget Target_279:=[[-50.0, 550.0, 93.0],[0,0.383,0.924,0],[0,0,0,0],[9E+09,9E+09,9E+09,9E+09,9E+09,9E+09]];
CONST robtarget Target_280:=[[-50.0, 550.0, 93.0],[0,0.383,0.924,0],[0,0,0,0],[9E+09,9E+09,9E+09,9E+09,9E+09,9E+09]];
CONST robtarget Target_281:=[[-50.0, 550.0, 93.0],[0,0.383,0.924,0],[0,0,0,0],[9E+09,9E+09,9E+09,9E+09,9E+09,9E+09]];
CONST robtarget Target_282:=[[-50.0, 550.0, 93.0],[0,0.383,0.924,0],[0,0,0,0],[9E+09,9E+09,9E+09,9E+09,9E+09,9E+09]];
CONST robtarget Target_283:=[[-50.0, 550.0, 93.0],[0,0.383,0.924,0],[0,0,0,0],[9E+09,9E+09,9E+09,9E+09,9E+09,9E+09]];
CONST robtarget Target_284:=[[-48.975605011447215, 546.5468055851795, 92.07227612736169],[0,0.383,0.924,0],[0,0,0,0],[9E+09,9E+09,9E+09,9E+09,9E+09,9E+09]];
CONST robtarget Target_285:=[[-47.27545165601765, 540.8156568223359, 90.53256451943352],[0,0.383,0.924,0],[0,0,0,0],[9E+09,9E+09,9E+09,9E+09,9E+09,9E+09]];
CONST robtarget Target_286:=[[-45.57529830058809, 535.0845080594921, 88.99285291150535],[0,0.383,0.924,0],[0,0,0,0],[9E+09,9E+09,9E+09,9E+09,9E+09,9E+09]];
CONST robtarget Target_287:=[[-43.87514494515847, 529.3533592966485, 87.45314130357718],[0,0.383,0.924,0],[0,0,0,0],[9E+09,9E+09,9E+09,9E+09,9E+09,9E+09]];
CONST robtarget Target_288:=[[-42.174991589728904, 523.6222105338047, 85.91342969564904],[0,0.383,0.924,0],[0,0,0,0],[9E+09,9E+09,9E+09,9E+09,9E+09,9E+09]];
CONST robtarget Target_289:=[[-40.47483823429934, 517.891061770961, 84.37371808772087],[0,0.383,0.924,0],[0,0,0,0],[9E+09,9E+09,9E+09,9E+09,9E+09,9E+09]];
CONST robtarget Target_290:=[[-38.77468487886972, 512.1599130081173, 82.8340064797927],[0,0.383,0.924,0],[0,0,0,0],[9E+09,9E+09,9E+09,9E+09,9E+09,9E+09]];
CONST robtarget Target_291:=[[-37.07453152344016, 506.42876424527356, 81.29429487186454],[0,0.383,0.924,0],[0,0,0,0],[9E+09,9E+09,9E+09,9E+09,9E+09,9E+09]];
CONST robtarget Target_292:=[[-35.374378168010594, 500.69761548242985, 79.7545832639364],[0,0.383,0.924,0],[0,0,0,0],[9E+09,9E+09,9E+09,9E+09,9E+09,9E+09]];
CONST robtarget Target_293:=[[-33.67422481258103, 494.96646671958615, 78.21487165600823],[0,0.383,0.924,0],[0,0,0,0],[9E+09,9E+09,9E+09,9E+09,9E+09,9E+09]];
CONST robtarget Target_294:=[[-31.974071457151467, 489.23531795674245, 76.67516004808007],[0,0.383,0.924,0],[0,0,0,0],[9E+09,9E+09,9E+09,9E+09,9E+09,9E+09]];
CONST robtarget Target_295:=[[-30.273918101721847, 483.5041691938987, 75.13544844015189],[0,0.383,0.924,0],[0,0,0,0],[9E+09,9E+09,9E+09,9E+09,9E+09,9E+09]];
CONST robtarget Target_296:=[[-28.573764746292284, 477.77302043105504, 73.59573683222375],[0,0.383,0.924,0],[0,0,0,0],[9E+09,9E+09,9E+09,9E+09,9E+09,9E+09]];
CONST robtarget Target_297:=[[-26.87361139086272, 472.0418716682113, 72.05602522429558],[0,0.383,0.924,0],[0,0,0,0],[9E+09,9E+09,9E+09,9E+09,9E+09,9E+09]];
CONST robtarget Target_298:=[[-25.1734580354331, 466.3107229053676, 70.51631361636743],[0,0.383,0.924,0],[0,0,0,0],[9E+09,9E+09,9E+09,9E+09,9E+09,9E+09]];
CONST robtarget Target_299:=[[-23.473304680003537, 460.5795741425238, 68.97660200843926],[0,0.383,0.924,0],[0,0,0,0],[9E+09,9E+09,9E+09,9E+09,9E+09,9E+09]];
CONST robtarget Target_300:=[[-21.773151324573973, 454.8484253796801, 67.43689040051109],[0,0.383,0.924,0],[0,0,0,0],[9E+09,9E+09,9E+09,9E+09,9E+09,9E+09]];
CONST robtarget Target_301:=[[-20.07299796914441, 449.1172766168364, 65.89717879258293],[0,0.383,0.924,0],[0,0,0,0],[9E+09,9E+09,9E+09,9E+09,9E+09,9E+09]];
CONST robtarget Target_302:=[[-18.372844613714847, 443.3861278539927, 64.35746718465478],[0,0.383,0.924,0],[0,0,0,0],[9E+09,9E+09,9E+09,9E+09,9E+09,9E+09]];
CONST robtarget Target_303:=[[-16.672691258285226, 437.654979091149, 62.81775557672661],[0,0.383,0.924,0],[0,0,0,0],[9E+09,9E+09,9E+09,9E+09,9E+09,9E+09]];
CONST robtarget Target_304:=[[-14.972537902855663, 431.92383032830526, 61.27804396879846],[0,0.383,0.924,0],[0,0,0,0],[9E+09,9E+09,9E+09,9E+09,9E+09,9E+09]];
CONST robtarget Target_305:=[[-13.2723845474261, 426.1926815654616, 59.73833236087029],[0,0.383,0.924,0],[0,0,0,0],[9E+09,9E+09,9E+09,9E+09,9E+09,9E+09]];
CONST robtarget Target_306:=[[-11.57223119199648, 420.46153280261785, 58.19862075294213],[0,0.383,0.924,0],[0,0,0,0],[9E+09,9E+09,9E+09,9E+09,9E+09,9E+09]];
CONST robtarget Target_307:=[[-9.872077836566916, 414.73038403977415, 56.658909145013965],[0,0.383,0.924,0],[0,0,0,0],[9E+09,9E+09,9E+09,9E+09,9E+09,9E+09]];
CONST robtarget Target_308:=[[-8.171924481137353, 408.99923527693045, 55.11919753708581],[0,0.383,0.924,0],[0,0,0,0],[9E+09,9E+09,9E+09,9E+09,9E+09,9E+09]];
CONST robtarget Target_309:=[[-6.4717711257077895, 403.26808651408675, 53.579485929157656],[0,0.383,0.924,0],[0,0,0,0],[9E+09,9E+09,9E+09,9E+09,9E+09,9E+09]];
CONST robtarget Target_310:=[[-4.771617770278198, 397.53693775124304, 52.03977432122949],[0,0.383,0.924,0],[0,0,0,0],[9E+09,9E+09,9E+09,9E+09,9E+09,9E+09]];
CONST robtarget Target_311:=[[-3.071464414848606, 391.8057889883993, 50.50006271330132],[0,0.383,0.924,0],[0,0,0,0],[9E+09,9E+09,9E+09,9E+09,9E+09,9E+09]];
CONST robtarget Target_312:=[[-1.3713110594190425, 386.0746402255555, 48.960351105373164],[0,0.383,0.924,0],[0,0,0,0],[9E+09,9E+09,9E+09,9E+09,9E+09,9E+09]];
CONST robtarget Target_313:=[[0.32884229601052084, 380.3434914627119, 47.420639497444995],[0,0.383,0.924,0],[0,0,0,0],[9E+09,9E+09,9E+09,9E+09,9E+09,9E+09]];
CONST robtarget Target_314:=[[2.0289956514401126, 374.6123426998681, 45.88092788951684],[0,0.383,0.924,0],[0,0,0,0],[9E+09,9E+09,9E+09,9E+09,9E+09,9E+09]];
CONST robtarget Target_315:=[[3.7291490068697044, 368.8811939370244, 44.34121628158868],[0,0.383,0.924,0],[0,0,0,0],[9E+09,9E+09,9E+09,9E+09,9E+09,9E+09]];
CONST robtarget Target_316:=[[5.429302362299268, 363.1500451741807, 42.80150467366052],[0,0.383,0.924,0],[0,0,0,0],[9E+09,9E+09,9E+09,9E+09,9E+09,9E+09]];
CONST robtarget Target_317:=[[7.129455717728831, 357.418896411337, 41.261793065732356],[0,0.383,0.924,0],[0,0,0,0],[9E+09,9E+09,9E+09,9E+09,9E+09,9E+09]];
CONST robtarget Target_318:=[[8.829609073158423, 351.6877476484933, 39.722081457804194],[0,0.383,0.924,0],[0,0,0,0],[9E+09,9E+09,9E+09,9E+09,9E+09,9E+09]];
CONST robtarget Target_319:=[[10.529762428588015, 345.95659888564956, 38.18236984987603],[0,0.383,0.924,0],[0,0,0,0],[9E+09,9E+09,9E+09,9E+09,9E+09,9E+09]];
CONST robtarget Target_320:=[[12.229915784017578, 340.22545012280585, 36.64265824194787],[0,0.383,0.924,0],[0,0,0,0],[9E+09,9E+09,9E+09,9E+09,9E+09,9E+09]];
CONST robtarget Target_321:=[[13.930069139447141, 334.49430135996215, 35.10294663401971],[0,0.383,0.924,0],[0,0,0,0],[9E+09,9E+09,9E+09,9E+09,9E+09,9E+09]];
CONST robtarget Target_322:=[[15.630222494876733, 328.7631525971184, 33.56323502609155],[0,0.383,0.924,0],[0,0,0,0],[9E+09,9E+09,9E+09,9E+09,9E+09,9E+09]];
CONST robtarget Target_323:=[[17.330375850306325, 323.03200383427475, 32.023523418163386],[0,0.383,0.924,0],[0,0,0,0],[9E+09,9E+09,9E+09,9E+09,9E+09,9E+09]];
CONST robtarget Target_324:=[[19.03052920573589, 317.300855071431, 30.483811810235224],[0,0.383,0.924,0],[0,0,0,0],[9E+09,9E+09,9E+09,9E+09,9E+09,9E+09]];
CONST robtarget Target_325:=[[20.73068256116545, 311.5697063085873, 28.94410020230707],[0,0.383,0.924,0],[0,0,0,0],[9E+09,9E+09,9E+09,9E+09,9E+09,9E+09]];
CONST robtarget Target_326:=[[22.430835916595043, 305.8385575457436, 27.4043885943789],[0,0.383,0.924,0],[0,0,0,0],[9E+09,9E+09,9E+09,9E+09,9E+09,9E+09]];
CONST robtarget Target_327:=[[24.130989272024635, 300.1074087828999, 25.864676986450746],[0,0.383,0.924,0],[0,0,0,0],[9E+09,9E+09,9E+09,9E+09,9E+09,9E+09]];
CONST robtarget Target_328:=[[25.8311426274542, 294.3762600200561, 24.32496537852258],[0,0.383,0.924,0],[0,0,0,0],[9E+09,9E+09,9E+09,9E+09,9E+09,9E+09]];
CONST robtarget Target_329:=[[27.53129598288379, 288.6451112572124, 22.78525377059442],[0,0.383,0.924,0],[0,0,0,0],[9E+09,9E+09,9E+09,9E+09,9E+09,9E+09]];
CONST robtarget Target_330:=[[29.231449338313354, 282.9139624943687, 21.245542162666258],[0,0.383,0.924,0],[0,0,0,0],[9E+09,9E+09,9E+09,9E+09,9E+09,9E+09]];
CONST robtarget Target_331:=[[30.931602693742946, 277.182813731525, 19.705830554738096],[0,0.383,0.924,0],[0,0,0,0],[9E+09,9E+09,9E+09,9E+09,9E+09,9E+09]];
CONST robtarget Target_332:=[[32.63175604917251, 271.45166496868126, 18.166118946809938],[0,0.383,0.924,0],[0,0,0,0],[9E+09,9E+09,9E+09,9E+09,9E+09,9E+09]];
CONST robtarget Target_333:=[[34.3319094046021, 265.72051620583755, 16.626407338881776],[0,0.383,0.924,0],[0,0,0,0],[9E+09,9E+09,9E+09,9E+09,9E+09,9E+09]];
CONST robtarget Target_334:=[[36.032062760031664, 259.98936744299385, 15.086695730953615],[0,0.383,0.924,0],[0,0,0,0],[9E+09,9E+09,9E+09,9E+09,9E+09,9E+09]];
CONST robtarget Target_335:=[[37.732216115461256, 254.25821868015015, 13.546984123025453],[0,0.383,0.924,0],[0,0,0,0],[9E+09,9E+09,9E+09,9E+09,9E+09,9E+09]];
CONST robtarget Target_336:=[[39.43236947089082, 248.52706991730642, 12.007272515097291],[0,0.383,0.924,0],[0,0,0,0],[9E+09,9E+09,9E+09,9E+09,9E+09,9E+09]];
CONST robtarget Target_337:=[[41.13252282632041, 242.79592115446272, 10.467560907169132],[0,0.383,0.924,0],[0,0,0,0],[9E+09,9E+09,9E+09,9E+09,9E+09,9E+09]];
CONST robtarget Target_338:=[[42.832676181749974, 237.064772391619, 8.92784929924097],[0,0.383,0.924,0],[0,0,0,0],[9E+09,9E+09,9E+09,9E+09,9E+09,9E+09]];
CONST robtarget Target_339:=[[44.532829537179566, 231.33362362877529, 7.388137691312808],[0,0.383,0.924,0],[0,0,0,0],[9E+09,9E+09,9E+09,9E+09,9E+09,9E+09]];
CONST robtarget Target_340:=[[46.23298289260913, 225.60247486593158, 5.848426083384647],[0,0.383,0.924,0],[0,0,0,0],[9E+09,9E+09,9E+09,9E+09,9E+09,9E+09]];
CONST robtarget Target_341:=[[47.93313624803872, 219.87132610308785, 4.308714475456485],[0,0.383,0.924,0],[0,0,0,0],[9E+09,9E+09,9E+09,9E+09,9E+09,9E+09]];
CONST robtarget Target_342:=[[49.56088235947513, 214.76195236726457, 3.0],[0,0.383,0.924,0],[0,0,0,0],[9E+09,9E+09,9E+09,9E+09,9E+09,9E+09]];
CONST robtarget Target_343:=[[50.778405160657286, 213.17524564307087, 3.0],[0,0.383,0.924,0],[0,0,0,0],[9E+09,9E+09,9E+09,9E+09,9E+09,9E+09]];
CONST robtarget Target_344:=[[51.99592796183944, 211.58853891887716, 3.0],[0,0.383,0.924,0],[0,0,0,0],[9E+09,9E+09,9E+09,9E+09,9E+09,9E+09]];
CONST robtarget Target_345:=[[53.2134507630216, 210.00183219468343, 3.0],[0,0.383,0.924,0],[0,0,0,0],[9E+09,9E+09,9E+09,9E+09,9E+09,9E+09]];
CONST robtarget Target_346:=[[54.430973564203754, 208.41512547048973, 3.0],[0,0.383,0.924,0],[0,0,0,0],[9E+09,9E+09,9E+09,9E+09,9E+09,9E+09]];
CONST robtarget Target_347:=[[55.64849636538591, 206.82841874629602, 3.0],[0,0.383,0.924,0],[0,0,0,0],[9E+09,9E+09,9E+09,9E+09,9E+09,9E+09]];
CONST robtarget Target_348:=[[56.866019166568066, 205.2417120221023, 3.0],[0,0.383,0.924,0],[0,0,0,0],[9E+09,9E+09,9E+09,9E+09,9E+09,9E+09]];
CONST robtarget Target_349:=[[58.08354196775022, 203.6550052979086, 3.0],[0,0.383,0.924,0],[0,0,0,0],[9E+09,9E+09,9E+09,9E+09,9E+09,9E+09]];
CONST robtarget Target_350:=[[59.30106476893238, 202.06829857371486, 3.0],[0,0.383,0.924,0],[0,0,0,0],[9E+09,9E+09,9E+09,9E+09,9E+09,9E+09]];
CONST robtarget Target_351:=[[60.52345815047883, 200.48646242988548, 3.0],[0,0.383,0.924,0],[0,0,0,0],[9E+09,9E+09,9E+09,9E+09,9E+09,9E+09]];
CONST robtarget Target_352:=[[62.110164874672535, 199.26893962870332, 3.0],[0,0.383,0.924,0],[0,0,0,0],[9E+09,9E+09,9E+09,9E+09,9E+09,9E+09]];
CONST robtarget Target_353:=[[63.69687159886627, 198.05141682752117, 3.0],[0,0.383,0.924,0],[0,0,0,0],[9E+09,9E+09,9E+09,9E+09,9E+09,9E+09]];
CONST robtarget Target_354:=[[65.28357832305997, 196.833894026339, 3.0],[0,0.383,0.924,0],[0,0,0,0],[9E+09,9E+09,9E+09,9E+09,9E+09,9E+09]];
CONST robtarget Target_355:=[[66.87028504725367, 195.61637122515685, 3.0],[0,0.383,0.924,0],[0,0,0,0],[9E+09,9E+09,9E+09,9E+09,9E+09,9E+09]];
CONST robtarget Target_356:=[[68.4569917714474, 194.3988484239747, 3.0],[0,0.383,0.924,0],[0,0,0,0],[9E+09,9E+09,9E+09,9E+09,9E+09,9E+09]];
CONST robtarget Target_357:=[[70.04369849564111, 193.18132562279254, 3.0],[0,0.383,0.924,0],[0,0,0,0],[9E+09,9E+09,9E+09,9E+09,9E+09,9E+09]];
CONST robtarget Target_358:=[[71.63040521983481, 191.96380282161036, 3.0],[0,0.383,0.924,0],[0,0,0,0],[9E+09,9E+09,9E+09,9E+09,9E+09,9E+09]];
CONST robtarget Target_359:=[[73.21711194402855, 190.7462800204282, 3.0],[0,0.383,0.924,0],[0,0,0,0],[9E+09,9E+09,9E+09,9E+09,9E+09,9E+09]];
CONST robtarget Target_360:=[[74.80381866822225, 189.52875721924605, 3.0],[0,0.383,0.924,0],[0,0,0,0],[9E+09,9E+09,9E+09,9E+09,9E+09,9E+09]];
CONST robtarget Target_361:=[[76.61930105951927, 188.7074855050937, 3.0],[0,0.383,0.924,0],[0,0,0,0],[9E+09,9E+09,9E+09,9E+09,9E+09,9E+09]];
CONST robtarget Target_362:=[[78.4670601106281, 187.94211860677274, 3.0],[0,0.383,0.924,0],[0,0,0,0],[9E+09,9E+09,9E+09,9E+09,9E+09,9E+09]];
CONST robtarget Target_363:=[[80.31481916173695, 187.1767517084518, 3.0],[0,0.383,0.924,0],[0,0,0,0],[9E+09,9E+09,9E+09,9E+09,9E+09,9E+09]];
CONST robtarget Target_364:=[[82.16257821284577, 186.41138481013084, 3.0],[0,0.383,0.924,0],[0,0,0,0],[9E+09,9E+09,9E+09,9E+09,9E+09,9E+09]];
CONST robtarget Target_365:=[[84.0103372639546, 185.6460179118099, 3.0],[0,0.383,0.924,0],[0,0,0,0],[9E+09,9E+09,9E+09,9E+09,9E+09,9E+09]];
CONST robtarget Target_366:=[[85.85809631506342, 184.88065101348894, 3.0],[0,0.383,0.924,0],[0,0,0,0],[9E+09,9E+09,9E+09,9E+09,9E+09,9E+09]];
CONST robtarget Target_367:=[[87.70585536617224, 184.11528411516798, 3.0],[0,0.383,0.924,0],[0,0,0,0],[9E+09,9E+09,9E+09,9E+09,9E+09,9E+09]];
CONST robtarget Target_368:=[[89.55361441728107, 183.34991721684702, 3.0],[0,0.383,0.924,0],[0,0,0,0],[9E+09,9E+09,9E+09,9E+09,9E+09,9E+09]];
CONST robtarget Target_369:=[[91.40137346838989, 182.58455031852606, 3.0],[0,0.383,0.924,0],[0,0,0,0],[9E+09,9E+09,9E+09,9E+09,9E+09,9E+09]];
CONST robtarget Target_370:=[[93.34906514112595, 182.19213703351966, 3.0],[0,0.383,0.924,0],[0,0,0,0],[9E+09,9E+09,9E+09,9E+09,9E+09,9E+09]];
CONST robtarget Target_371:=[[95.3319548658433, 181.9310846640413, 3.0],[0,0.383,0.924,0],[0,0,0,0],[9E+09,9E+09,9E+09,9E+09,9E+09,9E+09]];
CONST robtarget Target_372:=[[97.31484459056068, 181.670032294563, 3.0],[0,0.383,0.924,0],[0,0,0,0],[9E+09,9E+09,9E+09,9E+09,9E+09,9E+09]];
CONST robtarget Target_373:=[[99.29773431527806, 181.40897992508462, 3.0],[0,0.383,0.924,0],[0,0,0,0],[9E+09,9E+09,9E+09,9E+09,9E+09,9E+09]];
CONST robtarget Target_374:=[[101.28062403999544, 181.1479275556063, 3.0],[0,0.383,0.924,0],[0,0,0,0],[9E+09,9E+09,9E+09,9E+09,9E+09,9E+09]];
CONST robtarget Target_375:=[[103.2635137647128, 180.88687518612795, 3.0],[0,0.383,0.924,0],[0,0,0,0],[9E+09,9E+09,9E+09,9E+09,9E+09,9E+09]];
CONST robtarget Target_376:=[[105.24640348943018, 180.62582281664962, 3.0],[0,0.383,0.924,0],[0,0,0,0],[9E+09,9E+09,9E+09,9E+09,9E+09,9E+09]];
CONST robtarget Target_377:=[[107.22929321414756, 180.36477044717128, 3.0],[0,0.383,0.924,0],[0,0,0,0],[9E+09,9E+09,9E+09,9E+09,9E+09,9E+09]];
CONST robtarget Target_378:=[[109.21218293886494, 180.10371807769295, 3.0],[0,0.383,0.924,0],[0,0,0,0],[9E+09,9E+09,9E+09,9E+09,9E+09,9E+09]];
CONST robtarget Target_379:=[[111.1950726635823, 179.8426657082146, 3.0],[0,0.383,0.924,0],[0,0,0,0],[9E+09,9E+09,9E+09,9E+09,9E+09,9E+09]];
CONST robtarget Target_380:=[[113.17796238829968, 179.58161333873625, 3.0],[0,0.383,0.924,0],[0,0,0,0],[9E+09,9E+09,9E+09,9E+09,9E+09,9E+09]];
CONST robtarget Target_381:=[[115.16085211301706, 179.32056096925794, 3.0],[0,0.383,0.924,0],[0,0,0,0],[9E+09,9E+09,9E+09,9E+09,9E+09,9E+09]];
CONST robtarget Target_382:=[[117.14374183773444, 179.05950859977958, 3.0],[0,0.383,0.924,0],[0,0,0,0],[9E+09,9E+09,9E+09,9E+09,9E+09,9E+09]];
CONST robtarget Target_383:=[[119.12663156245182, 178.79845623030127, 3.0],[0,0.383,0.924,0],[0,0,0,0],[9E+09,9E+09,9E+09,9E+09,9E+09,9E+09]];
CONST robtarget Target_384:=[[121.10952128716917, 178.5374038608229, 3.0],[0,0.383,0.924,0],[0,0,0,0],[9E+09,9E+09,9E+09,9E+09,9E+09,9E+09]];
CONST robtarget Target_385:=[[123.09241101188655, 178.27635149134457, 3.0],[0,0.383,0.924,0],[0,0,0,0],[9E+09,9E+09,9E+09,9E+09,9E+09,9E+09]];
CONST robtarget Target_386:=[[125.07530073660394, 178.01529912186624, 3.0],[0,0.383,0.924,0],[0,0,0,0],[9E+09,9E+09,9E+09,9E+09,9E+09,9E+09]];
CONST robtarget Target_387:=[[127.0581904613213, 177.7542467523879, 3.0],[0,0.383,0.924,0],[0,0,0,0],[9E+09,9E+09,9E+09,9E+09,9E+09,9E+09]];
CONST robtarget Target_388:=[[128.9781283345376, 177.2582548796736, 3.0],[0,0.383,0.924,0],[0,0,0,0],[9E+09,9E+09,9E+09,9E+09,9E+09,9E+09]];
CONST robtarget Target_389:=[[130.8258873856464, 176.49288798135265, 3.0],[0,0.383,0.924,0],[0,0,0,0],[9E+09,9E+09,9E+09,9E+09,9E+09,9E+09]];
CONST robtarget Target_390:=[[132.67364643675523, 175.72752108303172, 3.0],[0,0.383,0.924,0],[0,0,0,0],[9E+09,9E+09,9E+09,9E+09,9E+09,9E+09]];
CONST robtarget Target_391:=[[134.52140548786406, 174.96215418471076, 3.0],[0,0.383,0.924,0],[0,0,0,0],[9E+09,9E+09,9E+09,9E+09,9E+09,9E+09]];
CONST robtarget Target_392:=[[136.36916453897288, 174.1967872863898, 3.0],[0,0.383,0.924,0],[0,0,0,0],[9E+09,9E+09,9E+09,9E+09,9E+09,9E+09]];
CONST robtarget Target_393:=[[138.21692359008168, 173.43142038806883, 3.0],[0,0.383,0.924,0],[0,0,0,0],[9E+09,9E+09,9E+09,9E+09,9E+09,9E+09]];
CONST robtarget Target_394:=[[140.06468264119047, 172.6660534897479, 3.0],[0,0.383,0.924,0],[0,0,0,0],[9E+09,9E+09,9E+09,9E+09,9E+09,9E+09]];
CONST robtarget Target_395:=[[141.9124416922993, 171.90068659142696, 3.0],[0,0.383,0.924,0],[0,0,0,0],[9E+09,9E+09,9E+09,9E+09,9E+09,9E+09]];
CONST robtarget Target_396:=[[143.76020074340812, 171.135319693106, 3.0],[0,0.383,0.924,0],[0,0,0,0],[9E+09,9E+09,9E+09,9E+09,9E+09,9E+09]];
CONST robtarget Target_397:=[[145.52206692935454, 170.22118198528574, 3.0],[0,0.383,0.924,0],[0,0,0,0],[9E+09,9E+09,9E+09,9E+09,9E+09,9E+09]];
CONST robtarget Target_398:=[[147.10877365354827, 169.00365918410358, 3.0],[0,0.383,0.924,0],[0,0,0,0],[9E+09,9E+09,9E+09,9E+09,9E+09,9E+09]];
CONST robtarget Target_399:=[[148.69548037774197, 167.78613638292143, 3.0],[0,0.383,0.924,0],[0,0,0,0],[9E+09,9E+09,9E+09,9E+09,9E+09,9E+09]];
CONST robtarget Target_400:=[[150.28218710193568, 166.56861358173927, 3.0],[0,0.383,0.924,0],[0,0,0,0],[9E+09,9E+09,9E+09,9E+09,9E+09,9E+09]];
CONST robtarget Target_401:=[[151.8688938261294, 165.35109078055712, 3.0],[0,0.383,0.924,0],[0,0,0,0],[9E+09,9E+09,9E+09,9E+09,9E+09,9E+09]];
CONST robtarget Target_402:=[[153.4556005503231, 164.13356797937496, 3.0],[0,0.383,0.924,0],[0,0,0,0],[9E+09,9E+09,9E+09,9E+09,9E+09,9E+09]];
CONST robtarget Target_403:=[[155.04230727451682, 162.9160451781928, 3.0],[0,0.383,0.924,0],[0,0,0,0],[9E+09,9E+09,9E+09,9E+09,9E+09,9E+09]];
CONST robtarget Target_404:=[[156.62901399871055, 161.69852237701065, 3.0],[0,0.383,0.924,0],[0,0,0,0],[9E+09,9E+09,9E+09,9E+09,9E+09,9E+09]];
CONST robtarget Target_405:=[[158.21572072290422, 160.4809995758285, 3.0],[0,0.383,0.924,0],[0,0,0,0],[9E+09,9E+09,9E+09,9E+09,9E+09,9E+09]];
CONST robtarget Target_406:=[[159.73147322535368, 159.19252255290203, 3.0],[0,0.383,0.924,0],[0,0,0,0],[9E+09,9E+09,9E+09,9E+09,9E+09,9E+09]];
CONST robtarget Target_407:=[[160.94899602653584, 157.6058158287083, 3.0],[0,0.383,0.924,0],[0,0,0,0],[9E+09,9E+09,9E+09,9E+09,9E+09,9E+09]];
CONST robtarget Target_408:=[[162.166518827718, 156.0191091045146, 3.0],[0,0.383,0.924,0],[0,0,0,0],[9E+09,9E+09,9E+09,9E+09,9E+09,9E+09]];
CONST robtarget Target_409:=[[163.38404162890015, 154.43240238032087, 3.0],[0,0.383,0.924,0],[0,0,0,0],[9E+09,9E+09,9E+09,9E+09,9E+09,9E+09]];
CONST robtarget Target_410:=[[164.60156443008233, 152.84569565612713, 3.0],[0,0.383,0.924,0],[0,0,0,0],[9E+09,9E+09,9E+09,9E+09,9E+09,9E+09]];
CONST robtarget Target_411:=[[165.8190872312645, 151.2589889319334, 3.0],[0,0.383,0.924,0],[0,0,0,0],[9E+09,9E+09,9E+09,9E+09,9E+09,9E+09]];
CONST robtarget Target_412:=[[167.03661003244667, 149.6722822077397, 3.0],[0,0.383,0.924,0],[0,0,0,0],[9E+09,9E+09,9E+09,9E+09,9E+09,9E+09]];
CONST robtarget Target_413:=[[168.25413283362883, 148.085575483546, 3.0],[0,0.383,0.924,0],[0,0,0,0],[9E+09,9E+09,9E+09,9E+09,9E+09,9E+09]];
CONST robtarget Target_414:=[[169.471655634811, 146.49886875935226, 3.0],[0,0.383,0.924,0],[0,0,0,0],[9E+09,9E+09,9E+09,9E+09,9E+09,9E+09]];
CONST robtarget Target_415:=[[170.66414768916843, 144.89771052703563, 3.0],[0,0.383,0.924,0],[0,0,0,0],[9E+09,9E+09,9E+09,9E+09,9E+09,9E+09]];
CONST robtarget Target_416:=[[171.4295145874894, 143.04995147592683, 3.0],[0,0.383,0.924,0],[0,0,0,0],[9E+09,9E+09,9E+09,9E+09,9E+09,9E+09]];
CONST robtarget Target_417:=[[172.19488148581033, 141.202192424818, 3.0],[0,0.383,0.924,0],[0,0,0,0],[9E+09,9E+09,9E+09,9E+09,9E+09,9E+09]];
CONST robtarget Target_418:=[[172.96024838413126, 139.35443337370918, 3.0],[0,0.383,0.924,0],[0,0,0,0],[9E+09,9E+09,9E+09,9E+09,9E+09,9E+09]];
CONST robtarget Target_419:=[[173.72561528245222, 137.50667432260036, 3.0],[0,0.383,0.924,0],[0,0,0,0],[9E+09,9E+09,9E+09,9E+09,9E+09,9E+09]];
CONST robtarget Target_420:=[[174.4909821807732, 135.65891527149154, 3.0],[0,0.383,0.924,0],[0,0,0,0],[9E+09,9E+09,9E+09,9E+09,9E+09,9E+09]];
CONST robtarget Target_421:=[[175.25634907909415, 133.81115622038274, 3.0],[0,0.383,0.924,0],[0,0,0,0],[9E+09,9E+09,9E+09,9E+09,9E+09,9E+09]];
CONST robtarget Target_422:=[[176.02171597741508, 131.96339716927395, 3.0],[0,0.383,0.924,0],[0,0,0,0],[9E+09,9E+09,9E+09,9E+09,9E+09,9E+09]];
CONST robtarget Target_423:=[[176.78708287573602, 130.11563811816512, 3.0],[0,0.383,0.924,0],[0,0,0,0],[9E+09,9E+09,9E+09,9E+09,9E+09,9E+09]];
CONST robtarget Target_424:=[[177.55244977405698, 128.2678790670563, 3.0],[0,0.383,0.924,0],[0,0,0,0],[9E+09,9E+09,9E+09,9E+09,9E+09,9E+09]];
CONST robtarget Target_425:=[[180.42896284801998, 132.85582573333346, 3.0],[0,0.383,0.924,0],[0,0,0,0],[9E+09,9E+09,9E+09,9E+09,9E+09,9E+09]];
CONST robtarget Target_426:=[[183.49273856947553, 138.0146316347625, 3.0],[0,0.383,0.924,0],[0,0,0,0],[9E+09,9E+09,9E+09,9E+09,9E+09,9E+09]];
CONST robtarget Target_427:=[[186.55651429093115, 143.1734375361916, 3.0],[0,0.383,0.924,0],[0,0,0,0],[9E+09,9E+09,9E+09,9E+09,9E+09,9E+09]];
CONST robtarget Target_428:=[[189.6202900123867, 148.33224343762066, 3.0],[0,0.383,0.924,0],[0,0,0,0],[9E+09,9E+09,9E+09,9E+09,9E+09,9E+09]];
CONST robtarget Target_429:=[[192.68406573384232, 153.4910493390497, 3.0],[0,0.383,0.924,0],[0,0,0,0],[9E+09,9E+09,9E+09,9E+09,9E+09,9E+09]];
CONST robtarget Target_430:=[[195.7478414552979, 158.64985524047881, 3.0],[0,0.383,0.924,0],[0,0,0,0],[9E+09,9E+09,9E+09,9E+09,9E+09,9E+09]];
CONST robtarget Target_431:=[[198.8116171767535, 163.80866114190786, 3.0],[0,0.383,0.924,0],[0,0,0,0],[9E+09,9E+09,9E+09,9E+09,9E+09,9E+09]];
CONST robtarget Target_432:=[[201.87539289820907, 168.9674670433369, 3.0],[0,0.383,0.924,0],[0,0,0,0],[9E+09,9E+09,9E+09,9E+09,9E+09,9E+09]];
CONST robtarget Target_433:=[[204.93916861966466, 174.12627294476596, 3.0],[0,0.383,0.924,0],[0,0,0,0],[9E+09,9E+09,9E+09,9E+09,9E+09,9E+09]];
CONST robtarget Target_434:=[[208.00294434112024, 179.28507884619506, 3.0],[0,0.383,0.924,0],[0,0,0,0],[9E+09,9E+09,9E+09,9E+09,9E+09,9E+09]];
CONST robtarget Target_435:=[[211.06672006257583, 184.4438847476241, 3.0],[0,0.383,0.924,0],[0,0,0,0],[9E+09,9E+09,9E+09,9E+09,9E+09,9E+09]];
CONST robtarget Target_436:=[[214.1304957840314, 189.60269064905316, 3.0],[0,0.383,0.924,0],[0,0,0,0],[9E+09,9E+09,9E+09,9E+09,9E+09,9E+09]];
CONST robtarget Target_437:=[[217.194271505487, 194.76149655048226, 3.0],[0,0.383,0.924,0],[0,0,0,0],[9E+09,9E+09,9E+09,9E+09,9E+09,9E+09]];
CONST robtarget Target_438:=[[220.25804722694258, 199.9203024519113, 3.0],[0,0.383,0.924,0],[0,0,0,0],[9E+09,9E+09,9E+09,9E+09,9E+09,9E+09]];
CONST robtarget Target_439:=[[223.32182294839816, 205.07910835334036, 3.0],[0,0.383,0.924,0],[0,0,0,0],[9E+09,9E+09,9E+09,9E+09,9E+09,9E+09]];
CONST robtarget Target_440:=[[226.38559866985378, 210.23791425476946, 3.0],[0,0.383,0.924,0],[0,0,0,0],[9E+09,9E+09,9E+09,9E+09,9E+09,9E+09]];
CONST robtarget Target_441:=[[229.44937439130933, 215.3967201561985, 3.0],[0,0.383,0.924,0],[0,0,0,0],[9E+09,9E+09,9E+09,9E+09,9E+09,9E+09]];
CONST robtarget Target_442:=[[232.51315011276495, 220.55552605762756, 3.0],[0,0.383,0.924,0],[0,0,0,0],[9E+09,9E+09,9E+09,9E+09,9E+09,9E+09]];
CONST robtarget Target_443:=[[235.5769258342205, 225.71433195905666, 3.0],[0,0.383,0.924,0],[0,0,0,0],[9E+09,9E+09,9E+09,9E+09,9E+09,9E+09]];
CONST robtarget Target_444:=[[238.6407015556761, 230.8731378604857, 3.0],[0,0.383,0.924,0],[0,0,0,0],[9E+09,9E+09,9E+09,9E+09,9E+09,9E+09]];
CONST robtarget Target_445:=[[241.70447727713167, 236.03194376191476, 3.0],[0,0.383,0.924,0],[0,0,0,0],[9E+09,9E+09,9E+09,9E+09,9E+09,9E+09]];
CONST robtarget Target_446:=[[244.7682529985873, 241.1907496633438, 3.0],[0,0.383,0.924,0],[0,0,0,0],[9E+09,9E+09,9E+09,9E+09,9E+09,9E+09]];
CONST robtarget Target_447:=[[247.83202872004284, 246.34955556477288, 3.0],[0,0.383,0.924,0],[0,0,0,0],[9E+09,9E+09,9E+09,9E+09,9E+09,9E+09]];
CONST robtarget Target_448:=[[250.89580444149846, 251.50836146620196, 3.0],[0,0.383,0.924,0],[0,0,0,0],[9E+09,9E+09,9E+09,9E+09,9E+09,9E+09]];
CONST robtarget Target_449:=[[253.959580162954, 256.667167367631, 3.0],[0,0.383,0.924,0],[0,0,0,0],[9E+09,9E+09,9E+09,9E+09,9E+09,9E+09]];
CONST robtarget Target_450:=[[257.0233558844096, 261.8259732690601, 3.0],[0,0.383,0.924,0],[0,0,0,0],[9E+09,9E+09,9E+09,9E+09,9E+09,9E+09]];
CONST robtarget Target_451:=[[260.08713160586524, 266.98477917048916, 3.0],[0,0.383,0.924,0],[0,0,0,0],[9E+09,9E+09,9E+09,9E+09,9E+09,9E+09]];
CONST robtarget Target_452:=[[263.1509073273208, 272.1435850719182, 3.0],[0,0.383,0.924,0],[0,0,0,0],[9E+09,9E+09,9E+09,9E+09,9E+09,9E+09]];
CONST robtarget Target_453:=[[266.21468304877635, 277.3023909733473, 3.0],[0,0.383,0.924,0],[0,0,0,0],[9E+09,9E+09,9E+09,9E+09,9E+09,9E+09]];
CONST robtarget Target_454:=[[269.27845877023196, 282.46119687477636, 3.0],[0,0.383,0.924,0],[0,0,0,0],[9E+09,9E+09,9E+09,9E+09,9E+09,9E+09]];
CONST robtarget Target_455:=[[272.3422344916876, 287.6200027762054, 3.0],[0,0.383,0.924,0],[0,0,0,0],[9E+09,9E+09,9E+09,9E+09,9E+09,9E+09]];
CONST robtarget Target_456:=[[275.40601021314313, 292.7788086776345, 3.0],[0,0.383,0.924,0],[0,0,0,0],[9E+09,9E+09,9E+09,9E+09,9E+09,9E+09]];
CONST robtarget Target_457:=[[278.46978593459875, 297.93761457906356, 3.0],[0,0.383,0.924,0],[0,0,0,0],[9E+09,9E+09,9E+09,9E+09,9E+09,9E+09]];
CONST robtarget Target_458:=[[281.5335616560543, 303.0964204804926, 3.0],[0,0.383,0.924,0],[0,0,0,0],[9E+09,9E+09,9E+09,9E+09,9E+09,9E+09]];
CONST robtarget Target_459:=[[284.5973373775099, 308.25522638192166, 3.0],[0,0.383,0.924,0],[0,0,0,0],[9E+09,9E+09,9E+09,9E+09,9E+09,9E+09]];
CONST robtarget Target_460:=[[287.6611130989655, 313.41403228335076, 3.0],[0,0.383,0.924,0],[0,0,0,0],[9E+09,9E+09,9E+09,9E+09,9E+09,9E+09]];
CONST robtarget Target_461:=[[290.7248888204211, 318.5728381847798, 3.0],[0,0.383,0.924,0],[0,0,0,0],[9E+09,9E+09,9E+09,9E+09,9E+09,9E+09]];
CONST robtarget Target_462:=[[293.78866454187664, 323.73164408620886, 3.0],[0,0.383,0.924,0],[0,0,0,0],[9E+09,9E+09,9E+09,9E+09,9E+09,9E+09]];
CONST robtarget Target_463:=[[296.85244026333226, 328.8904499876379, 3.0],[0,0.383,0.924,0],[0,0,0,0],[9E+09,9E+09,9E+09,9E+09,9E+09,9E+09]];
CONST robtarget Target_464:=[[299.9162159847878, 334.049255889067, 3.0],[0,0.383,0.924,0],[0,0,0,0],[9E+09,9E+09,9E+09,9E+09,9E+09,9E+09]];
CONST robtarget Target_465:=[[302.9799917062434, 339.20806179049606, 3.0],[0,0.383,0.924,0],[0,0,0,0],[9E+09,9E+09,9E+09,9E+09,9E+09,9E+09]];
CONST robtarget Target_466:=[[306.043767427699, 344.3668676919251, 3.0],[0,0.383,0.924,0],[0,0,0,0],[9E+09,9E+09,9E+09,9E+09,9E+09,9E+09]];
CONST robtarget Target_467:=[[309.1075431491546, 349.5256735933542, 3.0],[0,0.383,0.924,0],[0,0,0,0],[9E+09,9E+09,9E+09,9E+09,9E+09,9E+09]];
CONST robtarget Target_468:=[[312.17131887061015, 354.68447949478326, 3.0],[0,0.383,0.924,0],[0,0,0,0],[9E+09,9E+09,9E+09,9E+09,9E+09,9E+09]];
CONST robtarget Target_469:=[[315.23509459206576, 359.8432853962123, 3.0],[0,0.383,0.924,0],[0,0,0,0],[9E+09,9E+09,9E+09,9E+09,9E+09,9E+09]];
CONST robtarget Target_470:=[[318.2988703135213, 365.0020912976414, 3.0],[0,0.383,0.924,0],[0,0,0,0],[9E+09,9E+09,9E+09,9E+09,9E+09,9E+09]];
CONST robtarget Target_471:=[[321.36264603497693, 370.16089719907046, 3.0],[0,0.383,0.924,0],[0,0,0,0],[9E+09,9E+09,9E+09,9E+09,9E+09,9E+09]];
CONST robtarget Target_472:=[[322.21126679265274, 373.2037601860429, 3.0],[0,0.383,0.924,0],[0,0,0,0],[9E+09,9E+09,9E+09,9E+09,9E+09,9E+09]];
CONST robtarget Target_473:=[[321.95021442317443, 375.1866499107603, 3.0],[0,0.383,0.924,0],[0,0,0,0],[9E+09,9E+09,9E+09,9E+09,9E+09,9E+09]];
CONST robtarget Target_474:=[[321.68916205369607, 377.1695396354777, 3.0],[0,0.383,0.924,0],[0,0,0,0],[9E+09,9E+09,9E+09,9E+09,9E+09,9E+09]];
CONST robtarget Target_475:=[[321.42810968421776, 379.152429360195, 3.0],[0,0.383,0.924,0],[0,0,0,0],[9E+09,9E+09,9E+09,9E+09,9E+09,9E+09]];
CONST robtarget Target_476:=[[321.1670573147394, 381.1353190849124, 3.0],[0,0.383,0.924,0],[0,0,0,0],[9E+09,9E+09,9E+09,9E+09,9E+09,9E+09]];
CONST robtarget Target_477:=[[320.9060049452611, 383.1182088096298, 3.0],[0,0.383,0.924,0],[0,0,0,0],[9E+09,9E+09,9E+09,9E+09,9E+09,9E+09]];
CONST robtarget Target_478:=[[320.6449525757827, 385.1010985343471, 3.0],[0,0.383,0.924,0],[0,0,0,0],[9E+09,9E+09,9E+09,9E+09,9E+09,9E+09]];
CONST robtarget Target_479:=[[320.3839002063044, 387.0839882590645, 3.0],[0,0.383,0.924,0],[0,0,0,0],[9E+09,9E+09,9E+09,9E+09,9E+09,9E+09]];
CONST robtarget Target_480:=[[320.12284783682605, 389.06687798378186, 3.0],[0,0.383,0.924,0],[0,0,0,0],[9E+09,9E+09,9E+09,9E+09,9E+09,9E+09]];
CONST robtarget Target_481:=[[319.86179546734775, 391.0497677084992, 3.0],[0,0.383,0.924,0],[0,0,0,0],[9E+09,9E+09,9E+09,9E+09,9E+09,9E+09]];
CONST robtarget Target_482:=[[319.6007430978694, 393.03265743321657, 3.0],[0,0.383,0.924,0],[0,0,0,0],[9E+09,9E+09,9E+09,9E+09,9E+09,9E+09]];
CONST robtarget Target_483:=[[319.339690728391, 395.01554715793395, 3.0],[0,0.383,0.924,0],[0,0,0,0],[9E+09,9E+09,9E+09,9E+09,9E+09,9E+09]];
CONST robtarget Target_484:=[[319.0786383589127, 396.99843688265133, 3.0],[0,0.383,0.924,0],[0,0,0,0],[9E+09,9E+09,9E+09,9E+09,9E+09,9E+09]];
CONST robtarget Target_485:=[[318.8175859894344, 398.9813266073687, 3.0],[0,0.383,0.924,0],[0,0,0,0],[9E+09,9E+09,9E+09,9E+09,9E+09,9E+09]];
CONST robtarget Target_486:=[[318.55653361995604, 400.9642163320861, 3.0],[0,0.383,0.924,0],[0,0,0,0],[9E+09,9E+09,9E+09,9E+09,9E+09,9E+09]];
CONST robtarget Target_487:=[[318.2954812504777, 402.9471060568035, 3.0],[0,0.383,0.924,0],[0,0,0,0],[9E+09,9E+09,9E+09,9E+09,9E+09,9E+09]];
CONST robtarget Target_488:=[[318.03442888099937, 404.9299957815208, 3.0],[0,0.383,0.924,0],[0,0,0,0],[9E+09,9E+09,9E+09,9E+09,9E+09,9E+09]];
CONST robtarget Target_489:=[[317.773376511521, 406.91288550623824, 3.0],[0,0.383,0.924,0],[0,0,0,0],[9E+09,9E+09,9E+09,9E+09,9E+09,9E+09]];
CONST robtarget Target_490:=[[317.31434050127746, 408.84272567316975, 3.0],[0,0.383,0.924,0],[0,0,0,0],[9E+09,9E+09,9E+09,9E+09,9E+09,9E+09]];
CONST robtarget Target_491:=[[316.5489736029565, 410.6904847242786, 3.0],[0,0.383,0.924,0],[0,0,0,0],[9E+09,9E+09,9E+09,9E+09,9E+09,9E+09]];
CONST robtarget Target_492:=[[315.78360670463553, 412.5382437753874, 3.0],[0,0.383,0.924,0],[0,0,0,0],[9E+09,9E+09,9E+09,9E+09,9E+09,9E+09]];
CONST robtarget Target_493:=[[315.01823980631457, 414.3860028264962, 3.0],[0,0.383,0.924,0],[0,0,0,0],[9E+09,9E+09,9E+09,9E+09,9E+09,9E+09]];
CONST robtarget Target_494:=[[314.2528729079936, 416.23376187760505, 3.0],[0,0.383,0.924,0],[0,0,0,0],[9E+09,9E+09,9E+09,9E+09,9E+09,9E+09]];
CONST robtarget Target_495:=[[313.48750600967264, 418.08152092871387, 3.0],[0,0.383,0.924,0],[0,0,0,0],[9E+09,9E+09,9E+09,9E+09,9E+09,9E+09]];
CONST robtarget Target_496:=[[312.7221391113517, 419.9292799798227, 3.0],[0,0.383,0.924,0],[0,0,0,0],[9E+09,9E+09,9E+09,9E+09,9E+09,9E+09]];
CONST robtarget Target_497:=[[311.9567722130307, 421.7770390309315, 3.0],[0,0.383,0.924,0],[0,0,0,0],[9E+09,9E+09,9E+09,9E+09,9E+09,9E+09]];
CONST robtarget Target_498:=[[311.19140531470975, 423.62479808204034, 3.0],[0,0.383,0.924,0],[0,0,0,0],[9E+09,9E+09,9E+09,9E+09,9E+09,9E+09]];
CONST robtarget Target_499:=[[310.31040131691725, 425.4057940240009, 3.0],[0,0.383,0.924,0],[0,0,0,0],[9E+09,9E+09,9E+09,9E+09,9E+09,9E+09]];
CONST robtarget Target_500:=[[309.0928785157351, 426.9925007481946, 3.0],[0,0.383,0.924,0],[0,0,0,0],[9E+09,9E+09,9E+09,9E+09,9E+09,9E+09]];
CONST robtarget Target_501:=[[307.87535571455294, 428.5792074723883, 3.0],[0,0.383,0.924,0],[0,0,0,0],[9E+09,9E+09,9E+09,9E+09,9E+09,9E+09]];
CONST robtarget Target_502:=[[306.6578329133708, 430.165914196582, 3.0],[0,0.383,0.924,0],[0,0,0,0],[9E+09,9E+09,9E+09,9E+09,9E+09,9E+09]];
CONST robtarget Target_503:=[[305.4403101121886, 431.7526209207757, 3.0],[0,0.383,0.924,0],[0,0,0,0],[9E+09,9E+09,9E+09,9E+09,9E+09,9E+09]];
CONST robtarget Target_504:=[[304.22278731100647, 433.33932764496944, 3.0],[0,0.383,0.924,0],[0,0,0,0],[9E+09,9E+09,9E+09,9E+09,9E+09,9E+09]];
CONST robtarget Target_505:=[[303.0052645098243, 434.9260343691632, 3.0],[0,0.383,0.924,0],[0,0,0,0],[9E+09,9E+09,9E+09,9E+09,9E+09,9E+09]];
CONST robtarget Target_506:=[[301.78774170864216, 436.5127410933569, 3.0],[0,0.383,0.924,0],[0,0,0,0],[9E+09,9E+09,9E+09,9E+09,9E+09,9E+09]];
CONST robtarget Target_507:=[[300.57021890746, 438.0994478175506, 3.0],[0,0.383,0.924,0],[0,0,0,0],[9E+09,9E+09,9E+09,9E+09,9E+09,9E+09]];
CONST robtarget Target_508:=[[299.3087954582557, 439.64225389372217, 3.0],[0,0.383,0.924,0],[0,0,0,0],[9E+09,9E+09,9E+09,9E+09,9E+09,9E+09]];
CONST robtarget Target_509:=[[297.722088734062, 440.8597766949043, 3.0],[0,0.383,0.924,0],[0,0,0,0],[9E+09,9E+09,9E+09,9E+09,9E+09,9E+09]];
CONST robtarget Target_510:=[[296.1353820098683, 442.0772994960865, 3.0],[0,0.383,0.924,0],[0,0,0,0],[9E+09,9E+09,9E+09,9E+09,9E+09,9E+09]];
CONST robtarget Target_511:=[[294.54867528567456, 443.29482229726864, 3.0],[0,0.383,0.924,0],[0,0,0,0],[9E+09,9E+09,9E+09,9E+09,9E+09,9E+09]];
CONST robtarget Target_512:=[[292.9619685614809, 444.5123450984508, 3.0],[0,0.383,0.924,0],[0,0,0,0],[9E+09,9E+09,9E+09,9E+09,9E+09,9E+09]];
CONST robtarget Target_513:=[[291.37526183728716, 445.72986789963295, 3.0],[0,0.383,0.924,0],[0,0,0,0],[9E+09,9E+09,9E+09,9E+09,9E+09,9E+09]];
CONST robtarget Target_514:=[[289.7885551130934, 446.9473907008151, 3.0],[0,0.383,0.924,0],[0,0,0,0],[9E+09,9E+09,9E+09,9E+09,9E+09,9E+09]];
CONST robtarget Target_515:=[[288.20184838889975, 448.16491350199726, 3.0],[0,0.383,0.924,0],[0,0,0,0],[9E+09,9E+09,9E+09,9E+09,9E+09,9E+09]];
CONST robtarget Target_516:=[[286.615141664706, 449.3824363031794, 3.0],[0,0.383,0.924,0],[0,0,0,0],[9E+09,9E+09,9E+09,9E+09,9E+09,9E+09]];
CONST robtarget Target_517:=[[285.0284349405123, 450.5999591043616, 3.0],[0,0.383,0.924,0],[0,0,0,0],[9E+09,9E+09,9E+09,9E+09,9E+09,9E+09]];
CONST robtarget Target_518:=[[283.18535413729467, 451.3734289658855, 3.0],[0,0.383,0.924,0],[0,0,0,0],[9E+09,9E+09,9E+09,9E+09,9E+09,9E+09]];
CONST robtarget Target_519:=[[281.3375950861859, 452.1387958642065, 3.0],[0,0.383,0.924,0],[0,0,0,0],[9E+09,9E+09,9E+09,9E+09,9E+09,9E+09]];
CONST robtarget Target_520:=[[279.4898360350771, 452.90416276252745, 3.0],[0,0.383,0.924,0],[0,0,0,0],[9E+09,9E+09,9E+09,9E+09,9E+09,9E+09]];
CONST robtarget Target_521:=[[277.64207698396825, 453.6695296608484, 3.0],[0,0.383,0.924,0],[0,0,0,0],[9E+09,9E+09,9E+09,9E+09,9E+09,9E+09]];
CONST robtarget Target_522:=[[275.7943179328594, 454.4348965591694, 3.0],[0,0.383,0.924,0],[0,0,0,0],[9E+09,9E+09,9E+09,9E+09,9E+09,9E+09]];
CONST robtarget Target_523:=[[273.9465588817506, 455.20026345749034, 3.0],[0,0.383,0.924,0],[0,0,0,0],[9E+09,9E+09,9E+09,9E+09,9E+09,9E+09]];
CONST robtarget Target_524:=[[272.0987998306418, 455.9656303558113, 3.0],[0,0.383,0.924,0],[0,0,0,0],[9E+09,9E+09,9E+09,9E+09,9E+09,9E+09]];
CONST robtarget Target_525:=[[270.251040779533, 456.7309972541322, 3.0],[0,0.383,0.924,0],[0,0,0,0],[9E+09,9E+09,9E+09,9E+09,9E+09,9E+09]];
CONST robtarget Target_526:=[[268.4032817284242, 457.49636415245317, 3.0],[0,0.383,0.924,0],[0,0,0,0],[9E+09,9E+09,9E+09,9E+09,9E+09,9E+09]];
CONST robtarget Target_527:=[[266.4413040616216, 457.8354613829007, 3.0],[0,0.383,0.924,0],[0,0,0,0],[9E+09,9E+09,9E+09,9E+09,9E+09,9E+09]];
CONST robtarget Target_528:=[[264.4584143369043, 458.09651375237905, 3.0],[0,0.383,0.924,0],[0,0,0,0],[9E+09,9E+09,9E+09,9E+09,9E+09,9E+09]];
CONST robtarget Target_529:=[[262.4755246121869, 458.3575661218574, 3.0],[0,0.383,0.924,0],[0,0,0,0],[9E+09,9E+09,9E+09,9E+09,9E+09,9E+09]];
CONST robtarget Target_530:=[[260.49263488746953, 458.6186184913357, 3.0],[0,0.383,0.924,0],[0,0,0,0],[9E+09,9E+09,9E+09,9E+09,9E+09,9E+09]];
CONST robtarget Target_531:=[[258.50974516275215, 458.87967086081403, 3.0],[0,0.383,0.924,0],[0,0,0,0],[9E+09,9E+09,9E+09,9E+09,9E+09,9E+09]];
CONST robtarget Target_532:=[[256.5268554380348, 459.1407232302924, 3.0],[0,0.383,0.924,0],[0,0,0,0],[9E+09,9E+09,9E+09,9E+09,9E+09,9E+09]];
CONST robtarget Target_533:=[[254.5439657133174, 459.40177559977076, 3.0],[0,0.383,0.924,0],[0,0,0,0],[9E+09,9E+09,9E+09,9E+09,9E+09,9E+09]];
CONST robtarget Target_534:=[[252.56107598860004, 459.66282796924907, 3.0],[0,0.383,0.924,0],[0,0,0,0],[9E+09,9E+09,9E+09,9E+09,9E+09,9E+09]];
CONST robtarget Target_535:=[[250.57818626388266, 459.9238803387274, 3.0],[0,0.383,0.924,0],[0,0,0,0],[9E+09,9E+09,9E+09,9E+09,9E+09,9E+09]];
CONST robtarget Target_536:=[[248.59529653916528, 459.81506729179426, 3.0],[0,0.383,0.924,0],[0,0,0,0],[9E+09,9E+09,9E+09,9E+09,9E+09,9E+09]];
CONST robtarget Target_537:=[[246.6124068144479, 459.5540149223159, 3.0],[0,0.383,0.924,0],[0,0,0,0],[9E+09,9E+09,9E+09,9E+09,9E+09,9E+09]];
CONST robtarget Target_538:=[[244.62951708973054, 459.2929625528376, 3.0],[0,0.383,0.924,0],[0,0,0,0],[9E+09,9E+09,9E+09,9E+09,9E+09,9E+09]];
CONST robtarget Target_539:=[[242.64662736501316, 459.0319101833593, 3.0],[0,0.383,0.924,0],[0,0,0,0],[9E+09,9E+09,9E+09,9E+09,9E+09,9E+09]];
CONST robtarget Target_540:=[[240.66373764029578, 458.7708578138809, 3.0],[0,0.383,0.924,0],[0,0,0,0],[9E+09,9E+09,9E+09,9E+09,9E+09,9E+09]];
CONST robtarget Target_541:=[[238.6808479155784, 458.50980544440256, 3.0],[0,0.383,0.924,0],[0,0,0,0],[9E+09,9E+09,9E+09,9E+09,9E+09,9E+09]];
CONST robtarget Target_542:=[[236.69795819086104, 458.24875307492425, 3.0],[0,0.383,0.924,0],[0,0,0,0],[9E+09,9E+09,9E+09,9E+09,9E+09,9E+09]];
CONST robtarget Target_543:=[[234.71506846614366, 457.9877007054459, 3.0],[0,0.383,0.924,0],[0,0,0,0],[9E+09,9E+09,9E+09,9E+09,9E+09,9E+09]];
CONST robtarget Target_544:=[[232.73217874142628, 457.7266483359675, 3.0],[0,0.383,0.924,0],[0,0,0,0],[9E+09,9E+09,9E+09,9E+09,9E+09,9E+09]];
CONST robtarget Target_545:=[[230.82652686227647, 457.17734040869436, 3.0],[0,0.383,0.924,0],[0,0,0,0],[9E+09,9E+09,9E+09,9E+09,9E+09,9E+09]];
CONST robtarget Target_546:=[[228.97876781116764, 456.41197351037346, 3.0],[0,0.383,0.924,0],[0,0,0,0],[9E+09,9E+09,9E+09,9E+09,9E+09,9E+09]];
CONST robtarget Target_547:=[[227.13100876005885, 455.6466066120525, 3.0],[0,0.383,0.924,0],[0,0,0,0],[9E+09,9E+09,9E+09,9E+09,9E+09,9E+09]];
CONST robtarget Target_548:=[[225.28324970895002, 454.88123971373153, 3.0],[0,0.383,0.924,0],[0,0,0,0],[9E+09,9E+09,9E+09,9E+09,9E+09,9E+09]];
CONST robtarget Target_549:=[[223.43549065784123, 454.1158728154106, 3.0],[0,0.383,0.924,0],[0,0,0,0],[9E+09,9E+09,9E+09,9E+09,9E+09,9E+09]];
CONST robtarget Target_550:=[[221.5877316067324, 453.35050591708966, 3.0],[0,0.383,0.924,0],[0,0,0,0],[9E+09,9E+09,9E+09,9E+09,9E+09,9E+09]];
CONST robtarget Target_551:=[[219.73997255562358, 452.5851390187687, 3.0],[0,0.383,0.924,0],[0,0,0,0],[9E+09,9E+09,9E+09,9E+09,9E+09,9E+09]];
CONST robtarget Target_552:=[[217.89221350451476, 451.81977212044774, 3.0],[0,0.383,0.924,0],[0,0,0,0],[9E+09,9E+09,9E+09,9E+09,9E+09,9E+09]];
CONST robtarget Target_553:=[[216.04445445340596, 451.0544052221268, 3.0],[0,0.383,0.924,0],[0,0,0,0],[9E+09,9E+09,9E+09,9E+09,9E+09,9E+09]];
CONST robtarget Target_554:=[[212.57122790057628, 451.53259706748634, 3.8248659960306135],[0,0.383,0.924,0],[0,0,0,0],[9E+09,9E+09,9E+09,9E+09,9E+09,9E+09]];
CONST robtarget Target_555:=[[206.98457292234662, 453.6276606096143, 5.722220516938801],[0,0.383,0.924,0],[0,0,0,0],[9E+09,9E+09,9E+09,9E+09,9E+09,9E+09]];
CONST robtarget Target_556:=[[201.39791794411698, 455.7227241517422, 7.619575037846989],[0,0.383,0.924,0],[0,0,0,0],[9E+09,9E+09,9E+09,9E+09,9E+09,9E+09]];
CONST robtarget Target_557:=[[195.81126296588732, 457.81778769387023, 9.516929558755177],[0,0.383,0.924,0],[0,0,0,0],[9E+09,9E+09,9E+09,9E+09,9E+09,9E+09]];
CONST robtarget Target_558:=[[190.22460798765766, 459.91285123599823, 11.414284079663364],[0,0.383,0.924,0],[0,0,0,0],[9E+09,9E+09,9E+09,9E+09,9E+09,9E+09]];
CONST robtarget Target_559:=[[184.637953009428, 462.0079147781262, 13.311638600571552],[0,0.383,0.924,0],[0,0,0,0],[9E+09,9E+09,9E+09,9E+09,9E+09,9E+09]];
CONST robtarget Target_560:=[[179.05129803119834, 464.1029783202541, 15.20899312147974],[0,0.383,0.924,0],[0,0,0,0],[9E+09,9E+09,9E+09,9E+09,9E+09,9E+09]];
CONST robtarget Target_561:=[[173.46464305296868, 466.1980418623821, 17.106347642387927],[0,0.383,0.924,0],[0,0,0,0],[9E+09,9E+09,9E+09,9E+09,9E+09,9E+09]];
CONST robtarget Target_562:=[[167.87798807473902, 468.29310540451013, 19.003702163296115],[0,0.383,0.924,0],[0,0,0,0],[9E+09,9E+09,9E+09,9E+09,9E+09,9E+09]];
CONST robtarget Target_563:=[[162.29133309650936, 470.3881689466381, 20.901056684204303],[0,0.383,0.924,0],[0,0,0,0],[9E+09,9E+09,9E+09,9E+09,9E+09,9E+09]];
CONST robtarget Target_564:=[[156.7046781182797, 472.4832324887661, 22.79841120511249],[0,0.383,0.924,0],[0,0,0,0],[9E+09,9E+09,9E+09,9E+09,9E+09,9E+09]];
CONST robtarget Target_565:=[[151.11802314005004, 474.578296030894, 24.695765726020678],[0,0.383,0.924,0],[0,0,0,0],[9E+09,9E+09,9E+09,9E+09,9E+09,9E+09]];
CONST robtarget Target_566:=[[145.53136816182035, 476.673359573022, 26.593120246928876],[0,0.383,0.924,0],[0,0,0,0],[9E+09,9E+09,9E+09,9E+09,9E+09,9E+09]];
CONST robtarget Target_567:=[[139.9447131835907, 478.76842311515, 28.490474767837064],[0,0.383,0.924,0],[0,0,0,0],[9E+09,9E+09,9E+09,9E+09,9E+09,9E+09]];
CONST robtarget Target_568:=[[134.35805820536103, 480.863486657278, 30.38782928874525],[0,0.383,0.924,0],[0,0,0,0],[9E+09,9E+09,9E+09,9E+09,9E+09,9E+09]];
CONST robtarget Target_569:=[[128.77140322713137, 482.958550199406, 32.28518380965344],[0,0.383,0.924,0],[0,0,0,0],[9E+09,9E+09,9E+09,9E+09,9E+09,9E+09]];
CONST robtarget Target_570:=[[123.18474824890171, 485.0536137415339, 34.18253833056163],[0,0.383,0.924,0],[0,0,0,0],[9E+09,9E+09,9E+09,9E+09,9E+09,9E+09]];
CONST robtarget Target_571:=[[117.59809327067205, 487.14867728366187, 36.079892851469815],[0,0.383,0.924,0],[0,0,0,0],[9E+09,9E+09,9E+09,9E+09,9E+09,9E+09]];
CONST robtarget Target_572:=[[112.01143829244239, 489.24374082578987, 37.977247372378],[0,0.383,0.924,0],[0,0,0,0],[9E+09,9E+09,9E+09,9E+09,9E+09,9E+09]];
CONST robtarget Target_573:=[[106.42478331421273, 491.3388043679179, 39.87460189328619],[0,0.383,0.924,0],[0,0,0,0],[9E+09,9E+09,9E+09,9E+09,9E+09,9E+09]];
CONST robtarget Target_574:=[[100.83812833598307, 493.4338679100458, 41.77195641419438],[0,0.383,0.924,0],[0,0,0,0],[9E+09,9E+09,9E+09,9E+09,9E+09,9E+09]];
CONST robtarget Target_575:=[[95.25147335775341, 495.5289314521738, 43.669310935102565],[0,0.383,0.924,0],[0,0,0,0],[9E+09,9E+09,9E+09,9E+09,9E+09,9E+09]];
CONST robtarget Target_576:=[[89.66481837952375, 497.62399499430177, 45.56666545601076],[0,0.383,0.924,0],[0,0,0,0],[9E+09,9E+09,9E+09,9E+09,9E+09,9E+09]];
CONST robtarget Target_577:=[[84.07816340129406, 499.71905853642977, 47.464019976918955],[0,0.383,0.924,0],[0,0,0,0],[9E+09,9E+09,9E+09,9E+09,9E+09,9E+09]];
CONST robtarget Target_578:=[[78.49150842306443, 501.8141220785577, 49.36137449782714],[0,0.383,0.924,0],[0,0,0,0],[9E+09,9E+09,9E+09,9E+09,9E+09,9E+09]];
CONST robtarget Target_579:=[[72.90485344483477, 503.9091856206857, 51.25872901873532],[0,0.383,0.924,0],[0,0,0,0],[9E+09,9E+09,9E+09,9E+09,9E+09,9E+09]];
CONST robtarget Target_580:=[[67.31819846660511, 506.0042491628137, 53.156083539643525],[0,0.383,0.924,0],[0,0,0,0],[9E+09,9E+09,9E+09,9E+09,9E+09,9E+09]];
CONST robtarget Target_581:=[[61.73154348837545, 508.09931270494167, 55.05343806055171],[0,0.383,0.924,0],[0,0,0,0],[9E+09,9E+09,9E+09,9E+09,9E+09,9E+09]];
CONST robtarget Target_582:=[[56.14488851014579, 510.19437624706967, 56.9507925814599],[0,0.383,0.924,0],[0,0,0,0],[9E+09,9E+09,9E+09,9E+09,9E+09,9E+09]];
CONST robtarget Target_583:=[[50.55823353191613, 512.2894397891976, 58.84814710236809],[0,0.383,0.924,0],[0,0,0,0],[9E+09,9E+09,9E+09,9E+09,9E+09,9E+09]];
CONST robtarget Target_584:=[[44.97157855368647, 514.3845033313256, 60.745501623276276],[0,0.383,0.924,0],[0,0,0,0],[9E+09,9E+09,9E+09,9E+09,9E+09,9E+09]];
CONST robtarget Target_585:=[[39.38492357545681, 516.4795668734536, 62.642856144184464],[0,0.383,0.924,0],[0,0,0,0],[9E+09,9E+09,9E+09,9E+09,9E+09,9E+09]];
CONST robtarget Target_586:=[[33.79826859722715, 518.5746304155816, 64.54021066509264],[0,0.383,0.924,0],[0,0,0,0],[9E+09,9E+09,9E+09,9E+09,9E+09,9E+09]];
CONST robtarget Target_587:=[[28.21161361899749, 520.6696939577096, 66.43756518600084],[0,0.383,0.924,0],[0,0,0,0],[9E+09,9E+09,9E+09,9E+09,9E+09,9E+09]];
CONST robtarget Target_588:=[[22.62495864076783, 522.7647574998375, 68.33491970690903],[0,0.383,0.924,0],[0,0,0,0],[9E+09,9E+09,9E+09,9E+09,9E+09,9E+09]];
CONST robtarget Target_589:=[[17.03830366253817, 524.8598210419655, 70.23227422781721],[0,0.383,0.924,0],[0,0,0,0],[9E+09,9E+09,9E+09,9E+09,9E+09,9E+09]];
CONST robtarget Target_590:=[[11.45164868430848, 526.9548845840934, 72.1296287487254],[0,0.383,0.924,0],[0,0,0,0],[9E+09,9E+09,9E+09,9E+09,9E+09,9E+09]];
CONST robtarget Target_591:=[[5.86499370607882, 529.0499481262215, 74.02698326963359],[0,0.383,0.924,0],[0,0,0,0],[9E+09,9E+09,9E+09,9E+09,9E+09,9E+09]];
CONST robtarget Target_592:=[[0.27833872784916025, 531.1450116683494, 75.92433779054178],[0,0.383,0.924,0],[0,0,0,0],[9E+09,9E+09,9E+09,9E+09,9E+09,9E+09]];
CONST robtarget Target_593:=[[-5.3083162503805, 533.2400752104775, 77.82169231144997],[0,0.383,0.924,0],[0,0,0,0],[9E+09,9E+09,9E+09,9E+09,9E+09,9E+09]];
CONST robtarget Target_594:=[[-10.894971228610189, 535.3351387526054, 79.71904683235815],[0,0.383,0.924,0],[0,0,0,0],[9E+09,9E+09,9E+09,9E+09,9E+09,9E+09]];
CONST robtarget Target_595:=[[-16.48162620683985, 537.4302022947334, 81.61640135326634],[0,0.383,0.924,0],[0,0,0,0],[9E+09,9E+09,9E+09,9E+09,9E+09,9E+09]];
CONST robtarget Target_596:=[[-22.06828118506951, 539.5252658368613, 83.51375587417454],[0,0.383,0.924,0],[0,0,0,0],[9E+09,9E+09,9E+09,9E+09,9E+09,9E+09]];
CONST robtarget Target_597:=[[-27.654936163299112, 541.6203293789893, 85.41111039508272],[0,0.383,0.924,0],[0,0,0,0],[9E+09,9E+09,9E+09,9E+09,9E+09,9E+09]];
CONST robtarget Target_598:=[[-33.24159114152883, 543.7153929211172, 87.30846491599091],[0,0.383,0.924,0],[0,0,0,0],[9E+09,9E+09,9E+09,9E+09,9E+09,9E+09]];
CONST robtarget Target_599:=[[-38.82824611975849, 545.8104564632453, 89.2058194368991],[0,0.383,0.924,0],[0,0,0,0],[9E+09,9E+09,9E+09,9E+09,9E+09,9E+09]];
CONST robtarget Target_600:=[[-44.41490109798815, 547.9055200053732, 91.10317395780729],[0,0.383,0.924,0],[0,0,0,0],[9E+09,9E+09,9E+09,9E+09,9E+09,9E+09]];
CONST robtarget Target_601:=[[-50.0, 550.0, 93.0],[0,0.383,0.924,0],[0,0,0,0],[9E+09,9E+09,9E+09,9E+09,9E+09,9E+09]];
CONST robtarget Target_602:=[[-47.35446233839281, 548.6185367869392, 92.03850160370969],[0,0.383,0.924,0],[0,0,0,0],[9E+09,9E+09,9E+09,9E+09,9E+09,9E+09]];
CONST robtarget Target_603:=[[-42.06633286830055, 545.8571486446147, 90.11657545665182],[0,0.383,0.924,0],[0,0,0,0],[9E+09,9E+09,9E+09,9E+09,9E+09,9E+09]];
CONST robtarget Target_604:=[[-36.77820339820835, 543.0957605022902, 88.19464930959394],[0,0.383,0.924,0],[0,0,0,0],[9E+09,9E+09,9E+09,9E+09,9E+09,9E+09]];
CONST robtarget Target_605:=[[-31.490073928116146, 540.3343723599656, 86.27272316253608],[0,0.383,0.924,0],[0,0,0,0],[9E+09,9E+09,9E+09,9E+09,9E+09,9E+09]];
CONST robtarget Target_606:=[[-26.20194445802389, 537.5729842176411, 84.35079701547821],[0,0.383,0.924,0],[0,0,0,0],[9E+09,9E+09,9E+09,9E+09,9E+09,9E+09]];
CONST robtarget Target_607:=[[-20.913814987931687, 534.8115960753165, 82.42887086842033],[0,0.383,0.924,0],[0,0,0,0],[9E+09,9E+09,9E+09,9E+09,9E+09,9E+09]];
CONST robtarget Target_608:=[[-15.625685517839429, 532.050207932992, 80.50694472136246],[0,0.383,0.924,0],[0,0,0,0],[9E+09,9E+09,9E+09,9E+09,9E+09,9E+09]];
CONST robtarget Target_609:=[[-10.337556047747228, 529.2888197906675, 78.5850185743046],[0,0.383,0.924,0],[0,0,0,0],[9E+09,9E+09,9E+09,9E+09,9E+09,9E+09]];
CONST robtarget Target_610:=[[-5.049426577654998, 526.5274316483429, 76.66309242724671],[0,0.383,0.924,0],[0,0,0,0],[9E+09,9E+09,9E+09,9E+09,9E+09,9E+09]];
CONST robtarget Target_611:=[[0.23870289243723164, 523.7660435060184, 74.74116628018885],[0,0.383,0.924,0],[0,0,0,0],[9E+09,9E+09,9E+09,9E+09,9E+09,9E+09]];
CONST robtarget Target_612:=[[5.526832362529461, 521.0046553636939, 72.81924013313098],[0,0.383,0.924,0],[0,0,0,0],[9E+09,9E+09,9E+09,9E+09,9E+09,9E+09]];
CONST robtarget Target_613:=[[10.814961832621691, 518.2432672213694, 70.8973139860731],[0,0.383,0.924,0],[0,0,0,0],[9E+09,9E+09,9E+09,9E+09,9E+09,9E+09]];
CONST robtarget Target_614:=[[16.10309130271392, 515.4818790790448, 68.97538783901523],[0,0.383,0.924,0],[0,0,0,0],[9E+09,9E+09,9E+09,9E+09,9E+09,9E+09]];
CONST robtarget Target_615:=[[21.39122077280615, 512.7204909367204, 67.05346169195735],[0,0.383,0.924,0],[0,0,0,0],[9E+09,9E+09,9E+09,9E+09,9E+09,9E+09]];
CONST robtarget Target_616:=[[26.67935024289838, 509.95910279439573, 65.13153554489948],[0,0.383,0.924,0],[0,0,0,0],[9E+09,9E+09,9E+09,9E+09,9E+09,9E+09]];
CONST robtarget Target_617:=[[31.96747971299061, 507.1977146520712, 63.209609397841604],[0,0.383,0.924,0],[0,0,0,0],[9E+09,9E+09,9E+09,9E+09,9E+09,9E+09]];
CONST robtarget Target_618:=[[37.25560918308284, 504.43632650974666, 61.28768325078373],[0,0.383,0.924,0],[0,0,0,0],[9E+09,9E+09,9E+09,9E+09,9E+09,9E+09]];
CONST robtarget Target_619:=[[42.54373865317504, 501.67493836742216, 59.36575710372587],[0,0.383,0.924,0],[0,0,0,0],[9E+09,9E+09,9E+09,9E+09,9E+09,9E+09]];
CONST robtarget Target_620:=[[47.83186812326727, 498.91355022509765, 57.443830956667995],[0,0.383,0.924,0],[0,0,0,0],[9E+09,9E+09,9E+09,9E+09,9E+09,9E+09]];
CONST robtarget Target_621:=[[53.1199975933595, 496.1521620827731, 55.52190480961012],[0,0.383,0.924,0],[0,0,0,0],[9E+09,9E+09,9E+09,9E+09,9E+09,9E+09]];
CONST robtarget Target_622:=[[58.40812706345173, 493.3907739404485, 53.599978662552246],[0,0.383,0.924,0],[0,0,0,0],[9E+09,9E+09,9E+09,9E+09,9E+09,9E+09]];
CONST robtarget Target_623:=[[63.69625653354396, 490.629385798124, 51.67805251549437],[0,0.383,0.924,0],[0,0,0,0],[9E+09,9E+09,9E+09,9E+09,9E+09,9E+09]];
CONST robtarget Target_624:=[[68.98438600363619, 487.8679976557995, 49.756126368436504],[0,0.383,0.924,0],[0,0,0,0],[9E+09,9E+09,9E+09,9E+09,9E+09,9E+09]];
CONST robtarget Target_625:=[[74.27251547372842, 485.10660951347495, 47.83420022137864],[0,0.383,0.924,0],[0,0,0,0],[9E+09,9E+09,9E+09,9E+09,9E+09,9E+09]];
CONST robtarget Target_626:=[[79.56064494382065, 482.3452213711504, 45.91227407432076],[0,0.383,0.924,0],[0,0,0,0],[9E+09,9E+09,9E+09,9E+09,9E+09,9E+09]];
CONST robtarget Target_627:=[[84.84877441391288, 479.5838332288259, 43.99034792726289],[0,0.383,0.924,0],[0,0,0,0],[9E+09,9E+09,9E+09,9E+09,9E+09,9E+09]];
CONST robtarget Target_628:=[[90.13690388400511, 476.8224450865014, 42.06842178020502],[0,0.383,0.924,0],[0,0,0,0],[9E+09,9E+09,9E+09,9E+09,9E+09,9E+09]];
CONST robtarget Target_629:=[[95.42503335409734, 474.0610569441768, 40.14649563314715],[0,0.383,0.924,0],[0,0,0,0],[9E+09,9E+09,9E+09,9E+09,9E+09,9E+09]];
CONST robtarget Target_630:=[[100.71316282418957, 471.29966880185225, 38.22456948608927],[0,0.383,0.924,0],[0,0,0,0],[9E+09,9E+09,9E+09,9E+09,9E+09,9E+09]];
CONST robtarget Target_631:=[[106.00129229428177, 468.53828065952774, 36.302643339031405],[0,0.383,0.924,0],[0,0,0,0],[9E+09,9E+09,9E+09,9E+09,9E+09,9E+09]];
CONST robtarget Target_632:=[[111.289421764374, 465.77689251720324, 34.38071719197353],[0,0.383,0.924,0],[0,0,0,0],[9E+09,9E+09,9E+09,9E+09,9E+09,9E+09]];
CONST robtarget Target_633:=[[116.57755123446623, 463.0155043748787, 32.45879104491566],[0,0.383,0.924,0],[0,0,0,0],[9E+09,9E+09,9E+09,9E+09,9E+09,9E+09]];
CONST robtarget Target_634:=[[121.86568070455846, 460.2541162325541, 30.536864897857786],[0,0.383,0.924,0],[0,0,0,0],[9E+09,9E+09,9E+09,9E+09,9E+09,9E+09]];
CONST robtarget Target_635:=[[127.15381017465069, 457.4927280902296, 28.614938750799915],[0,0.383,0.924,0],[0,0,0,0],[9E+09,9E+09,9E+09,9E+09,9E+09,9E+09]];
CONST robtarget Target_636:=[[132.44193964474292, 454.7313399479051, 26.693012603742044],[0,0.383,0.924,0],[0,0,0,0],[9E+09,9E+09,9E+09,9E+09,9E+09,9E+09]];
CONST robtarget Target_637:=[[137.73006911483515, 451.96995180558054, 24.771086456684174],[0,0.383,0.924,0],[0,0,0,0],[9E+09,9E+09,9E+09,9E+09,9E+09,9E+09]];
CONST robtarget Target_638:=[[143.01819858492738, 449.20856366325603, 22.8491603096263],[0,0.383,0.924,0],[0,0,0,0],[9E+09,9E+09,9E+09,9E+09,9E+09,9E+09]];
CONST robtarget Target_639:=[[148.3063280550196, 446.4471755209315, 20.927234162568432],[0,0.383,0.924,0],[0,0,0,0],[9E+09,9E+09,9E+09,9E+09,9E+09,9E+09]];
CONST robtarget Target_640:=[[153.5944575251118, 443.68578737860696, 19.005308015510558],[0,0.383,0.924,0],[0,0,0,0],[9E+09,9E+09,9E+09,9E+09,9E+09,9E+09]];
CONST robtarget Target_641:=[[158.88258699520406, 440.9243992362824, 17.083381868452683],[0,0.383,0.924,0],[0,0,0,0],[9E+09,9E+09,9E+09,9E+09,9E+09,9E+09]];
CONST robtarget Target_642:=[[164.17071646529627, 438.1630110939579, 15.161455721394812],[0,0.383,0.924,0],[0,0,0,0],[9E+09,9E+09,9E+09,9E+09,9E+09,9E+09]];
CONST robtarget Target_643:=[[169.4588459353885, 435.4016229516334, 13.239529574336942],[0,0.383,0.924,0],[0,0,0,0],[9E+09,9E+09,9E+09,9E+09,9E+09,9E+09]];
CONST robtarget Target_644:=[[174.74697540548073, 432.6402348093088, 11.317603427279069],[0,0.383,0.924,0],[0,0,0,0],[9E+09,9E+09,9E+09,9E+09,9E+09,9E+09]];
CONST robtarget Target_645:=[[180.03510487557296, 429.87884666698426, 9.395677280221197],[0,0.383,0.924,0],[0,0,0,0],[9E+09,9E+09,9E+09,9E+09,9E+09,9E+09]];
CONST robtarget Target_646:=[[185.32323434566518, 427.11745852465975, 7.473751133163325],[0,0.383,0.924,0],[0,0,0,0],[9E+09,9E+09,9E+09,9E+09,9E+09,9E+09]];
CONST robtarget Target_647:=[[189.1997456725851, 424.5691200519476, 6.0],[0,0.383,0.924,0],[0,0,0,0],[9E+09,9E+09,9E+09,9E+09,9E+09,9E+09]];
CONST robtarget Target_648:=[[188.43437877426413, 422.7213610008388, 6.0],[0,0.383,0.924,0],[0,0,0,0],[9E+09,9E+09,9E+09,9E+09,9E+09,9E+09]];
CONST robtarget Target_649:=[[187.66901187594317, 420.87360194972996, 6.0],[0,0.383,0.924,0],[0,0,0,0],[9E+09,9E+09,9E+09,9E+09,9E+09,9E+09]];
CONST robtarget Target_650:=[[186.90364497762224, 419.02584289862114, 6.0],[0,0.383,0.924,0],[0,0,0,0],[9E+09,9E+09,9E+09,9E+09,9E+09,9E+09]];
CONST robtarget Target_651:=[[186.1382780793013, 417.1780838475123, 6.0],[0,0.383,0.924,0],[0,0,0,0],[9E+09,9E+09,9E+09,9E+09,9E+09,9E+09]];
CONST robtarget Target_652:=[[185.37291118098034, 415.3303247964035, 6.0],[0,0.383,0.924,0],[0,0,0,0],[9E+09,9E+09,9E+09,9E+09,9E+09,9E+09]];
CONST robtarget Target_653:=[[184.60754428265938, 413.48256574529466, 6.0],[0,0.383,0.924,0],[0,0,0,0],[9E+09,9E+09,9E+09,9E+09,9E+09,9E+09]];
CONST robtarget Target_654:=[[183.8421773843384, 411.6348066941859, 6.0],[0,0.383,0.924,0],[0,0,0,0],[9E+09,9E+09,9E+09,9E+09,9E+09,9E+09]];
CONST robtarget Target_655:=[[183.07681048601748, 409.7870476430771, 6.0],[0,0.383,0.924,0],[0,0,0,0],[9E+09,9E+09,9E+09,9E+09,9E+09,9E+09]];
CONST robtarget Target_656:=[[182.36003779249597, 407.9262678137585, 6.0],[0,0.383,0.924,0],[0,0,0,0],[9E+09,9E+09,9E+09,9E+09,9E+09,9E+09]];
CONST robtarget Target_657:=[[182.0989854230176, 405.9433780890411, 6.0],[0,0.383,0.924,0],[0,0,0,0],[9E+09,9E+09,9E+09,9E+09,9E+09,9E+09]];
CONST robtarget Target_658:=[[181.8379330535393, 403.96048836432374, 6.0],[0,0.383,0.924,0],[0,0,0,0],[9E+09,9E+09,9E+09,9E+09,9E+09,9E+09]];
CONST robtarget Target_659:=[[181.57688068406094, 401.97759863960636, 6.0],[0,0.383,0.924,0],[0,0,0,0],[9E+09,9E+09,9E+09,9E+09,9E+09,9E+09]];
CONST robtarget Target_660:=[[181.31582831458263, 399.994708914889, 6.0],[0,0.383,0.924,0],[0,0,0,0],[9E+09,9E+09,9E+09,9E+09,9E+09,9E+09]];
CONST robtarget Target_661:=[[181.05477594510427, 398.01181919017165, 6.0],[0,0.383,0.924,0],[0,0,0,0],[9E+09,9E+09,9E+09,9E+09,9E+09,9E+09]];
CONST robtarget Target_662:=[[180.79372357562593, 396.0289294654542, 6.0],[0,0.383,0.924,0],[0,0,0,0],[9E+09,9E+09,9E+09,9E+09,9E+09,9E+09]];
CONST robtarget Target_663:=[[180.5326712061476, 394.0460397407369, 6.0],[0,0.383,0.924,0],[0,0,0,0],[9E+09,9E+09,9E+09,9E+09,9E+09,9E+09]];
CONST robtarget Target_664:=[[180.27161883666926, 392.0631500160195, 6.0],[0,0.383,0.924,0],[0,0,0,0],[9E+09,9E+09,9E+09,9E+09,9E+09,9E+09]];
CONST robtarget Target_665:=[[180.01056646719093, 390.0802602913021, 6.0],[0,0.383,0.924,0],[0,0,0,0],[9E+09,9E+09,9E+09,9E+09,9E+09,9E+09]];
CONST robtarget Target_666:=[[179.74951409771256, 388.09737056658474, 6.0],[0,0.383,0.924,0],[0,0,0,0],[9E+09,9E+09,9E+09,9E+09,9E+09,9E+09]];
CONST robtarget Target_667:=[[179.48846172823426, 386.11448084186736, 6.0],[0,0.383,0.924,0],[0,0,0,0],[9E+09,9E+09,9E+09,9E+09,9E+09,9E+09]];
CONST robtarget Target_668:=[[179.2274093587559, 384.13159111715, 6.0],[0,0.383,0.924,0],[0,0,0,0],[9E+09,9E+09,9E+09,9E+09,9E+09,9E+09]];
CONST robtarget Target_669:=[[178.96635698927759, 382.1487013924326, 6.0],[0,0.383,0.924,0],[0,0,0,0],[9E+09,9E+09,9E+09,9E+09,9E+09,9E+09]];
CONST robtarget Target_670:=[[178.70530461979922, 380.1658116677153, 6.0],[0,0.383,0.924,0],[0,0,0,0],[9E+09,9E+09,9E+09,9E+09,9E+09,9E+09]];
CONST robtarget Target_671:=[[178.4442522503209, 378.18292194299784, 6.0],[0,0.383,0.924,0],[0,0,0,0],[9E+09,9E+09,9E+09,9E+09,9E+09,9E+09]];
CONST robtarget Target_672:=[[178.18319988084255, 376.2000322182805, 6.0],[0,0.383,0.924,0],[0,0,0,0],[9E+09,9E+09,9E+09,9E+09,9E+09,9E+09]];
CONST robtarget Target_673:=[[177.92214751136422, 374.21714249356313, 6.0],[0,0.383,0.924,0],[0,0,0,0],[9E+09,9E+09,9E+09,9E+09,9E+09,9E+09]];
CONST robtarget Target_674:=[[177.66109514188588, 372.23425276884575, 6.0],[0,0.383,0.924,0],[0,0,0,0],[9E+09,9E+09,9E+09,9E+09,9E+09,9E+09]];
CONST robtarget Target_675:=[[176.98514814884408, 370.3625337258205, 6.0],[0,0.383,0.924,0],[0,0,0,0],[9E+09,9E+09,9E+09,9E+09,9E+09,9E+09]];
CONST robtarget Target_676:=[[176.2197812505231, 368.5147746747117, 6.0],[0,0.383,0.924,0],[0,0,0,0],[9E+09,9E+09,9E+09,9E+09,9E+09,9E+09]];
CONST robtarget Target_677:=[[175.45441435220215, 366.66701562360294, 6.0],[0,0.383,0.924,0],[0,0,0,0],[9E+09,9E+09,9E+09,9E+09,9E+09,9E+09]];
CONST robtarget Target_678:=[[174.68904745388122, 364.8192565724941, 6.0],[0,0.383,0.924,0],[0,0,0,0],[9E+09,9E+09,9E+09,9E+09,9E+09,9E+09]];
CONST robtarget Target_679:=[[173.92368055556028, 362.9714975213853, 6.0],[0,0.383,0.924,0],[0,0,0,0],[9E+09,9E+09,9E+09,9E+09,9E+09,9E+09]];
CONST robtarget Target_680:=[[173.15831365723932, 361.12373847027646, 6.0],[0,0.383,0.924,0],[0,0,0,0],[9E+09,9E+09,9E+09,9E+09,9E+09,9E+09]];
CONST robtarget Target_681:=[[172.39294675891836, 359.27597941916764, 6.0],[0,0.383,0.924,0],[0,0,0,0],[9E+09,9E+09,9E+09,9E+09,9E+09,9E+09]];
CONST robtarget Target_682:=[[171.62757986059742, 357.4282203680589, 6.0],[0,0.383,0.924,0],[0,0,0,0],[9E+09,9E+09,9E+09,9E+09,9E+09,9E+09]];
