CONST robtarget Target_1:=[[850.0, 250.0, 93.0],[0,0.924,0.383,0],[0,0,0,0],[9E+09,9E+09,9E+09,9E+09,9E+09,9E+09]];
CONST robtarget Target_2:=[[847.0197864667496, 250.2611746658128, 92.32840800219562],[0,0.924,0.383,0],[0,0,0,0],[9E+09,9E+09,9E+09,9E+09,9E+09,9E+09]];
CONST robtarget Target_3:=[[844.0395729334991, 250.52234933162563, 91.65681600439123],[0,0.924,0.383,0],[0,0,0,0],[9E+09,9E+09,9E+09,9E+09,9E+09,9E+09]];
CONST robtarget Target_4:=[[841.0593594002486, 250.78352399743846, 90.98522400658685],[0,0.924,0.383,0],[0,0,0,0],[9E+09,9E+09,9E+09,9E+09,9E+09,9E+09]];
CONST robtarget Target_5:=[[838.0791458669981, 251.04469866325127, 90.31363200878246],[0,0.924,0.383,0],[0,0,0,0],[9E+09,9E+09,9E+09,9E+09,9E+09,9E+09]];
CONST robtarget Target_6:=[[835.0989323337476, 251.30587332906407, 89.64204001097808],[0,0.924,0.383,0],[0,0,0,0],[9E+09,9E+09,9E+09,9E+09,9E+09,9E+09]];
CONST robtarget Target_7:=[[832.1187188004972, 251.5670479948769, 88.97044801317371],[0,0.924,0.383,0],[0,0,0,0],[9E+09,9E+09,9E+09,9E+09,9E+09,9E+09]];
CONST robtarget Target_8:=[[829.1385052672467, 251.8282226606897, 88.29885601536932],[0,0.924,0.383,0],[0,0,0,0],[9E+09,9E+09,9E+09,9E+09,9E+09,9E+09]];
CONST robtarget Target_9:=[[826.1582917339963, 252.08939732650254, 87.62726401756494],[0,0.924,0.383,0],[0,0,0,0],[9E+09,9E+09,9E+09,9E+09,9E+09,9E+09]];
CONST robtarget Target_10:=[[823.1780782007457, 252.35057199231534, 86.95567201976056],[0,0.924,0.383,0],[0,0,0,0],[9E+09,9E+09,9E+09,9E+09,9E+09,9E+09]];
CONST robtarget Target_11:=[[820.1978646674953, 252.61174665812814, 86.28408002195617],[0,0.924,0.383,0],[0,0,0,0],[9E+09,9E+09,9E+09,9E+09,9E+09,9E+09]];
CONST robtarget Target_12:=[[817.2176511342448, 252.87292132394097, 85.61248802415179],[0,0.924,0.383,0],[0,0,0,0],[9E+09,9E+09,9E+09,9E+09,9E+09,9E+09]];
CONST robtarget Target_13:=[[814.2374376009943, 253.13409598975377, 84.94089602634742],[0,0.924,0.383,0],[0,0,0,0],[9E+09,9E+09,9E+09,9E+09,9E+09,9E+09]];
CONST robtarget Target_14:=[[811.2572240677439, 253.3952706555666, 84.26930402854302],[0,0.924,0.383,0],[0,0,0,0],[9E+09,9E+09,9E+09,9E+09,9E+09,9E+09]];
CONST robtarget Target_15:=[[808.2770105344935, 253.6564453213794, 83.59771203073863],[0,0.924,0.383,0],[0,0,0,0],[9E+09,9E+09,9E+09,9E+09,9E+09,9E+09]];
CONST robtarget Target_16:=[[805.296797001243, 253.91761998719224, 82.92612003293425],[0,0.924,0.383,0],[0,0,0,0],[9E+09,9E+09,9E+09,9E+09,9E+09,9E+09]];
CONST robtarget Target_17:=[[802.3165834679925, 254.17879465300504, 82.25452803512988],[0,0.924,0.383,0],[0,0,0,0],[9E+09,9E+09,9E+09,9E+09,9E+09,9E+09]];
CONST robtarget Target_18:=[[799.336369934742, 254.43996931881787, 81.58293603732551],[0,0.924,0.383,0],[0,0,0,0],[9E+09,9E+09,9E+09,9E+09,9E+09,9E+09]];
CONST robtarget Target_19:=[[796.3561564014915, 254.70114398463068, 80.91134403952111],[0,0.924,0.383,0],[0,0,0,0],[9E+09,9E+09,9E+09,9E+09,9E+09,9E+09]];
CONST robtarget Target_20:=[[793.375942868241, 254.96231865044348, 80.23975204171674],[0,0.924,0.383,0],[0,0,0,0],[9E+09,9E+09,9E+09,9E+09,9E+09,9E+09]];
CONST robtarget Target_21:=[[790.3957293349906, 255.2234933162563, 79.56816004391234],[0,0.924,0.383,0],[0,0,0,0],[9E+09,9E+09,9E+09,9E+09,9E+09,9E+09]];
CONST robtarget Target_22:=[[787.4155158017402, 255.4846679820691, 78.89656804610797],[0,0.924,0.383,0],[0,0,0,0],[9E+09,9E+09,9E+09,9E+09,9E+09,9E+09]];
CONST robtarget Target_23:=[[784.4353022684897, 255.74584264788194, 78.22497604830359],[0,0.924,0.383,0],[0,0,0,0],[9E+09,9E+09,9E+09,9E+09,9E+09,9E+09]];
CONST robtarget Target_24:=[[781.4550887352393, 256.00701731369475, 77.5533840504992],[0,0.924,0.383,0],[0,0,0,0],[9E+09,9E+09,9E+09,9E+09,9E+09,9E+09]];
CONST robtarget Target_25:=[[778.4748752019888, 256.26819197950755, 76.88179205269482],[0,0.924,0.383,0],[0,0,0,0],[9E+09,9E+09,9E+09,9E+09,9E+09,9E+09]];
CONST robtarget Target_26:=[[775.4946616687382, 256.5293666453204, 76.21020005489044],[0,0.924,0.383,0],[0,0,0,0],[9E+09,9E+09,9E+09,9E+09,9E+09,9E+09]];
CONST robtarget Target_27:=[[772.5144481354878, 256.7905413111332, 75.53860805708605],[0,0.924,0.383,0],[0,0,0,0],[9E+09,9E+09,9E+09,9E+09,9E+09,9E+09]];
CONST robtarget Target_28:=[[769.5342346022373, 257.051715976946, 74.86701605928167],[0,0.924,0.383,0],[0,0,0,0],[9E+09,9E+09,9E+09,9E+09,9E+09,9E+09]];
CONST robtarget Target_29:=[[766.5540210689869, 257.3128906427588, 74.1954240614773],[0,0.924,0.383,0],[0,0,0,0],[9E+09,9E+09,9E+09,9E+09,9E+09,9E+09]];
CONST robtarget Target_30:=[[763.5738075357364, 257.5740653085717, 73.5238320636729],[0,0.924,0.383,0],[0,0,0,0],[9E+09,9E+09,9E+09,9E+09,9E+09,9E+09]];
CONST robtarget Target_31:=[[760.5935940024859, 257.8352399743845, 72.85224006586853],[0,0.924,0.383,0],[0,0,0,0],[9E+09,9E+09,9E+09,9E+09,9E+09,9E+09]];
CONST robtarget Target_32:=[[757.6133804692354, 258.0964146401973, 72.18064806806413],[0,0.924,0.383,0],[0,0,0,0],[9E+09,9E+09,9E+09,9E+09,9E+09,9E+09]];
CONST robtarget Target_33:=[[754.633166935985, 258.3575893060101, 71.50905607025976],[0,0.924,0.383,0],[0,0,0,0],[9E+09,9E+09,9E+09,9E+09,9E+09,9E+09]];
CONST robtarget Target_34:=[[751.6529534027345, 258.6187639718229, 70.83746407245538],[0,0.924,0.383,0],[0,0,0,0],[9E+09,9E+09,9E+09,9E+09,9E+09,9E+09]];
CONST robtarget Target_35:=[[748.6727398694841, 258.87993863763575, 70.16587207465099],[0,0.924,0.383,0],[0,0,0,0],[9E+09,9E+09,9E+09,9E+09,9E+09,9E+09]];
CONST robtarget Target_36:=[[745.6925263362336, 259.14111330344855, 69.49428007684661],[0,0.924,0.383,0],[0,0,0,0],[9E+09,9E+09,9E+09,9E+09,9E+09,9E+09]];
CONST robtarget Target_37:=[[742.7123128029832, 259.40228796926135, 68.82268807904222],[0,0.924,0.383,0],[0,0,0,0],[9E+09,9E+09,9E+09,9E+09,9E+09,9E+09]];
CONST robtarget Target_38:=[[739.7320992697327, 259.66346263507415, 68.15109608123784],[0,0.924,0.383,0],[0,0,0,0],[9E+09,9E+09,9E+09,9E+09,9E+09,9E+09]];
CONST robtarget Target_39:=[[736.7518857364821, 259.924637300887, 67.47950408343345],[0,0.924,0.383,0],[0,0,0,0],[9E+09,9E+09,9E+09,9E+09,9E+09,9E+09]];
CONST robtarget Target_40:=[[733.7716722032317, 260.1858119666998, 66.80791208562908],[0,0.924,0.383,0],[0,0,0,0],[9E+09,9E+09,9E+09,9E+09,9E+09,9E+09]];
CONST robtarget Target_41:=[[730.7914586699812, 260.4469866325126, 66.13632008782469],[0,0.924,0.383,0],[0,0,0,0],[9E+09,9E+09,9E+09,9E+09,9E+09,9E+09]];
CONST robtarget Target_42:=[[727.8112451367308, 260.7081612983254, 65.46472809002032],[0,0.924,0.383,0],[0,0,0,0],[9E+09,9E+09,9E+09,9E+09,9E+09,9E+09]];
CONST robtarget Target_43:=[[724.8310316034804, 260.9693359641382, 64.79313609221592],[0,0.924,0.383,0],[0,0,0,0],[9E+09,9E+09,9E+09,9E+09,9E+09,9E+09]];
CONST robtarget Target_44:=[[721.8508180702298, 261.2305106299511, 64.12154409441155],[0,0.924,0.383,0],[0,0,0,0],[9E+09,9E+09,9E+09,9E+09,9E+09,9E+09]];
CONST robtarget Target_45:=[[718.8706045369793, 261.4916852957639, 63.44995209660717],[0,0.924,0.383,0],[0,0,0,0],[9E+09,9E+09,9E+09,9E+09,9E+09,9E+09]];
CONST robtarget Target_46:=[[715.8903910037288, 261.7528599615767, 62.77836009880279],[0,0.924,0.383,0],[0,0,0,0],[9E+09,9E+09,9E+09,9E+09,9E+09,9E+09]];
CONST robtarget Target_47:=[[712.9101774704784, 262.0140346273895, 62.10676810099841],[0,0.924,0.383,0],[0,0,0,0],[9E+09,9E+09,9E+09,9E+09,9E+09,9E+09]];
CONST robtarget Target_48:=[[709.929963937228, 262.27520929320235, 61.435176103194024],[0,0.924,0.383,0],[0,0,0,0],[9E+09,9E+09,9E+09,9E+09,9E+09,9E+09]];
CONST robtarget Target_49:=[[706.9497504039775, 262.53638395901515, 60.76358410538964],[0,0.924,0.383,0],[0,0,0,0],[9E+09,9E+09,9E+09,9E+09,9E+09,9E+09]];
CONST robtarget Target_50:=[[703.969536870727, 262.79755862482796, 60.091992107585256],[0,0.924,0.383,0],[0,0,0,0],[9E+09,9E+09,9E+09,9E+09,9E+09,9E+09]];
CONST robtarget Target_51:=[[700.9893233374765, 263.05873329064076, 59.42040010978087],[0,0.924,0.383,0],[0,0,0,0],[9E+09,9E+09,9E+09,9E+09,9E+09,9E+09]];
CONST robtarget Target_52:=[[698.009109804226, 263.31990795645356, 58.74880811197649],[0,0.924,0.383,0],[0,0,0,0],[9E+09,9E+09,9E+09,9E+09,9E+09,9E+09]];
CONST robtarget Target_53:=[[695.0288962709756, 263.5810826222664, 58.07721611417211],[0,0.924,0.383,0],[0,0,0,0],[9E+09,9E+09,9E+09,9E+09,9E+09,9E+09]];
CONST robtarget Target_54:=[[692.0486827377251, 263.8422572880792, 57.40562411636772],[0,0.924,0.383,0],[0,0,0,0],[9E+09,9E+09,9E+09,9E+09,9E+09,9E+09]];
CONST robtarget Target_55:=[[689.0684692044747, 264.103431953892, 56.73403211856335],[0,0.924,0.383,0],[0,0,0,0],[9E+09,9E+09,9E+09,9E+09,9E+09,9E+09]];
CONST robtarget Target_56:=[[686.0882556712243, 264.36460661970483, 56.06244012075896],[0,0.924,0.383,0],[0,0,0,0],[9E+09,9E+09,9E+09,9E+09,9E+09,9E+09]];
CONST robtarget Target_57:=[[683.1080421379737, 264.6257812855177, 55.39084812295458],[0,0.924,0.383,0],[0,0,0,0],[9E+09,9E+09,9E+09,9E+09,9E+09,9E+09]];
CONST robtarget Target_58:=[[680.1278286047233, 264.8869559513305, 54.719256125150196],[0,0.924,0.383,0],[0,0,0,0],[9E+09,9E+09,9E+09,9E+09,9E+09,9E+09]];
CONST robtarget Target_59:=[[677.1476150714728, 265.1481306171433, 54.04766412734581],[0,0.924,0.383,0],[0,0,0,0],[9E+09,9E+09,9E+09,9E+09,9E+09,9E+09]];
CONST robtarget Target_60:=[[674.1674015382223, 265.4093052829561, 53.37607212954143],[0,0.924,0.383,0],[0,0,0,0],[9E+09,9E+09,9E+09,9E+09,9E+09,9E+09]];
CONST robtarget Target_61:=[[671.1871880049719, 265.6704799487689, 52.70448013173705],[0,0.924,0.383,0],[0,0,0,0],[9E+09,9E+09,9E+09,9E+09,9E+09,9E+09]];
CONST robtarget Target_62:=[[668.2069744717214, 265.93165461458176, 52.03288813393266],[0,0.924,0.383,0],[0,0,0,0],[9E+09,9E+09,9E+09,9E+09,9E+09,9E+09]];
CONST robtarget Target_63:=[[665.2267609384709, 266.19282928039456, 51.361296136128274],[0,0.924,0.383,0],[0,0,0,0],[9E+09,9E+09,9E+09,9E+09,9E+09,9E+09]];
CONST robtarget Target_64:=[[662.2465474052204, 266.45400394620737, 50.6897041383239],[0,0.924,0.383,0],[0,0,0,0],[9E+09,9E+09,9E+09,9E+09,9E+09,9E+09]];
CONST robtarget Target_65:=[[659.26633387197, 266.71517861202017, 50.018112140519506],[0,0.924,0.383,0],[0,0,0,0],[9E+09,9E+09,9E+09,9E+09,9E+09,9E+09]];
CONST robtarget Target_66:=[[656.2861203387195, 266.976353277833, 49.346520142715136],[0,0.924,0.383,0],[0,0,0,0],[9E+09,9E+09,9E+09,9E+09,9E+09,9E+09]];
CONST robtarget Target_67:=[[653.305906805469, 267.23752794364583, 48.674928144910744],[0,0.924,0.383,0],[0,0,0,0],[9E+09,9E+09,9E+09,9E+09,9E+09,9E+09]];
CONST robtarget Target_68:=[[650.3256932722186, 267.49870260945863, 48.00333614710637],[0,0.924,0.383,0],[0,0,0,0],[9E+09,9E+09,9E+09,9E+09,9E+09,9E+09]];
CONST robtarget Target_69:=[[647.3454797389682, 267.75987727527144, 47.33174414930198],[0,0.924,0.383,0],[0,0,0,0],[9E+09,9E+09,9E+09,9E+09,9E+09,9E+09]];
CONST robtarget Target_70:=[[644.3652662057176, 268.02105194108424, 46.6601521514976],[0,0.924,0.383,0],[0,0,0,0],[9E+09,9E+09,9E+09,9E+09,9E+09,9E+09]];
CONST robtarget Target_71:=[[641.3850526724672, 268.2822266068971, 45.98856015369322],[0,0.924,0.383,0],[0,0,0,0],[9E+09,9E+09,9E+09,9E+09,9E+09,9E+09]];
CONST robtarget Target_72:=[[638.4048391392167, 268.5434012727099, 45.31696815588884],[0,0.924,0.383,0],[0,0,0,0],[9E+09,9E+09,9E+09,9E+09,9E+09,9E+09]];
CONST robtarget Target_73:=[[635.4246256059662, 268.8045759385227, 44.64537615808445],[0,0.924,0.383,0],[0,0,0,0],[9E+09,9E+09,9E+09,9E+09,9E+09,9E+09]];
CONST robtarget Target_74:=[[632.4444120727157, 269.0657506043355, 43.973784160280076],[0,0.924,0.383,0],[0,0,0,0],[9E+09,9E+09,9E+09,9E+09,9E+09,9E+09]];
CONST robtarget Target_75:=[[629.4641985394653, 269.32692527014837, 43.30219216247569],[0,0.924,0.383,0],[0,0,0,0],[9E+09,9E+09,9E+09,9E+09,9E+09,9E+09]];
CONST robtarget Target_76:=[[626.4839850062149, 269.58809993596117, 42.63060016467131],[0,0.924,0.383,0],[0,0,0,0],[9E+09,9E+09,9E+09,9E+09,9E+09,9E+09]];
CONST robtarget Target_77:=[[623.5037714729643, 269.84927460177397, 41.95900816686692],[0,0.924,0.383,0],[0,0,0,0],[9E+09,9E+09,9E+09,9E+09,9E+09,9E+09]];
CONST robtarget Target_78:=[[620.5235579397139, 270.1104492675868, 41.28741616906254],[0,0.924,0.383,0],[0,0,0,0],[9E+09,9E+09,9E+09,9E+09,9E+09,9E+09]];
CONST robtarget Target_79:=[[617.5433444064635, 270.37162393339963, 40.61582417125816],[0,0.924,0.383,0],[0,0,0,0],[9E+09,9E+09,9E+09,9E+09,9E+09,9E+09]];
CONST robtarget Target_80:=[[614.5631308732129, 270.63279859921244, 39.94423217345378],[0,0.924,0.383,0],[0,0,0,0],[9E+09,9E+09,9E+09,9E+09,9E+09,9E+09]];
CONST robtarget Target_81:=[[611.5829173399625, 270.89397326502524, 39.272640175649386],[0,0.924,0.383,0],[0,0,0,0],[9E+09,9E+09,9E+09,9E+09,9E+09,9E+09]];
CONST robtarget Target_82:=[[608.602703806712, 271.15514793083804, 38.601048177845016],[0,0.924,0.383,0],[0,0,0,0],[9E+09,9E+09,9E+09,9E+09,9E+09,9E+09]];
CONST robtarget Target_83:=[[605.6224902734615, 271.41632259665084, 37.92945618004063],[0,0.924,0.383,0],[0,0,0,0],[9E+09,9E+09,9E+09,9E+09,9E+09,9E+09]];
CONST robtarget Target_84:=[[602.6422767402111, 271.6774972624637, 37.25786418223625],[0,0.924,0.383,0],[0,0,0,0],[9E+09,9E+09,9E+09,9E+09,9E+09,9E+09]];
CONST robtarget Target_85:=[[599.6620632069606, 271.9386719282765, 36.58627218443186],[0,0.924,0.383,0],[0,0,0,0],[9E+09,9E+09,9E+09,9E+09,9E+09,9E+09]];
CONST robtarget Target_86:=[[596.6818496737101, 272.1998465940893, 35.91468018662748],[0,0.924,0.383,0],[0,0,0,0],[9E+09,9E+09,9E+09,9E+09,9E+09,9E+09]];
CONST robtarget Target_87:=[[593.7016361404596, 272.4610212599021, 35.2430881888231],[0,0.924,0.383,0],[0,0,0,0],[9E+09,9E+09,9E+09,9E+09,9E+09,9E+09]];
CONST robtarget Target_88:=[[590.7214226072092, 272.7221959257149, 34.57149619101872],[0,0.924,0.383,0],[0,0,0,0],[9E+09,9E+09,9E+09,9E+09,9E+09,9E+09]];
CONST robtarget Target_89:=[[587.7412090739588, 272.9833705915278, 33.89990419321433],[0,0.924,0.383,0],[0,0,0,0],[9E+09,9E+09,9E+09,9E+09,9E+09,9E+09]];
CONST robtarget Target_90:=[[584.7609955407082, 273.2445452573406, 33.228312195409956],[0,0.924,0.383,0],[0,0,0,0],[9E+09,9E+09,9E+09,9E+09,9E+09,9E+09]];
CONST robtarget Target_91:=[[581.7807820074578, 273.5057199231534, 32.55672019760557],[0,0.924,0.383,0],[0,0,0,0],[9E+09,9E+09,9E+09,9E+09,9E+09,9E+09]];
CONST robtarget Target_92:=[[578.8005684742074, 273.7668945889662, 31.885128199801187],[0,0.924,0.383,0],[0,0,0,0],[9E+09,9E+09,9E+09,9E+09,9E+09,9E+09]];
CONST robtarget Target_93:=[[575.8203549409568, 274.02806925477904, 31.2135362019968],[0,0.924,0.383,0],[0,0,0,0],[9E+09,9E+09,9E+09,9E+09,9E+09,9E+09]];
CONST robtarget Target_94:=[[572.8401414077064, 274.28924392059184, 30.54194420419242],[0,0.924,0.383,0],[0,0,0,0],[9E+09,9E+09,9E+09,9E+09,9E+09,9E+09]];
CONST robtarget Target_95:=[[569.8599278744559, 274.55041858640465, 29.870352206388034],[0,0.924,0.383,0],[0,0,0,0],[9E+09,9E+09,9E+09,9E+09,9E+09,9E+09]];
CONST robtarget Target_96:=[[566.8797143412055, 274.81159325221745, 29.19876020858365],[0,0.924,0.383,0],[0,0,0,0],[9E+09,9E+09,9E+09,9E+09,9E+09,9E+09]];
CONST robtarget Target_97:=[[563.899500807955, 275.0727679180303, 28.52716821077927],[0,0.924,0.383,0],[0,0,0,0],[9E+09,9E+09,9E+09,9E+09,9E+09,9E+09]];
CONST robtarget Target_98:=[[560.9192872747045, 275.3339425838431, 27.855576212974892],[0,0.924,0.383,0],[0,0,0,0],[9E+09,9E+09,9E+09,9E+09,9E+09,9E+09]];
CONST robtarget Target_99:=[[557.939073741454, 275.5951172496559, 27.18398421517051],[0,0.924,0.383,0],[0,0,0,0],[9E+09,9E+09,9E+09,9E+09,9E+09,9E+09]];
CONST robtarget Target_100:=[[554.9588602082035, 275.8562919154687, 26.512392217366124],[0,0.924,0.383,0],[0,0,0,0],[9E+09,9E+09,9E+09,9E+09,9E+09,9E+09]];
CONST robtarget Target_101:=[[551.9786466749531, 276.1174665812815, 25.840800219561743],[0,0.924,0.383,0],[0,0,0,0],[9E+09,9E+09,9E+09,9E+09,9E+09,9E+09]];
CONST robtarget Target_102:=[[548.9984331417027, 276.3786412470944, 25.16920822175736],[0,0.924,0.383,0],[0,0,0,0],[9E+09,9E+09,9E+09,9E+09,9E+09,9E+09]];
CONST robtarget Target_103:=[[546.0182196084522, 276.6398159129072, 24.497616223952978],[0,0.924,0.383,0],[0,0,0,0],[9E+09,9E+09,9E+09,9E+09,9E+09,9E+09]];
CONST robtarget Target_104:=[[543.0380060752017, 276.90099057872, 23.826024226148593],[0,0.924,0.383,0],[0,0,0,0],[9E+09,9E+09,9E+09,9E+09,9E+09,9E+09]];
CONST robtarget Target_105:=[[540.0577925419512, 277.1621652445328, 23.154432228344213],[0,0.924,0.383,0],[0,0,0,0],[9E+09,9E+09,9E+09,9E+09,9E+09,9E+09]];
CONST robtarget Target_106:=[[537.0775790087007, 277.42333991034565, 22.48284023053983],[0,0.924,0.383,0],[0,0,0,0],[9E+09,9E+09,9E+09,9E+09,9E+09,9E+09]];
CONST robtarget Target_107:=[[534.0973654754503, 277.68451457615845, 21.811248232735448],[0,0.924,0.383,0],[0,0,0,0],[9E+09,9E+09,9E+09,9E+09,9E+09,9E+09]];
CONST robtarget Target_108:=[[531.1171519421998, 277.94568924197125, 21.139656234931063],[0,0.924,0.383,0],[0,0,0,0],[9E+09,9E+09,9E+09,9E+09,9E+09,9E+09]];
CONST robtarget Target_109:=[[528.1369384089494, 278.20686390778405, 20.468064237126683],[0,0.924,0.383,0],[0,0,0,0],[9E+09,9E+09,9E+09,9E+09,9E+09,9E+09]];
CONST robtarget Target_110:=[[525.1567248756988, 278.4680385735969, 19.7964722393223],[0,0.924,0.383,0],[0,0,0,0],[9E+09,9E+09,9E+09,9E+09,9E+09,9E+09]];
CONST robtarget Target_111:=[[522.1765113424484, 278.7292132394097, 19.124880241517918],[0,0.924,0.383,0],[0,0,0,0],[9E+09,9E+09,9E+09,9E+09,9E+09,9E+09]];
CONST robtarget Target_112:=[[519.196297809198, 278.9903879052225, 18.453288243713533],[0,0.924,0.383,0],[0,0,0,0],[9E+09,9E+09,9E+09,9E+09,9E+09,9E+09]];
CONST robtarget Target_113:=[[516.2160842759474, 279.2515625710353, 17.781696245909153],[0,0.924,0.383,0],[0,0,0,0],[9E+09,9E+09,9E+09,9E+09,9E+09,9E+09]];
CONST robtarget Target_114:=[[513.235870742697, 279.5127372368481, 17.11010424810477],[0,0.924,0.383,0],[0,0,0,0],[9E+09,9E+09,9E+09,9E+09,9E+09,9E+09]];
CONST robtarget Target_115:=[[510.25565720944655, 279.773911902661, 16.438512250300384],[0,0.924,0.383,0],[0,0,0,0],[9E+09,9E+09,9E+09,9E+09,9E+09,9E+09]];
CONST robtarget Target_116:=[[507.27544367619606, 280.0350865684738, 15.766920252496003],[0,0.924,0.383,0],[0,0,0,0],[9E+09,9E+09,9E+09,9E+09,9E+09,9E+09]];
CONST robtarget Target_117:=[[504.29523014294557, 280.2962612342866, 15.095328254691623],[0,0.924,0.383,0],[0,0,0,0],[9E+09,9E+09,9E+09,9E+09,9E+09,9E+09]];
CONST robtarget Target_118:=[[501.31501660969514, 280.5574359000994, 14.423736256887238],[0,0.924,0.383,0],[0,0,0,0],[9E+09,9E+09,9E+09,9E+09,9E+09,9E+09]];
CONST robtarget Target_119:=[[498.33480307644464, 280.8186105659122, 13.752144259082856],[0,0.924,0.383,0],[0,0,0,0],[9E+09,9E+09,9E+09,9E+09,9E+09,9E+09]];
CONST robtarget Target_120:=[[495.35458954319415, 281.07978523172505, 13.080552261278473],[0,0.924,0.383,0],[0,0,0,0],[9E+09,9E+09,9E+09,9E+09,9E+09,9E+09]];
CONST robtarget Target_121:=[[492.3743760099437, 281.34095989753786, 12.408960263474091],[0,0.924,0.383,0],[0,0,0,0],[9E+09,9E+09,9E+09,9E+09,9E+09,9E+09]];
CONST robtarget Target_122:=[[489.3941624766933, 281.60213456335066, 11.737368265669708],[0,0.924,0.383,0],[0,0,0,0],[9E+09,9E+09,9E+09,9E+09,9E+09,9E+09]];
CONST robtarget Target_123:=[[486.4139489434428, 281.86330922916346, 11.065776267865326],[0,0.924,0.383,0],[0,0,0,0],[9E+09,9E+09,9E+09,9E+09,9E+09,9E+09]];
CONST robtarget Target_124:=[[483.4337354101923, 282.1244838949763, 10.394184270060943],[0,0.924,0.383,0],[0,0,0,0],[9E+09,9E+09,9E+09,9E+09,9E+09,9E+09]];
CONST robtarget Target_125:=[[480.45352187694186, 282.3856585607891, 9.722592272256561],[0,0.924,0.383,0],[0,0,0,0],[9E+09,9E+09,9E+09,9E+09,9E+09,9E+09]];
CONST robtarget Target_126:=[[477.4733083436914, 282.6468332266019, 9.051000274452178],[0,0.924,0.383,0],[0,0,0,0],[9E+09,9E+09,9E+09,9E+09,9E+09,9E+09]];
CONST robtarget Target_127:=[[474.4930948104409, 282.90800789241473, 8.379408276647796],[0,0.924,0.383,0],[0,0,0,0],[9E+09,9E+09,9E+09,9E+09,9E+09,9E+09]];
CONST robtarget Target_128:=[[471.51288127719044, 283.1691825582276, 7.7078162788434135],[0,0.924,0.383,0],[0,0,0,0],[9E+09,9E+09,9E+09,9E+09,9E+09,9E+09]];
CONST robtarget Target_129:=[[468.53266774393995, 283.4303572240404, 7.03622428103903],[0,0.924,0.383,0],[0,0,0,0],[9E+09,9E+09,9E+09,9E+09,9E+09,9E+09]];
CONST robtarget Target_130:=[[465.55245421068946, 283.6915318898532, 6.3646322832346485],[0,0.924,0.383,0],[0,0,0,0],[9E+09,9E+09,9E+09,9E+09,9E+09,9E+09]];
CONST robtarget Target_131:=[[462.572240677439, 283.952706555666, 5.693040285430265],[0,0.924,0.383,0],[0,0,0,0],[9E+09,9E+09,9E+09,9E+09,9E+09,9E+09]];
CONST robtarget Target_132:=[[459.5920271441886, 284.2138812214788, 5.021448287625883],[0,0.924,0.383,0],[0,0,0,0],[9E+09,9E+09,9E+09,9E+09,9E+09,9E+09]];
CONST robtarget Target_133:=[[456.6118136109381, 284.47505588729166, 4.3498562898215],[0,0.924,0.383,0],[0,0,0,0],[9E+09,9E+09,9E+09,9E+09,9E+09,9E+09]];
CONST robtarget Target_134:=[[453.6316000776876, 284.73623055310446, 3.6782642920171176],[0,0.924,0.383,0],[0,0,0,0],[9E+09,9E+09,9E+09,9E+09,9E+09,9E+09]];
CONST robtarget Target_135:=[[450.6513865444372, 284.99740521891727, 3.0066722942127346],[0,0.924,0.383,0],[0,0,0,0],[9E+09,9E+09,9E+09,9E+09,9E+09,9E+09]];
CONST robtarget Target_136:=[[451.00065947330086, 284.0852992556577, 3.0],[0,0.924,0.383,0],[0,0,0,0],[9E+09,9E+09,9E+09,9E+09,9E+09,9E+09]];
CONST robtarget Target_137:=[[451.38334292246134, 283.16141973010326, 3.0],[0,0.924,0.383,0],[0,0,0,0],[9E+09,9E+09,9E+09,9E+09,9E+09,9E+09]];
CONST robtarget Target_138:=[[451.7660263716218, 282.23754020454885, 3.0],[0,0.924,0.383,0],[0,0,0,0],[9E+09,9E+09,9E+09,9E+09,9E+09,9E+09]];
CONST robtarget Target_139:=[[452.1487098207823, 281.31366067899444, 3.0],[0,0.924,0.383,0],[0,0,0,0],[9E+09,9E+09,9E+09,9E+09,9E+09,9E+09]];
CONST robtarget Target_140:=[[452.5313932699428, 280.38978115344, 3.0],[0,0.924,0.383,0],[0,0,0,0],[9E+09,9E+09,9E+09,9E+09,9E+09,9E+09]];
CONST robtarget Target_141:=[[452.91407671910326, 279.4659016278856, 3.0],[0,0.924,0.383,0],[0,0,0,0],[9E+09,9E+09,9E+09,9E+09,9E+09,9E+09]];
CONST robtarget Target_142:=[[453.29676016826375, 278.5420221023312, 3.0],[0,0.924,0.383,0],[0,0,0,0],[9E+09,9E+09,9E+09,9E+09,9E+09,9E+09]];
CONST robtarget Target_143:=[[453.6794436174242, 277.6181425767768, 3.0],[0,0.924,0.383,0],[0,0,0,0],[9E+09,9E+09,9E+09,9E+09,9E+09,9E+09]];
CONST robtarget Target_144:=[[454.0621270665847, 276.6942630512224, 3.0],[0,0.924,0.383,0],[0,0,0,0],[9E+09,9E+09,9E+09,9E+09,9E+09,9E+09]];
CONST robtarget Target_145:=[[454.4448105157452, 275.77038352566797, 3.0],[0,0.924,0.383,0],[0,0,0,0],[9E+09,9E+09,9E+09,9E+09,9E+09,9E+09]];
CONST robtarget Target_146:=[[454.82749396490567, 274.84650400011355, 3.0],[0,0.924,0.383,0],[0,0,0,0],[9E+09,9E+09,9E+09,9E+09,9E+09,9E+09]];
CONST robtarget Target_147:=[[455.21017741406615, 273.92262447455914, 3.0],[0,0.924,0.383,0],[0,0,0,0],[9E+09,9E+09,9E+09,9E+09,9E+09,9E+09]];
CONST robtarget Target_148:=[[455.59286086322663, 272.99874494900473, 3.0],[0,0.924,0.383,0],[0,0,0,0],[9E+09,9E+09,9E+09,9E+09,9E+09,9E+09]];
CONST robtarget Target_149:=[[455.9755443123871, 272.0748654234503, 3.0],[0,0.924,0.383,0],[0,0,0,0],[9E+09,9E+09,9E+09,9E+09,9E+09,9E+09]];
CONST robtarget Target_150:=[[456.3582277615476, 271.1509858978959, 3.0],[0,0.924,0.383,0],[0,0,0,0],[9E+09,9E+09,9E+09,9E+09,9E+09,9E+09]];
CONST robtarget Target_151:=[[456.7409112107081, 270.2271063723415, 3.0],[0,0.924,0.383,0],[0,0,0,0],[9E+09,9E+09,9E+09,9E+09,9E+09,9E+09]];
CONST robtarget Target_152:=[[457.12359465986856, 269.3032268467871, 3.0],[0,0.924,0.383,0],[0,0,0,0],[9E+09,9E+09,9E+09,9E+09,9E+09,9E+09]];
CONST robtarget Target_153:=[[457.50627810902904, 268.3793473212327, 3.0],[0,0.924,0.383,0],[0,0,0,0],[9E+09,9E+09,9E+09,9E+09,9E+09,9E+09]];
CONST robtarget Target_154:=[[457.70831666378376, 267.40706414107603, 3.0],[0,0.924,0.383,0],[0,0,0,0],[9E+09,9E+09,9E+09,9E+09,9E+09,9E+09]];
CONST robtarget Target_155:=[[457.83884284852286, 266.4156192787173, 3.0],[0,0.924,0.383,0],[0,0,0,0],[9E+09,9E+09,9E+09,9E+09,9E+09,9E+09]];
CONST robtarget Target_156:=[[457.96936903326207, 265.42417441635865, 3.0],[0,0.924,0.383,0],[0,0,0,0],[9E+09,9E+09,9E+09,9E+09,9E+09,9E+09]];
CONST robtarget Target_157:=[[458.0998952180012, 264.43272955399993, 3.0],[0,0.924,0.383,0],[0,0,0,0],[9E+09,9E+09,9E+09,9E+09,9E+09,9E+09]];
CONST robtarget Target_158:=[[458.2304214027404, 263.4412846916413, 3.0],[0,0.924,0.383,0],[0,0,0,0],[9E+09,9E+09,9E+09,9E+09,9E+09,9E+09]];
CONST robtarget Target_159:=[[458.3609475874796, 262.44983982928255, 3.0],[0,0.924,0.383,0],[0,0,0,0],[9E+09,9E+09,9E+09,9E+09,9E+09,9E+09]];
CONST robtarget Target_160:=[[458.49147377221874, 261.4583949669239, 3.0],[0,0.924,0.383,0],[0,0,0,0],[9E+09,9E+09,9E+09,9E+09,9E+09,9E+09]];
CONST robtarget Target_161:=[[458.6219999569579, 260.4669501045652, 3.0],[0,0.924,0.383,0],[0,0,0,0],[9E+09,9E+09,9E+09,9E+09,9E+09,9E+09]];
CONST robtarget Target_162:=[[458.7525261416971, 259.4755052422065, 3.0],[0,0.924,0.383,0],[0,0,0,0],[9E+09,9E+09,9E+09,9E+09,9E+09,9E+09]];
CONST robtarget Target_163:=[[458.8830523264362, 258.48406037984785, 3.0],[0,0.924,0.383,0],[0,0,0,0],[9E+09,9E+09,9E+09,9E+09,9E+09,9E+09]];
CONST robtarget Target_164:=[[459.0135785111754, 257.4926155174891, 3.0],[0,0.924,0.383,0],[0,0,0,0],[9E+09,9E+09,9E+09,9E+09,9E+09,9E+09]];
CONST robtarget Target_165:=[[459.14410469591456, 256.50117065513047, 3.0],[0,0.924,0.383,0],[0,0,0,0],[9E+09,9E+09,9E+09,9E+09,9E+09,9E+09]];
CONST robtarget Target_166:=[[459.2746308806537, 255.50972579277177, 3.0],[0,0.924,0.383,0],[0,0,0,0],[9E+09,9E+09,9E+09,9E+09,9E+09,9E+09]];
CONST robtarget Target_167:=[[459.4051570653929, 254.51828093041308, 3.0],[0,0.924,0.383,0],[0,0,0,0],[9E+09,9E+09,9E+09,9E+09,9E+09,9E+09]];
CONST robtarget Target_168:=[[459.5356832501321, 253.5268360680544, 3.0],[0,0.924,0.383,0],[0,0,0,0],[9E+09,9E+09,9E+09,9E+09,9E+09,9E+09]];
CONST robtarget Target_169:=[[459.66620943487123, 252.5353912056957, 3.0],[0,0.924,0.383,0],[0,0,0,0],[9E+09,9E+09,9E+09,9E+09,9E+09,9E+09]];
CONST robtarget Target_170:=[[459.79673561961044, 251.543946343337, 3.0],[0,0.924,0.383,0],[0,0,0,0],[9E+09,9E+09,9E+09,9E+09,9E+09,9E+09]];
CONST robtarget Target_171:=[[459.9272618043496, 250.55250148097832, 3.0],[0,0.924,0.383,0],[0,0,0,0],[9E+09,9E+09,9E+09,9E+09,9E+09,9E+09]];
CONST robtarget Target_172:=[[459.94221201091125, 249.56105661861966, 3.0],[0,0.924,0.383,0],[0,0,0,0],[9E+09,9E+09,9E+09,9E+09,9E+09,9E+09]];
CONST robtarget Target_173:=[[459.81168582617204, 248.56961175626097, 3.0],[0,0.924,0.383,0],[0,0,0,0],[9E+09,9E+09,9E+09,9E+09,9E+09,9E+09]];
CONST robtarget Target_174:=[[459.68115964143294, 247.57816689390228, 3.0],[0,0.924,0.383,0],[0,0,0,0],[9E+09,9E+09,9E+09,9E+09,9E+09,9E+09]];
CONST robtarget Target_175:=[[459.55063345669373, 246.5867220315436, 3.0],[0,0.924,0.383,0],[0,0,0,0],[9E+09,9E+09,9E+09,9E+09,9E+09,9E+09]];
CONST robtarget Target_176:=[[459.4201072719546, 245.5952771691849, 3.0],[0,0.924,0.383,0],[0,0,0,0],[9E+09,9E+09,9E+09,9E+09,9E+09,9E+09]];
CONST robtarget Target_177:=[[459.2895810872154, 244.6038323068262, 3.0],[0,0.924,0.383,0],[0,0,0,0],[9E+09,9E+09,9E+09,9E+09,9E+09,9E+09]];
CONST robtarget Target_178:=[[459.1590549024762, 243.61238744446752, 3.0],[0,0.924,0.383,0],[0,0,0,0],[9E+09,9E+09,9E+09,9E+09,9E+09,9E+09]];
CONST robtarget Target_179:=[[459.02852871773706, 242.62094258210882, 3.0],[0,0.924,0.383,0],[0,0,0,0],[9E+09,9E+09,9E+09,9E+09,9E+09,9E+09]];
CONST robtarget Target_180:=[[458.8980025329979, 241.62949771975013, 3.0],[0,0.924,0.383,0],[0,0,0,0],[9E+09,9E+09,9E+09,9E+09,9E+09,9E+09]];
CONST robtarget Target_181:=[[458.7674763482587, 240.63805285739147, 3.0],[0,0.924,0.383,0],[0,0,0,0],[9E+09,9E+09,9E+09,9E+09,9E+09,9E+09]];
CONST robtarget Target_182:=[[458.6369501635196, 239.64660799503278, 3.0],[0,0.924,0.383,0],[0,0,0,0],[9E+09,9E+09,9E+09,9E+09,9E+09,9E+09]];
CONST robtarget Target_183:=[[458.5064239787804, 238.6551631326741, 3.0],[0,0.924,0.383,0],[0,0,0,0],[9E+09,9E+09,9E+09,9E+09,9E+09,9E+09]];
CONST robtarget Target_184:=[[458.37589779404124, 237.6637182703154, 3.0],[0,0.924,0.383,0],[0,0,0,0],[9E+09,9E+09,9E+09,9E+09,9E+09,9E+09]];
CONST robtarget Target_185:=[[458.2453716093021, 236.6722734079567, 3.0],[0,0.924,0.383,0],[0,0,0,0],[9E+09,9E+09,9E+09,9E+09,9E+09,9E+09]];
CONST robtarget Target_186:=[[458.1148454245629, 235.68082854559802, 3.0],[0,0.924,0.383,0],[0,0,0,0],[9E+09,9E+09,9E+09,9E+09,9E+09,9E+09]];
CONST robtarget Target_187:=[[457.9843192398237, 234.68938368323933, 3.0],[0,0.924,0.383,0],[0,0,0,0],[9E+09,9E+09,9E+09,9E+09,9E+09,9E+09]];
CONST robtarget Target_188:=[[457.85379305508457, 233.69793882088067, 3.0],[0,0.924,0.383,0],[0,0,0,0],[9E+09,9E+09,9E+09,9E+09,9E+09,9E+09]];
CONST robtarget Target_189:=[[457.72326687034536, 232.70649395852197, 3.0],[0,0.924,0.383,0],[0,0,0,0],[9E+09,9E+09,9E+09,9E+09,9E+09,9E+09]];
CONST robtarget Target_190:=[[457.55010990127903, 231.7264719806394, 3.0],[0,0.924,0.383,0],[0,0,0,0],[9E+09,9E+09,9E+09,9E+09,9E+09,9E+09]];
CONST robtarget Target_191:=[[457.16742645211855, 230.80259245508498, 3.0],[0,0.924,0.383,0],[0,0,0,0],[9E+09,9E+09,9E+09,9E+09,9E+09,9E+09]];
CONST robtarget Target_192:=[[456.78474300295807, 229.87871292953056, 3.0],[0,0.924,0.383,0],[0,0,0,0],[9E+09,9E+09,9E+09,9E+09,9E+09,9E+09]];
CONST robtarget Target_193:=[[456.4020595537976, 228.95483340397615, 3.0],[0,0.924,0.383,0],[0,0,0,0],[9E+09,9E+09,9E+09,9E+09,9E+09,9E+09]];
CONST robtarget Target_194:=[[456.0193761046371, 228.03095387842174, 3.0],[0,0.924,0.383,0],[0,0,0,0],[9E+09,9E+09,9E+09,9E+09,9E+09,9E+09]];
CONST robtarget Target_195:=[[455.6366926554766, 227.10707435286736, 3.0],[0,0.924,0.383,0],[0,0,0,0],[9E+09,9E+09,9E+09,9E+09,9E+09,9E+09]];
CONST robtarget Target_196:=[[455.25400920631614, 226.18319482731295, 3.0],[0,0.924,0.383,0],[0,0,0,0],[9E+09,9E+09,9E+09,9E+09,9E+09,9E+09]];
CONST robtarget Target_197:=[[454.87132575715566, 225.25931530175853, 3.0],[0,0.924,0.383,0],[0,0,0,0],[9E+09,9E+09,9E+09,9E+09,9E+09,9E+09]];
CONST robtarget Target_198:=[[454.48864230799524, 224.33543577620412, 3.0],[0,0.924,0.383,0],[0,0,0,0],[9E+09,9E+09,9E+09,9E+09,9E+09,9E+09]];
CONST robtarget Target_199:=[[454.10595885883475, 223.4115562506497, 3.0],[0,0.924,0.383,0],[0,0,0,0],[9E+09,9E+09,9E+09,9E+09,9E+09,9E+09]];
CONST robtarget Target_200:=[[453.7232754096743, 222.4876767250953, 3.0],[0,0.924,0.383,0],[0,0,0,0],[9E+09,9E+09,9E+09,9E+09,9E+09,9E+09]];
CONST robtarget Target_201:=[[453.3405919605138, 221.5637971995409, 3.0],[0,0.924,0.383,0],[0,0,0,0],[9E+09,9E+09,9E+09,9E+09,9E+09,9E+09]];
CONST robtarget Target_202:=[[452.9579085113533, 220.63991767398647, 3.0],[0,0.924,0.383,0],[0,0,0,0],[9E+09,9E+09,9E+09,9E+09,9E+09,9E+09]];
CONST robtarget Target_203:=[[452.5752250621928, 219.71603814843206, 3.0],[0,0.924,0.383,0],[0,0,0,0],[9E+09,9E+09,9E+09,9E+09,9E+09,9E+09]];
CONST robtarget Target_204:=[[452.1925416130324, 218.79215862287765, 3.0],[0,0.924,0.383,0],[0,0,0,0],[9E+09,9E+09,9E+09,9E+09,9E+09,9E+09]];
CONST robtarget Target_205:=[[451.8098581638719, 217.86827909732324, 3.0],[0,0.924,0.383,0],[0,0,0,0],[9E+09,9E+09,9E+09,9E+09,9E+09,9E+09]];
CONST robtarget Target_206:=[[451.42717471471144, 216.94439957176883, 3.0],[0,0.924,0.383,0],[0,0,0,0],[9E+09,9E+09,9E+09,9E+09,9E+09,9E+09]];
CONST robtarget Target_207:=[[451.04449126555096, 216.02052004621444, 3.0],[0,0.924,0.383,0],[0,0,0,0],[9E+09,9E+09,9E+09,9E+09,9E+09,9E+09]];
CONST robtarget Target_208:=[[450.6618078163905, 215.09664052066003, 3.0],[0,0.924,0.383,0],[0,0,0,0],[9E+09,9E+09,9E+09,9E+09,9E+09,9E+09]];
CONST robtarget Target_209:=[[450.07669483567634, 214.28963373725944, 3.0],[0,0.924,0.383,0],[0,0,0,0],[9E+09,9E+09,9E+09,9E+09,9E+09,9E+09]];
CONST robtarget Target_210:=[[449.46793343508523, 213.49628037516257, 3.0],[0,0.924,0.383,0],[0,0,0,0],[9E+09,9E+09,9E+09,9E+09,9E+09,9E+09]];
CONST robtarget Target_211:=[[448.8591720344941, 212.7029270130657, 3.0],[0,0.924,0.383,0],[0,0,0,0],[9E+09,9E+09,9E+09,9E+09,9E+09,9E+09]];
CONST robtarget Target_212:=[[448.2504106339031, 211.90957365096887, 3.0],[0,0.924,0.383,0],[0,0,0,0],[9E+09,9E+09,9E+09,9E+09,9E+09,9E+09]];
CONST robtarget Target_213:=[[447.641649233312, 211.116220288872, 3.0],[0,0.924,0.383,0],[0,0,0,0],[9E+09,9E+09,9E+09,9E+09,9E+09,9E+09]];
CONST robtarget Target_214:=[[447.0328878327209, 210.32286692677513, 3.0],[0,0.924,0.383,0],[0,0,0,0],[9E+09,9E+09,9E+09,9E+09,9E+09,9E+09]];
CONST robtarget Target_215:=[[446.4241264321298, 209.52951356467827, 3.0],[0,0.924,0.383,0],[0,0,0,0],[9E+09,9E+09,9E+09,9E+09,9E+09,9E+09]];
CONST robtarget Target_216:=[[445.81536503153876, 208.73616020258143, 3.0],[0,0.924,0.383,0],[0,0,0,0],[9E+09,9E+09,9E+09,9E+09,9E+09,9E+09]];
CONST robtarget Target_217:=[[445.2066036309477, 207.94280684048456, 3.0],[0,0.924,0.383,0],[0,0,0,0],[9E+09,9E+09,9E+09,9E+09,9E+09,9E+09]];
CONST robtarget Target_218:=[[444.5978422303566, 207.14945347838773, 3.0],[0,0.924,0.383,0],[0,0,0,0],[9E+09,9E+09,9E+09,9E+09,9E+09,9E+09]];
CONST robtarget Target_219:=[[443.9890808297655, 206.35610011629086, 3.0],[0,0.924,0.383,0],[0,0,0,0],[9E+09,9E+09,9E+09,9E+09,9E+09,9E+09]];
CONST robtarget Target_220:=[[443.3803194291744, 205.562746754194, 3.0],[0,0.924,0.383,0],[0,0,0,0],[9E+09,9E+09,9E+09,9E+09,9E+09,9E+09]];
CONST robtarget Target_221:=[[442.77155802858334, 204.76939339209713, 3.0],[0,0.924,0.383,0],[0,0,0,0],[9E+09,9E+09,9E+09,9E+09,9E+09,9E+09]];
CONST robtarget Target_222:=[[442.1627966279923, 203.97604003000026, 3.0],[0,0.924,0.383,0],[0,0,0,0],[9E+09,9E+09,9E+09,9E+09,9E+09,9E+09]];
CONST robtarget Target_223:=[[441.5540352274012, 203.18268666790343, 3.0],[0,0.924,0.383,0],[0,0,0,0],[9E+09,9E+09,9E+09,9E+09,9E+09,9E+09]];
CONST robtarget Target_224:=[[440.9452738268101, 202.38933330580656, 3.0],[0,0.924,0.383,0],[0,0,0,0],[9E+09,9E+09,9E+09,9E+09,9E+09,9E+09]];
CONST robtarget Target_225:=[[440.33651242621903, 201.59597994370972, 3.0],[0,0.924,0.383,0],[0,0,0,0],[9E+09,9E+09,9E+09,9E+09,9E+09,9E+09]];
CONST robtarget Target_226:=[[439.727751025628, 200.80262658161286, 3.0],[0,0.924,0.383,0],[0,0,0,0],[9E+09,9E+09,9E+09,9E+09,9E+09,9E+09]];
CONST robtarget Target_227:=[[439.004223219516, 200.12403962503686, 3.0],[0,0.924,0.383,0],[0,0,0,0],[9E+09,9E+09,9E+09,9E+09,9E+09,9E+09]];
CONST robtarget Target_228:=[[438.21086985741914, 199.5152782244458, 3.0],[0,0.924,0.383,0],[0,0,0,0],[9E+09,9E+09,9E+09,9E+09,9E+09,9E+09]];
CONST robtarget Target_229:=[[437.4175164953223, 198.9065168238547, 3.0],[0,0.924,0.383,0],[0,0,0,0],[9E+09,9E+09,9E+09,9E+09,9E+09,9E+09]];
CONST robtarget Target_230:=[[436.62416313322547, 198.29775542326362, 3.0],[0,0.924,0.383,0],[0,0,0,0],[9E+09,9E+09,9E+09,9E+09,9E+09,9E+09]];
CONST robtarget Target_231:=[[435.83080977112854, 197.68899402267255, 3.0],[0,0.924,0.383,0],[0,0,0,0],[9E+09,9E+09,9E+09,9E+09,9E+09,9E+09]];
CONST robtarget Target_232:=[[435.03745640903173, 197.08023262208147, 3.0],[0,0.924,0.383,0],[0,0,0,0],[9E+09,9E+09,9E+09,9E+09,9E+09,9E+09]];
CONST robtarget Target_233:=[[434.2441030469348, 196.4714712214904, 3.0],[0,0.924,0.383,0],[0,0,0,0],[9E+09,9E+09,9E+09,9E+09,9E+09,9E+09]];
CONST robtarget Target_234:=[[433.450749684838, 195.8627098208993, 3.0],[0,0.924,0.383,0],[0,0,0,0],[9E+09,9E+09,9E+09,9E+09,9E+09,9E+09]];
CONST robtarget Target_235:=[[432.65739632274114, 195.25394842030823, 3.0],[0,0.924,0.383,0],[0,0,0,0],[9E+09,9E+09,9E+09,9E+09,9E+09,9E+09]];
CONST robtarget Target_236:=[[431.86404296064427, 194.64518701971716, 3.0],[0,0.924,0.383,0],[0,0,0,0],[9E+09,9E+09,9E+09,9E+09,9E+09,9E+09]];
CONST robtarget Target_237:=[[431.07068959854746, 194.03642561912608, 3.0],[0,0.924,0.383,0],[0,0,0,0],[9E+09,9E+09,9E+09,9E+09,9E+09,9E+09]];
CONST robtarget Target_238:=[[430.27733623645054, 193.427664218535, 3.0],[0,0.924,0.383,0],[0,0,0,0],[9E+09,9E+09,9E+09,9E+09,9E+09,9E+09]];
CONST robtarget Target_239:=[[429.4839828743537, 192.81890281794392, 3.0],[0,0.924,0.383,0],[0,0,0,0],[9E+09,9E+09,9E+09,9E+09,9E+09,9E+09]];
CONST robtarget Target_240:=[[428.6906295122568, 192.21014141735284, 3.0],[0,0.924,0.383,0],[0,0,0,0],[9E+09,9E+09,9E+09,9E+09,9E+09,9E+09]];
CONST robtarget Target_241:=[[427.89727615016, 191.60138001676177, 3.0],[0,0.924,0.383,0],[0,0,0,0],[9E+09,9E+09,9E+09,9E+09,9E+09,9E+09]];
CONST robtarget Target_242:=[[427.10392278806313, 190.9926186161707, 3.0],[0,0.924,0.383,0],[0,0,0,0],[9E+09,9E+09,9E+09,9E+09,9E+09,9E+09]];
CONST robtarget Target_243:=[[426.31056942596626, 190.3838572155796, 3.0],[0,0.924,0.383,0],[0,0,0,0],[9E+09,9E+09,9E+09,9E+09,9E+09,9E+09]];
CONST robtarget Target_244:=[[425.5172160638694, 189.7750958149885, 3.0],[0,0.924,0.383,0],[0,0,0,0],[9E+09,9E+09,9E+09,9E+09,9E+09,9E+09]];
CONST robtarget Target_245:=[[424.67843131665825, 189.24502388327653, 3.0],[0,0.924,0.383,0],[0,0,0,0],[9E+09,9E+09,9E+09,9E+09,9E+09,9E+09]];
CONST robtarget Target_246:=[[423.75455179110384, 188.86234043411605, 3.0],[0,0.924,0.383,0],[0,0,0,0],[9E+09,9E+09,9E+09,9E+09,9E+09,9E+09]];
CONST robtarget Target_247:=[[422.8306722655494, 188.47965698495557, 3.0],[0,0.924,0.383,0],[0,0,0,0],[9E+09,9E+09,9E+09,9E+09,9E+09,9E+09]];
CONST robtarget Target_248:=[[421.906792739995, 188.0969735357951, 3.0],[0,0.924,0.383,0],[0,0,0,0],[9E+09,9E+09,9E+09,9E+09,9E+09,9E+09]];
CONST robtarget Target_249:=[[420.9829132144406, 187.71429008663463, 3.0],[0,0.924,0.383,0],[0,0,0,0],[9E+09,9E+09,9E+09,9E+09,9E+09,9E+09]];
CONST robtarget Target_250:=[[420.0590336888862, 187.33160663747415, 3.0],[0,0.924,0.383,0],[0,0,0,0],[9E+09,9E+09,9E+09,9E+09,9E+09,9E+09]];
CONST robtarget Target_251:=[[419.1351541633318, 186.94892318831367, 3.0],[0,0.924,0.383,0],[0,0,0,0],[9E+09,9E+09,9E+09,9E+09,9E+09,9E+09]];
CONST robtarget Target_252:=[[418.21127463777736, 186.56623973915322, 3.0],[0,0.924,0.383,0],[0,0,0,0],[9E+09,9E+09,9E+09,9E+09,9E+09,9E+09]];
CONST robtarget Target_253:=[[417.28739511222295, 186.18355628999274, 3.0],[0,0.924,0.383,0],[0,0,0,0],[9E+09,9E+09,9E+09,9E+09,9E+09,9E+09]];
CONST robtarget Target_254:=[[416.36351558666854, 185.80087284083226, 3.0],[0,0.924,0.383,0],[0,0,0,0],[9E+09,9E+09,9E+09,9E+09,9E+09,9E+09]];
CONST robtarget Target_255:=[[415.43963606111413, 185.41818939167177, 3.0],[0,0.924,0.383,0],[0,0,0,0],[9E+09,9E+09,9E+09,9E+09,9E+09,9E+09]];
CONST robtarget Target_256:=[[414.5157565355597, 185.0355059425113, 3.0],[0,0.924,0.383,0],[0,0,0,0],[9E+09,9E+09,9E+09,9E+09,9E+09,9E+09]];
CONST robtarget Target_257:=[[413.5918770100053, 184.6528224933508, 3.0],[0,0.924,0.383,0],[0,0,0,0],[9E+09,9E+09,9E+09,9E+09,9E+09,9E+09]];
CONST robtarget Target_258:=[[412.6679974844509, 184.27013904419033, 3.0],[0,0.924,0.383,0],[0,0,0,0],[9E+09,9E+09,9E+09,9E+09,9E+09,9E+09]];
CONST robtarget Target_259:=[[411.7441179588965, 183.88745559502985, 3.0],[0,0.924,0.383,0],[0,0,0,0],[9E+09,9E+09,9E+09,9E+09,9E+09,9E+09]];
CONST robtarget Target_260:=[[410.82023843334207, 183.5047721458694, 3.0],[0,0.924,0.383,0],[0,0,0,0],[9E+09,9E+09,9E+09,9E+09,9E+09,9E+09]];
CONST robtarget Target_261:=[[409.89635890778766, 183.12208869670891, 3.0],[0,0.924,0.383,0],[0,0,0,0],[9E+09,9E+09,9E+09,9E+09,9E+09,9E+09]];
CONST robtarget Target_262:=[[408.97247938223325, 182.73940524754846, 3.0],[0,0.924,0.383,0],[0,0,0,0],[9E+09,9E+09,9E+09,9E+09,9E+09,9E+09]];
CONST robtarget Target_263:=[[408.0435732510992, 182.375481345402, 3.0],[0,0.924,0.383,0],[0,0,0,0],[9E+09,9E+09,9E+09,9E+09,9E+09,9E+09]];
CONST robtarget Target_264:=[[407.05212838874047, 182.2449551606628, 3.0],[0,0.924,0.383,0],[0,0,0,0],[9E+09,9E+09,9E+09,9E+09,9E+09,9E+09]];
CONST robtarget Target_265:=[[406.0606835263818, 182.11442897592366, 3.0],[0,0.924,0.383,0],[0,0,0,0],[9E+09,9E+09,9E+09,9E+09,9E+09,9E+09]];
CONST robtarget Target_266:=[[405.06923866402315, 181.98390279118448, 3.0],[0,0.924,0.383,0],[0,0,0,0],[9E+09,9E+09,9E+09,9E+09,9E+09,9E+09]];
CONST robtarget Target_267:=[[404.0777938016645, 181.8533766064453, 3.0],[0,0.924,0.383,0],[0,0,0,0],[9E+09,9E+09,9E+09,9E+09,9E+09,9E+09]];
CONST robtarget Target_268:=[[403.08634893930576, 181.72285042170614, 3.0],[0,0.924,0.383,0],[0,0,0,0],[9E+09,9E+09,9E+09,9E+09,9E+09,9E+09]];
CONST robtarget Target_269:=[[402.09490407694705, 181.592324236967, 3.0],[0,0.924,0.383,0],[0,0,0,0],[9E+09,9E+09,9E+09,9E+09,9E+09,9E+09]];
CONST robtarget Target_270:=[[401.1034592145884, 181.4617980522278, 3.0],[0,0.924,0.383,0],[0,0,0,0],[9E+09,9E+09,9E+09,9E+09,9E+09,9E+09]];
CONST robtarget Target_271:=[[400.1120143522297, 181.33127186748862, 3.0],[0,0.924,0.383,0],[0,0,0,0],[9E+09,9E+09,9E+09,9E+09,9E+09,9E+09]];
CONST robtarget Target_272:=[[399.120569489871, 181.20074568274947, 3.0],[0,0.924,0.383,0],[0,0,0,0],[9E+09,9E+09,9E+09,9E+09,9E+09,9E+09]];
CONST robtarget Target_273:=[[398.1291246275123, 181.07021949801032, 3.0],[0,0.924,0.383,0],[0,0,0,0],[9E+09,9E+09,9E+09,9E+09,9E+09,9E+09]];
CONST robtarget Target_274:=[[397.1376797651536, 180.9396933132711, 3.0],[0,0.924,0.383,0],[0,0,0,0],[9E+09,9E+09,9E+09,9E+09,9E+09,9E+09]];
CONST robtarget Target_275:=[[396.14623490279496, 180.80916712853195, 3.0],[0,0.924,0.383,0],[0,0,0,0],[9E+09,9E+09,9E+09,9E+09,9E+09,9E+09]];
CONST robtarget Target_276:=[[395.1547900404363, 180.6786409437928, 3.0],[0,0.924,0.383,0],[0,0,0,0],[9E+09,9E+09,9E+09,9E+09,9E+09,9E+09]];
CONST robtarget Target_277:=[[394.1633451780776, 180.54811475905362, 3.0],[0,0.924,0.383,0],[0,0,0,0],[9E+09,9E+09,9E+09,9E+09,9E+09,9E+09]];
CONST robtarget Target_278:=[[393.17190031571886, 180.41758857431444, 3.0],[0,0.924,0.383,0],[0,0,0,0],[9E+09,9E+09,9E+09,9E+09,9E+09,9E+09]];
CONST robtarget Target_279:=[[392.1804554533602, 180.28706238957528, 3.0],[0,0.924,0.383,0],[0,0,0,0],[9E+09,9E+09,9E+09,9E+09,9E+09,9E+09]];
CONST robtarget Target_280:=[[391.18901059100153, 180.15653620483613, 3.0],[0,0.924,0.383,0],[0,0,0,0],[9E+09,9E+09,9E+09,9E+09,9E+09,9E+09]];
CONST robtarget Target_281:=[[390.1975657286428, 180.02601002009695, 3.0],[0,0.924,0.383,0],[0,0,0,0],[9E+09,9E+09,9E+09,9E+09,9E+09,9E+09]];
CONST robtarget Target_282:=[[389.2061208662841, 179.89548383535777, 3.0],[0,0.924,0.383,0],[0,0,0,0],[9E+09,9E+09,9E+09,9E+09,9E+09,9E+09]];
CONST robtarget Target_283:=[[388.21467600392543, 179.7649576506186, 3.0],[0,0.924,0.383,0],[0,0,0,0],[9E+09,9E+09,9E+09,9E+09,9E+09,9E+09]];
CONST robtarget Target_284:=[[387.22323114156677, 179.63443146587943, 3.0],[0,0.924,0.383,0],[0,0,0,0],[9E+09,9E+09,9E+09,9E+09,9E+09,9E+09]];
CONST robtarget Target_285:=[[386.2317862792081, 179.50390528114025, 3.0],[0,0.924,0.383,0],[0,0,0,0],[9E+09,9E+09,9E+09,9E+09,9E+09,9E+09]];
CONST robtarget Target_286:=[[385.2403414168494, 179.3733790964011, 3.0],[0,0.924,0.383,0],[0,0,0,0],[9E+09,9E+09,9E+09,9E+09,9E+09,9E+09]];
CONST robtarget Target_287:=[[384.24889655449067, 179.24285291166194, 3.0],[0,0.924,0.383,0],[0,0,0,0],[9E+09,9E+09,9E+09,9E+09,9E+09,9E+09]];
CONST robtarget Target_288:=[[383.257451692132, 179.11232672692276, 3.0],[0,0.924,0.383,0],[0,0,0,0],[9E+09,9E+09,9E+09,9E+09,9E+09,9E+09]];
CONST robtarget Target_289:=[[382.26600682977335, 178.98180054218358, 3.0],[0,0.924,0.383,0],[0,0,0,0],[9E+09,9E+09,9E+09,9E+09,9E+09,9E+09]];
CONST robtarget Target_290:=[[381.2745619674146, 178.85127435744442, 3.0],[0,0.924,0.383,0],[0,0,0,0],[9E+09,9E+09,9E+09,9E+09,9E+09,9E+09]];
CONST robtarget Target_291:=[[380.2831171050559, 178.72074817270527, 3.0],[0,0.924,0.383,0],[0,0,0,0],[9E+09,9E+09,9E+09,9E+09,9E+09,9E+09]];
CONST robtarget Target_292:=[[379.29167224269725, 178.5902219879661, 3.0],[0,0.924,0.383,0],[0,0,0,0],[9E+09,9E+09,9E+09,9E+09,9E+09,9E+09]];
CONST robtarget Target_293:=[[378.3002273803386, 178.4596958032269, 3.0],[0,0.924,0.383,0],[0,0,0,0],[9E+09,9E+09,9E+09,9E+09,9E+09,9E+09]];
CONST robtarget Target_294:=[[377.30878251797986, 178.32916961848775, 3.0],[0,0.924,0.383,0],[0,0,0,0],[9E+09,9E+09,9E+09,9E+09,9E+09,9E+09]];
CONST robtarget Target_295:=[[376.3173376556212, 178.19864343374857, 3.0],[0,0.924,0.383,0],[0,0,0,0],[9E+09,9E+09,9E+09,9E+09,9E+09,9E+09]];
CONST robtarget Target_296:=[[375.3258927932625, 178.0681172490094, 3.0],[0,0.924,0.383,0],[0,0,0,0],[9E+09,9E+09,9E+09,9E+09,9E+09,9E+09]];
CONST robtarget Target_297:=[[374.3344479309038, 177.93759106427024, 3.0],[0,0.924,0.383,0],[0,0,0,0],[9E+09,9E+09,9E+09,9E+09,9E+09,9E+09]];
CONST robtarget Target_298:=[[373.34300306854516, 177.80706487953108, 3.0],[0,0.924,0.383,0],[0,0,0,0],[9E+09,9E+09,9E+09,9E+09,9E+09,9E+09]];
CONST robtarget Target_299:=[[372.35155820618644, 177.6765386947919, 3.0],[0,0.924,0.383,0],[0,0,0,0],[9E+09,9E+09,9E+09,9E+09,9E+09,9E+09]];
CONST robtarget Target_300:=[[371.3957245160856, 177.413109808696, 3.0],[0,0.924,0.383,0],[0,0,0,0],[9E+09,9E+09,9E+09,9E+09,9E+09,9E+09]];
CONST robtarget Target_301:=[[370.47184499053117, 177.0304263595355, 3.0],[0,0.924,0.383,0],[0,0,0,0],[9E+09,9E+09,9E+09,9E+09,9E+09,9E+09]];
CONST robtarget Target_302:=[[369.54796546497676, 176.64774291037503, 3.0],[0,0.924,0.383,0],[0,0,0,0],[9E+09,9E+09,9E+09,9E+09,9E+09,9E+09]];
CONST robtarget Target_303:=[[368.62408593942234, 176.26505946121455, 3.0],[0,0.924,0.383,0],[0,0,0,0],[9E+09,9E+09,9E+09,9E+09,9E+09,9E+09]];
CONST robtarget Target_304:=[[367.70020641386793, 175.88237601205407, 3.0],[0,0.924,0.383,0],[0,0,0,0],[9E+09,9E+09,9E+09,9E+09,9E+09,9E+09]];
CONST robtarget Target_305:=[[366.7763268883135, 175.49969256289359, 3.0],[0,0.924,0.383,0],[0,0,0,0],[9E+09,9E+09,9E+09,9E+09,9E+09,9E+09]];
CONST robtarget Target_306:=[[365.8524473627591, 175.1170091137331, 3.0],[0,0.924,0.383,0],[0,0,0,0],[9E+09,9E+09,9E+09,9E+09,9E+09,9E+09]];
CONST robtarget Target_307:=[[364.9285678372047, 174.73432566457265, 3.0],[0,0.924,0.383,0],[0,0,0,0],[9E+09,9E+09,9E+09,9E+09,9E+09,9E+09]];
CONST robtarget Target_308:=[[364.0046883116503, 174.35164221541217, 3.0],[0,0.924,0.383,0],[0,0,0,0],[9E+09,9E+09,9E+09,9E+09,9E+09,9E+09]];
CONST robtarget Target_309:=[[363.0808087860959, 173.9689587662517, 3.0],[0,0.924,0.383,0],[0,0,0,0],[9E+09,9E+09,9E+09,9E+09,9E+09,9E+09]];
CONST robtarget Target_310:=[[362.15692926054146, 173.58627531709124, 3.0],[0,0.924,0.383,0],[0,0,0,0],[9E+09,9E+09,9E+09,9E+09,9E+09,9E+09]];
CONST robtarget Target_311:=[[361.23304973498705, 173.20359186793075, 3.0],[0,0.924,0.383,0],[0,0,0,0],[9E+09,9E+09,9E+09,9E+09,9E+09,9E+09]];
CONST robtarget Target_312:=[[360.30917020943264, 172.82090841877027, 3.0],[0,0.924,0.383,0],[0,0,0,0],[9E+09,9E+09,9E+09,9E+09,9E+09,9E+09]];
CONST robtarget Target_313:=[[359.3852906838782, 172.4382249696098, 3.0],[0,0.924,0.383,0],[0,0,0,0],[9E+09,9E+09,9E+09,9E+09,9E+09,9E+09]];
CONST robtarget Target_314:=[[358.4614111583238, 172.0555415204493, 3.0],[0,0.924,0.383,0],[0,0,0,0],[9E+09,9E+09,9E+09,9E+09,9E+09,9E+09]];
CONST robtarget Target_315:=[[357.5375316327694, 171.67285807128883, 3.0],[0,0.924,0.383,0],[0,0,0,0],[9E+09,9E+09,9E+09,9E+09,9E+09,9E+09]];
CONST robtarget Target_316:=[[356.613652107215, 171.29017462212835, 3.0],[0,0.924,0.383,0],[0,0,0,0],[9E+09,9E+09,9E+09,9E+09,9E+09,9E+09]];
CONST robtarget Target_317:=[[355.6897725816606, 170.90749117296787, 3.0],[0,0.924,0.383,0],[0,0,0,0],[9E+09,9E+09,9E+09,9E+09,9E+09,9E+09]];
CONST robtarget Target_318:=[[354.79896780273714, 170.46752058102823, 3.0],[0,0.924,0.383,0],[0,0,0,0],[9E+09,9E+09,9E+09,9E+09,9E+09,9E+09]];
CONST robtarget Target_319:=[[354.0056144406403, 169.85875918043715, 3.0],[0,0.924,0.383,0],[0,0,0,0],[9E+09,9E+09,9E+09,9E+09,9E+09,9E+09]];
CONST robtarget Target_320:=[[353.2122610785434, 169.24999777984607, 3.0],[0,0.924,0.383,0],[0,0,0,0],[9E+09,9E+09,9E+09,9E+09,9E+09,9E+09]];
CONST robtarget Target_321:=[[352.4189077164466, 168.641236379255, 3.0],[0,0.924,0.383,0],[0,0,0,0],[9E+09,9E+09,9E+09,9E+09,9E+09,9E+09]];
CONST robtarget Target_322:=[[351.62555435434973, 168.0324749786639, 3.0],[0,0.924,0.383,0],[0,0,0,0],[9E+09,9E+09,9E+09,9E+09,9E+09,9E+09]];
CONST robtarget Target_323:=[[350.83220099225287, 167.42371357807284, 3.0],[0,0.924,0.383,0],[0,0,0,0],[9E+09,9E+09,9E+09,9E+09,9E+09,9E+09]];
CONST robtarget Target_324:=[[350.038847630156, 166.81495217748176, 3.0],[0,0.924,0.383,0],[0,0,0,0],[9E+09,9E+09,9E+09,9E+09,9E+09,9E+09]];
CONST robtarget Target_325:=[[349.24549426805913, 166.20619077689068, 3.0],[0,0.924,0.383,0],[0,0,0,0],[9E+09,9E+09,9E+09,9E+09,9E+09,9E+09]];
CONST robtarget Target_326:=[[348.4521409059623, 165.5974293762996, 3.0],[0,0.924,0.383,0],[0,0,0,0],[9E+09,9E+09,9E+09,9E+09,9E+09,9E+09]];
CONST robtarget Target_327:=[[347.6587875438654, 164.98866797570852, 3.0],[0,0.924,0.383,0],[0,0,0,0],[9E+09,9E+09,9E+09,9E+09,9E+09,9E+09]];
CONST robtarget Target_328:=[[346.8654341817686, 164.37990657511745, 3.0],[0,0.924,0.383,0],[0,0,0,0],[9E+09,9E+09,9E+09,9E+09,9E+09,9E+09]];
CONST robtarget Target_329:=[[346.0720808196717, 163.77114517452637, 3.0],[0,0.924,0.383,0],[0,0,0,0],[9E+09,9E+09,9E+09,9E+09,9E+09,9E+09]];
CONST robtarget Target_330:=[[345.27872745757486, 163.1623837739353, 3.0],[0,0.924,0.383,0],[0,0,0,0],[9E+09,9E+09,9E+09,9E+09,9E+09,9E+09]];
CONST robtarget Target_331:=[[344.485374095478, 162.55362237334418, 3.0],[0,0.924,0.383,0],[0,0,0,0],[9E+09,9E+09,9E+09,9E+09,9E+09,9E+09]];
CONST robtarget Target_332:=[[343.6920207333811, 161.94486097275313, 3.0],[0,0.924,0.383,0],[0,0,0,0],[9E+09,9E+09,9E+09,9E+09,9E+09,9E+09]];
CONST robtarget Target_333:=[[342.8986673712843, 161.33609957216203, 3.0],[0,0.924,0.383,0],[0,0,0,0],[9E+09,9E+09,9E+09,9E+09,9E+09,9E+09]];
CONST robtarget Target_334:=[[342.10531400918745, 160.72733817157098, 3.0],[0,0.924,0.383,0],[0,0,0,0],[9E+09,9E+09,9E+09,9E+09,9E+09,9E+09]];
CONST robtarget Target_335:=[[341.3119606470906, 160.11857677097987, 3.0],[0,0.924,0.383,0],[0,0,0,0],[9E+09,9E+09,9E+09,9E+09,9E+09,9E+09]];
CONST robtarget Target_336:=[[340.5186072849937, 159.50981537038882, 3.0],[0,0.924,0.383,0],[0,0,0,0],[9E+09,9E+09,9E+09,9E+09,9E+09,9E+09]];
CONST robtarget Target_337:=[[339.90610396979775, 158.72020392289687, 3.0],[0,0.924,0.383,0],[0,0,0,0],[9E+09,9E+09,9E+09,9E+09,9E+09,9E+09]];
CONST robtarget Target_338:=[[339.29734256920665, 157.9268505608, 3.0],[0,0.924,0.383,0],[0,0,0,0],[9E+09,9E+09,9E+09,9E+09,9E+09,9E+09]];
CONST robtarget Target_339:=[[338.68858116861554, 157.13349719870314, 3.0],[0,0.924,0.383,0],[0,0,0,0],[9E+09,9E+09,9E+09,9E+09,9E+09,9E+09]];
CONST robtarget Target_340:=[[338.0798197680245, 156.34014383660627, 3.0],[0,0.924,0.383,0],[0,0,0,0],[9E+09,9E+09,9E+09,9E+09,9E+09,9E+09]];
CONST robtarget Target_341:=[[337.47105836743344, 155.5467904745094, 3.0],[0,0.924,0.383,0],[0,0,0,0],[9E+09,9E+09,9E+09,9E+09,9E+09,9E+09]];
CONST robtarget Target_342:=[[336.86229696684234, 154.75343711241257, 3.0],[0,0.924,0.383,0],[0,0,0,0],[9E+09,9E+09,9E+09,9E+09,9E+09,9E+09]];
CONST robtarget Target_343:=[[336.25353556625123, 153.9600837503157, 3.0],[0,0.924,0.383,0],[0,0,0,0],[9E+09,9E+09,9E+09,9E+09,9E+09,9E+09]];
CONST robtarget Target_344:=[[335.6447741656602, 153.16673038821887, 3.0],[0,0.924,0.383,0],[0,0,0,0],[9E+09,9E+09,9E+09,9E+09,9E+09,9E+09]];
CONST robtarget Target_345:=[[335.0360127650691, 152.373377026122, 3.0],[0,0.924,0.383,0],[0,0,0,0],[9E+09,9E+09,9E+09,9E+09,9E+09,9E+09]];
CONST robtarget Target_346:=[[334.427251364478, 151.58002366402513, 3.0],[0,0.924,0.383,0],[0,0,0,0],[9E+09,9E+09,9E+09,9E+09,9E+09,9E+09]];
CONST robtarget Target_347:=[[333.8184899638869, 150.78667030192827, 3.0],[0,0.924,0.383,0],[0,0,0,0],[9E+09,9E+09,9E+09,9E+09,9E+09,9E+09]];
CONST robtarget Target_348:=[[333.2097285632958, 149.9933169398314, 3.0],[0,0.924,0.383,0],[0,0,0,0],[9E+09,9E+09,9E+09,9E+09,9E+09,9E+09]];
CONST robtarget Target_349:=[[332.60096716270476, 149.19996357773456, 3.0],[0,0.924,0.383,0],[0,0,0,0],[9E+09,9E+09,9E+09,9E+09,9E+09,9E+09]];
CONST robtarget Target_350:=[[331.9922057621137, 148.4066102156377, 3.0],[0,0.924,0.383,0],[0,0,0,0],[9E+09,9E+09,9E+09,9E+09,9E+09,9E+09]];
CONST robtarget Target_351:=[[331.3834443615226, 147.61325685354086, 3.0],[0,0.924,0.383,0],[0,0,0,0],[9E+09,9E+09,9E+09,9E+09,9E+09,9E+09]];
CONST robtarget Target_352:=[[330.7746829609315, 146.819903491444, 3.0],[0,0.924,0.383,0],[0,0,0,0],[9E+09,9E+09,9E+09,9E+09,9E+09,9E+09]];
CONST robtarget Target_353:=[[330.16592156034045, 146.02655012934713, 3.0],[0,0.924,0.383,0],[0,0,0,0],[9E+09,9E+09,9E+09,9E+09,9E+09,9E+09]];
CONST robtarget Target_354:=[[329.55716015974934, 145.23319676725026, 3.0],[0,0.924,0.383,0],[0,0,0,0],[9E+09,9E+09,9E+09,9E+09,9E+09,9E+09]];
CONST robtarget Target_355:=[[329.10802379069344, 144.3476838521044, 3.0],[0,0.924,0.383,0],[0,0,0,0],[9E+09,9E+09,9E+09,9E+09,9E+09,9E+09]];
CONST robtarget Target_356:=[[328.725340341533, 143.42380432655, 3.0],[0,0.924,0.383,0],[0,0,0,0],[9E+09,9E+09,9E+09,9E+09,9E+09,9E+09]];
CONST robtarget Target_357:=[[328.34265689237253, 142.4999248009956, 3.0],[0,0.924,0.383,0],[0,0,0,0],[9E+09,9E+09,9E+09,9E+09,9E+09,9E+09]];
CONST robtarget Target_358:=[[327.95997344321205, 141.57604527544117, 3.0],[0,0.924,0.383,0],[0,0,0,0],[9E+09,9E+09,9E+09,9E+09,9E+09,9E+09]];
CONST robtarget Target_359:=[[327.57728999405157, 140.65216574988676, 3.0],[0,0.924,0.383,0],[0,0,0,0],[9E+09,9E+09,9E+09,9E+09,9E+09,9E+09]];
CONST robtarget Target_360:=[[327.1946065448911, 139.72828622433235, 3.0],[0,0.924,0.383,0],[0,0,0,0],[9E+09,9E+09,9E+09,9E+09,9E+09,9E+09]];
CONST robtarget Target_361:=[[326.8119230957306, 138.80440669877797, 3.0],[0,0.924,0.383,0],[0,0,0,0],[9E+09,9E+09,9E+09,9E+09,9E+09,9E+09]];
CONST robtarget Target_362:=[[326.4292396465702, 137.88052717322356, 3.0],[0,0.924,0.383,0],[0,0,0,0],[9E+09,9E+09,9E+09,9E+09,9E+09,9E+09]];
CONST robtarget Target_363:=[[326.0465561974097, 136.95664764766914, 3.0],[0,0.924,0.383,0],[0,0,0,0],[9E+09,9E+09,9E+09,9E+09,9E+09,9E+09]];
CONST robtarget Target_364:=[[325.6638727482492, 136.03276812211476, 3.0],[0,0.924,0.383,0],[0,0,0,0],[9E+09,9E+09,9E+09,9E+09,9E+09,9E+09]];
CONST robtarget Target_365:=[[325.28118929908874, 135.10888859656035, 3.0],[0,0.924,0.383,0],[0,0,0,0],[9E+09,9E+09,9E+09,9E+09,9E+09,9E+09]];
CONST robtarget Target_366:=[[324.89850584992826, 134.18500907100594, 3.0],[0,0.924,0.383,0],[0,0,0,0],[9E+09,9E+09,9E+09,9E+09,9E+09,9E+09]];
CONST robtarget Target_367:=[[324.5158224007678, 133.26112954545152, 3.0],[0,0.924,0.383,0],[0,0,0,0],[9E+09,9E+09,9E+09,9E+09,9E+09,9E+09]];
CONST robtarget Target_368:=[[324.1331389516073, 132.3372500198971, 3.0],[0,0.924,0.383,0],[0,0,0,0],[9E+09,9E+09,9E+09,9E+09,9E+09,9E+09]];
CONST robtarget Target_369:=[[323.7504555024468, 131.4133704943427, 3.0],[0,0.924,0.383,0],[0,0,0,0],[9E+09,9E+09,9E+09,9E+09,9E+09,9E+09]];
CONST robtarget Target_370:=[[323.36777205328633, 130.4894909687883, 3.0],[0,0.924,0.383,0],[0,0,0,0],[9E+09,9E+09,9E+09,9E+09,9E+09,9E+09]];
CONST robtarget Target_371:=[[322.98508860412585, 129.56561144323388, 3.0],[0,0.924,0.383,0],[0,0,0,0],[9E+09,9E+09,9E+09,9E+09,9E+09,9E+09]];
CONST robtarget Target_372:=[[322.60240515496537, 128.64173191767946, 3.0],[0,0.924,0.383,0],[0,0,0,0],[9E+09,9E+09,9E+09,9E+09,9E+09,9E+09]];
CONST robtarget Target_373:=[[322.32875316984854, 127.68863749876368, 3.0],[0,0.924,0.383,0],[0,0,0,0],[9E+09,9E+09,9E+09,9E+09,9E+09,9E+09]];
CONST robtarget Target_374:=[[322.1982269851094, 126.69719263640499, 3.0],[0,0.924,0.383,0],[0,0,0,0],[9E+09,9E+09,9E+09,9E+09,9E+09,9E+09]];
CONST robtarget Target_375:=[[322.0677008003702, 125.7057477740463, 3.0],[0,0.924,0.383,0],[0,0,0,0],[9E+09,9E+09,9E+09,9E+09,9E+09,9E+09]];
CONST robtarget Target_376:=[[321.937174615631, 124.71430291168761, 3.0],[0,0.924,0.383,0],[0,0,0,0],[9E+09,9E+09,9E+09,9E+09,9E+09,9E+09]];
CONST robtarget Target_377:=[[321.80664843089187, 123.72285804932893, 3.0],[0,0.924,0.383,0],[0,0,0,0],[9E+09,9E+09,9E+09,9E+09,9E+09,9E+09]];
CONST robtarget Target_378:=[[321.67612224615266, 122.73141318697024, 3.0],[0,0.924,0.383,0],[0,0,0,0],[9E+09,9E+09,9E+09,9E+09,9E+09,9E+09]];
CONST robtarget Target_379:=[[321.5455960614135, 121.73996832461157, 3.0],[0,0.924,0.383,0],[0,0,0,0],[9E+09,9E+09,9E+09,9E+09,9E+09,9E+09]];
CONST robtarget Target_380:=[[321.41506987667435, 120.74852346225288, 3.0],[0,0.924,0.383,0],[0,0,0,0],[9E+09,9E+09,9E+09,9E+09,9E+09,9E+09]];
CONST robtarget Target_381:=[[321.28454369193514, 119.75707859989419, 3.0],[0,0.924,0.383,0],[0,0,0,0],[9E+09,9E+09,9E+09,9E+09,9E+09,9E+09]];
CONST robtarget Target_382:=[[321.154017507196, 118.7656337375355, 3.0],[0,0.924,0.383,0],[0,0,0,0],[9E+09,9E+09,9E+09,9E+09,9E+09,9E+09]];
CONST robtarget Target_383:=[[321.02349132245683, 117.7741888751768, 3.0],[0,0.924,0.383,0],[0,0,0,0],[9E+09,9E+09,9E+09,9E+09,9E+09,9E+09]];
CONST robtarget Target_384:=[[320.8929651377176, 116.78274401281811, 3.0],[0,0.924,0.383,0],[0,0,0,0],[9E+09,9E+09,9E+09,9E+09,9E+09,9E+09]];
CONST robtarget Target_385:=[[320.76243895297847, 115.79129915045942, 3.0],[0,0.924,0.383,0],[0,0,0,0],[9E+09,9E+09,9E+09,9E+09,9E+09,9E+09]];
CONST robtarget Target_386:=[[320.6319127682393, 114.79985428810073, 3.0],[0,0.924,0.383,0],[0,0,0,0],[9E+09,9E+09,9E+09,9E+09,9E+09,9E+09]];
CONST robtarget Target_387:=[[320.50138658350016, 113.80840942574204, 3.0],[0,0.924,0.383,0],[0,0,0,0],[9E+09,9E+09,9E+09,9E+09,9E+09,9E+09]];
CONST robtarget Target_388:=[[320.370860398761, 112.81696456338338, 3.0],[0,0.924,0.383,0],[0,0,0,0],[9E+09,9E+09,9E+09,9E+09,9E+09,9E+09]];
CONST robtarget Target_389:=[[320.2403342140218, 111.82551970102469, 3.0],[0,0.924,0.383,0],[0,0,0,0],[9E+09,9E+09,9E+09,9E+09,9E+09,9E+09]];
CONST robtarget Target_390:=[[320.10980802928265, 110.834074838666, 3.0],[0,0.924,0.383,0],[0,0,0,0],[9E+09,9E+09,9E+09,9E+09,9E+09,9E+09]];
CONST robtarget Target_391:=[[319.9792818445435, 109.84262997630731, 3.0],[0,0.924,0.383,0],[0,0,0,0],[9E+09,9E+09,9E+09,9E+09,9E+09,9E+09]];
CONST robtarget Target_392:=[[319.8487556598043, 108.85118511394862, 3.0],[0,0.924,0.383,0],[0,0,0,0],[9E+09,9E+09,9E+09,9E+09,9E+09,9E+09]];
CONST robtarget Target_393:=[[319.71822947506513, 107.85974025158993, 3.0],[0,0.924,0.383,0],[0,0,0,0],[9E+09,9E+09,9E+09,9E+09,9E+09,9E+09]];
CONST robtarget Target_394:=[[319.587703290326, 106.86829538923124, 3.0],[0,0.924,0.383,0],[0,0,0,0],[9E+09,9E+09,9E+09,9E+09,9E+09,9E+09]];
CONST robtarget Target_395:=[[319.45717710558677, 105.87685052687254, 3.0],[0,0.924,0.383,0],[0,0,0,0],[9E+09,9E+09,9E+09,9E+09,9E+09,9E+09]];
CONST robtarget Target_396:=[[319.3266509208476, 104.88540566451388, 3.0],[0,0.924,0.383,0],[0,0,0,0],[9E+09,9E+09,9E+09,9E+09,9E+09,9E+09]];
CONST robtarget Target_397:=[[319.19612473610846, 103.89396080215519, 3.0],[0,0.924,0.383,0],[0,0,0,0],[9E+09,9E+09,9E+09,9E+09,9E+09,9E+09]];
CONST robtarget Target_398:=[[319.0655985513693, 102.9025159397965, 3.0],[0,0.924,0.383,0],[0,0,0,0],[9E+09,9E+09,9E+09,9E+09,9E+09,9E+09]];
CONST robtarget Target_399:=[[318.93507236663015, 101.91107107743781, 3.0],[0,0.924,0.383,0],[0,0,0,0],[9E+09,9E+09,9E+09,9E+09,9E+09,9E+09]];
CONST robtarget Target_400:=[[318.80454618189094, 100.91962621507912, 3.0],[0,0.924,0.383,0],[0,0,0,0],[9E+09,9E+09,9E+09,9E+09,9E+09,9E+09]];
CONST robtarget Target_401:=[[318.6740199971518, 99.92818135272043, 3.0],[0,0.924,0.383,0],[0,0,0,0],[9E+09,9E+09,9E+09,9E+09,9E+09,9E+09]];
CONST robtarget Target_402:=[[318.54349381241263, 98.93673649036174, 3.0],[0,0.924,0.383,0],[0,0,0,0],[9E+09,9E+09,9E+09,9E+09,9E+09,9E+09]];
CONST robtarget Target_403:=[[318.4129676276734, 97.94529162800305, 3.0],[0,0.924,0.383,0],[0,0,0,0],[9E+09,9E+09,9E+09,9E+09,9E+09,9E+09]];
CONST robtarget Target_404:=[[318.28244144293427, 96.95384676564436, 3.0],[0,0.924,0.383,0],[0,0,0,0],[9E+09,9E+09,9E+09,9E+09,9E+09,9E+09]];
CONST robtarget Target_405:=[[318.1519152581951, 95.9624019032857, 3.0],[0,0.924,0.383,0],[0,0,0,0],[9E+09,9E+09,9E+09,9E+09,9E+09,9E+09]];
CONST robtarget Target_406:=[[318.0213890734559, 94.970957040927, 3.0],[0,0.924,0.383,0],[0,0,0,0],[9E+09,9E+09,9E+09,9E+09,9E+09,9E+09]];
CONST robtarget Target_407:=[[317.89086288871675, 93.97951217856831, 3.0],[0,0.924,0.383,0],[0,0,0,0],[9E+09,9E+09,9E+09,9E+09,9E+09,9E+09]];
CONST robtarget Target_408:=[[317.7603367039776, 92.98806731620962, 3.0],[0,0.924,0.383,0],[0,0,0,0],[9E+09,9E+09,9E+09,9E+09,9E+09,9E+09]];
CONST robtarget Target_409:=[[317.62981051923845, 91.99662245385093, 3.0],[0,0.924,0.383,0],[0,0,0,0],[9E+09,9E+09,9E+09,9E+09,9E+09,9E+09]];
CONST robtarget Target_410:=[[317.27610971611296, 91.06497705153177, 3.0],[0,0.924,0.383,0],[0,0,0,0],[9E+09,9E+09,9E+09,9E+09,9E+09,9E+09]];
CONST robtarget Target_411:=[[316.8934262669525, 90.14109752597736, 3.0],[0,0.924,0.383,0],[0,0,0,0],[9E+09,9E+09,9E+09,9E+09,9E+09,9E+09]];
CONST robtarget Target_412:=[[316.510742817792, 89.21721800042295, 3.0],[0,0.924,0.383,0],[0,0,0,0],[9E+09,9E+09,9E+09,9E+09,9E+09,9E+09]];
CONST robtarget Target_413:=[[316.1280593686315, 88.29333847486853, 3.0],[0,0.924,0.383,0],[0,0,0,0],[9E+09,9E+09,9E+09,9E+09,9E+09,9E+09]];
CONST robtarget Target_414:=[[315.74537591947103, 87.36945894931412, 3.0],[0,0.924,0.383,0],[0,0,0,0],[9E+09,9E+09,9E+09,9E+09,9E+09,9E+09]];
CONST robtarget Target_415:=[[315.36269247031055, 86.44557942375971, 3.0],[0,0.924,0.383,0],[0,0,0,0],[9E+09,9E+09,9E+09,9E+09,9E+09,9E+09]];
CONST robtarget Target_416:=[[314.98000902115007, 85.5216998982053, 3.0],[0,0.924,0.383,0],[0,0,0,0],[9E+09,9E+09,9E+09,9E+09,9E+09,9E+09]];
CONST robtarget Target_417:=[[314.5973255719896, 84.59782037265089, 3.0],[0,0.924,0.383,0],[0,0,0,0],[9E+09,9E+09,9E+09,9E+09,9E+09,9E+09]];
CONST robtarget Target_418:=[[314.2146421228291, 83.67394084709647, 3.0],[0,0.924,0.383,0],[0,0,0,0],[9E+09,9E+09,9E+09,9E+09,9E+09,9E+09]];
CONST robtarget Target_419:=[[313.8319586736686, 82.75006132154206, 3.0],[0,0.924,0.383,0],[0,0,0,0],[9E+09,9E+09,9E+09,9E+09,9E+09,9E+09]];
CONST robtarget Target_420:=[[313.44927522450814, 81.82618179598765, 3.0],[0,0.924,0.383,0],[0,0,0,0],[9E+09,9E+09,9E+09,9E+09,9E+09,9E+09]];
CONST robtarget Target_421:=[[313.06659177534766, 80.90230227043321, 3.0],[0,0.924,0.383,0],[0,0,0,0],[9E+09,9E+09,9E+09,9E+09,9E+09,9E+09]];
CONST robtarget Target_422:=[[312.6839083261872, 79.9784227448788, 3.0],[0,0.924,0.383,0],[0,0,0,0],[9E+09,9E+09,9E+09,9E+09,9E+09,9E+09]];
CONST robtarget Target_423:=[[312.3012248770267, 79.05454321932439, 3.0],[0,0.924,0.383,0],[0,0,0,0],[9E+09,9E+09,9E+09,9E+09,9E+09,9E+09]];
CONST robtarget Target_424:=[[311.9185414278662, 78.13066369376997, 3.0],[0,0.924,0.383,0],[0,0,0,0],[9E+09,9E+09,9E+09,9E+09,9E+09,9E+09]];
CONST robtarget Target_425:=[[311.53585797870574, 77.20678416821556, 3.0],[0,0.924,0.383,0],[0,0,0,0],[9E+09,9E+09,9E+09,9E+09,9E+09,9E+09]];
CONST robtarget Target_426:=[[311.1531745295453, 76.28290464266115, 3.0],[0,0.924,0.383,0],[0,0,0,0],[9E+09,9E+09,9E+09,9E+09,9E+09,9E+09]];
CONST robtarget Target_427:=[[310.77049108038483, 75.35902511710674, 3.0],[0,0.924,0.383,0],[0,0,0,0],[9E+09,9E+09,9E+09,9E+09,9E+09,9E+09]];
CONST robtarget Target_428:=[[310.24958492578907, 74.51494850611797, 3.0],[0,0.924,0.383,0],[0,0,0,0],[9E+09,9E+09,9E+09,9E+09,9E+09,9E+09]];
CONST robtarget Target_429:=[[309.64082352519796, 73.72159514402111, 3.0],[0,0.924,0.383,0],[0,0,0,0],[9E+09,9E+09,9E+09,9E+09,9E+09,9E+09]];
CONST robtarget Target_430:=[[309.0320621246069, 72.92824178192427, 3.0],[0,0.924,0.383,0],[0,0,0,0],[9E+09,9E+09,9E+09,9E+09,9E+09,9E+09]];
CONST robtarget Target_431:=[[308.4233007240158, 72.1348884198274, 3.0],[0,0.924,0.383,0],[0,0,0,0],[9E+09,9E+09,9E+09,9E+09,9E+09,9E+09]];
CONST robtarget Target_432:=[[307.81453932342475, 71.34153505773054, 3.0],[0,0.924,0.383,0],[0,0,0,0],[9E+09,9E+09,9E+09,9E+09,9E+09,9E+09]];
CONST robtarget Target_433:=[[307.20577792283365, 70.5481816956337, 3.0],[0,0.924,0.383,0],[0,0,0,0],[9E+09,9E+09,9E+09,9E+09,9E+09,9E+09]];
CONST robtarget Target_434:=[[306.5970165222426, 69.75482833353684, 3.0],[0,0.924,0.383,0],[0,0,0,0],[9E+09,9E+09,9E+09,9E+09,9E+09,9E+09]];
CONST robtarget Target_435:=[[305.9882551216515, 68.96147497143997, 3.0],[0,0.924,0.383,0],[0,0,0,0],[9E+09,9E+09,9E+09,9E+09,9E+09,9E+09]];
CONST robtarget Target_436:=[[305.37949372106044, 68.16812160934313, 3.0],[0,0.924,0.383,0],[0,0,0,0],[9E+09,9E+09,9E+09,9E+09,9E+09,9E+09]];
CONST robtarget Target_437:=[[304.77073232046934, 67.37476824724627, 3.0],[0,0.924,0.383,0],[0,0,0,0],[9E+09,9E+09,9E+09,9E+09,9E+09,9E+09]];
CONST robtarget Target_438:=[[304.1619709198783, 66.5814148851494, 3.0],[0,0.924,0.383,0],[0,0,0,0],[9E+09,9E+09,9E+09,9E+09,9E+09,9E+09]];
CONST robtarget Target_439:=[[303.5532095192872, 65.78806152305253, 3.0],[0,0.924,0.383,0],[0,0,0,0],[9E+09,9E+09,9E+09,9E+09,9E+09,9E+09]];
CONST robtarget Target_440:=[[302.94444811869613, 64.9947081609557, 3.0],[0,0.924,0.383,0],[0,0,0,0],[9E+09,9E+09,9E+09,9E+09,9E+09,9E+09]];
CONST robtarget Target_441:=[[302.335686718105, 64.20135479885883, 3.0],[0,0.924,0.383,0],[0,0,0,0],[9E+09,9E+09,9E+09,9E+09,9E+09,9E+09]];
CONST robtarget Target_442:=[[301.726925317514, 63.408001436761964, 3.0],[0,0.924,0.383,0],[0,0,0,0],[9E+09,9E+09,9E+09,9E+09,9E+09,9E+09]];
CONST robtarget Target_443:=[[301.11816391692287, 62.614648074665126, 3.0],[0,0.924,0.383,0],[0,0,0,0],[9E+09,9E+09,9E+09,9E+09,9E+09,9E+09]];
CONST robtarget Target_444:=[[300.5094025163318, 61.82129471256826, 3.0],[0,0.924,0.383,0],[0,0,0,0],[9E+09,9E+09,9E+09,9E+09,9E+09,9E+09]];
CONST robtarget Target_445:=[[299.9006411157407, 61.027941350471394, 3.0],[0,0.924,0.383,0],[0,0,0,0],[9E+09,9E+09,9E+09,9E+09,9E+09,9E+09]];
CONST robtarget Target_446:=[[299.22953798837455, 60.296929715149645, 3.0],[0,0.924,0.383,0],[0,0,0,0],[9E+09,9E+09,9E+09,9E+09,9E+09,9E+09]];
CONST robtarget Target_447:=[[298.4361846262777, 59.68816831455857, 3.0],[0,0.924,0.383,0],[0,0,0,0],[9E+09,9E+09,9E+09,9E+09,9E+09,9E+09]];
CONST robtarget Target_448:=[[297.64283126418087, 59.07940691396749, 3.0],[0,0.924,0.383,0],[0,0,0,0],[9E+09,9E+09,9E+09,9E+09,9E+09,9E+09]];
CONST robtarget Target_449:=[[296.849477902084, 58.47064551337638, 3.0],[0,0.924,0.383,0],[0,0,0,0],[9E+09,9E+09,9E+09,9E+09,9E+09,9E+09]];
CONST robtarget Target_450:=[[296.05612453998714, 57.861884112785305, 3.0],[0,0.924,0.383,0],[0,0,0,0],[9E+09,9E+09,9E+09,9E+09,9E+09,9E+09]];
CONST robtarget Target_451:=[[295.2627711778903, 57.25312271219423, 3.0],[0,0.924,0.383,0],[0,0,0,0],[9E+09,9E+09,9E+09,9E+09,9E+09,9E+09]];
CONST robtarget Target_452:=[[294.4694178157934, 56.64436131160315, 3.0],[0,0.924,0.383,0],[0,0,0,0],[9E+09,9E+09,9E+09,9E+09,9E+09,9E+09]];
CONST robtarget Target_453:=[[293.67606445369654, 56.03559991101207, 3.0],[0,0.924,0.383,0],[0,0,0,0],[9E+09,9E+09,9E+09,9E+09,9E+09,9E+09]];
CONST robtarget Target_454:=[[292.88271109159973, 55.42683851042099, 3.0],[0,0.924,0.383,0],[0,0,0,0],[9E+09,9E+09,9E+09,9E+09,9E+09,9E+09]];
CONST robtarget Target_455:=[[292.08935772950286, 54.818077109829915, 3.0],[0,0.924,0.383,0],[0,0,0,0],[9E+09,9E+09,9E+09,9E+09,9E+09,9E+09]];
CONST robtarget Target_456:=[[291.296004367406, 54.20931570923884, 3.0],[0,0.924,0.383,0],[0,0,0,0],[9E+09,9E+09,9E+09,9E+09,9E+09,9E+09]];
CONST robtarget Target_457:=[[290.50265100530913, 53.60055430864776, 3.0],[0,0.924,0.383,0],[0,0,0,0],[9E+09,9E+09,9E+09,9E+09,9E+09,9E+09]];
CONST robtarget Target_458:=[[289.70929764321227, 52.99179290805668, 3.0],[0,0.924,0.383,0],[0,0,0,0],[9E+09,9E+09,9E+09,9E+09,9E+09,9E+09]];
CONST robtarget Target_459:=[[288.91594428111546, 52.3830315074656, 3.0],[0,0.924,0.383,0],[0,0,0,0],[9E+09,9E+09,9E+09,9E+09,9E+09,9E+09]];
CONST robtarget Target_460:=[[288.1225909190186, 51.774270106874525, 3.0],[0,0.924,0.383,0],[0,0,0,0],[9E+09,9E+09,9E+09,9E+09,9E+09,9E+09]];
CONST robtarget Target_461:=[[287.3292375569217, 51.16550870628345, 3.0],[0,0.924,0.383,0],[0,0,0,0],[9E+09,9E+09,9E+09,9E+09,9E+09,9E+09]];
CONST robtarget Target_462:=[[286.53588419482486, 50.55674730569237, 3.0],[0,0.924,0.383,0],[0,0,0,0],[9E+09,9E+09,9E+09,9E+09,9E+09,9E+09]];
CONST robtarget Target_463:=[[285.742530832728, 49.94798590510129, 3.0],[0,0.924,0.383,0],[0,0,0,0],[9E+09,9E+09,9E+09,9E+09,9E+09,9E+09]];
CONST robtarget Target_464:=[[284.940815913105, 49.35370714727091, 3.0],[0,0.924,0.383,0],[0,0,0,0],[9E+09,9E+09,9E+09,9E+09,9E+09,9E+09]];
CONST robtarget Target_465:=[[284.0169363875506, 48.97102369811043, 3.0],[0,0.924,0.383,0],[0,0,0,0],[9E+09,9E+09,9E+09,9E+09,9E+09,9E+09]];
CONST robtarget Target_466:=[[283.09305686199616, 48.58834024894995, 3.0],[0,0.924,0.383,0],[0,0,0,0],[9E+09,9E+09,9E+09,9E+09,9E+09,9E+09]];
CONST robtarget Target_467:=[[282.16917733644175, 48.205656799789466, 3.0],[0,0.924,0.383,0],[0,0,0,0],[9E+09,9E+09,9E+09,9E+09,9E+09,9E+09]];
CONST robtarget Target_468:=[[281.24529781088734, 47.822973350628985, 3.0],[0,0.924,0.383,0],[0,0,0,0],[9E+09,9E+09,9E+09,9E+09,9E+09,9E+09]];
CONST robtarget Target_469:=[[280.321418285333, 47.44028990146853, 3.0],[0,0.924,0.383,0],[0,0,0,0],[9E+09,9E+09,9E+09,9E+09,9E+09,9E+09]];
CONST robtarget Target_470:=[[279.39753875977857, 47.05760645230805, 3.0],[0,0.924,0.383,0],[0,0,0,0],[9E+09,9E+09,9E+09,9E+09,9E+09,9E+09]];
CONST robtarget Target_471:=[[278.47365923422416, 46.67492300314757, 3.0],[0,0.924,0.383,0],[0,0,0,0],[9E+09,9E+09,9E+09,9E+09,9E+09,9E+09]];
CONST robtarget Target_472:=[[277.54977970866975, 46.29223955398709, 3.0],[0,0.924,0.383,0],[0,0,0,0],[9E+09,9E+09,9E+09,9E+09,9E+09,9E+09]];
CONST robtarget Target_473:=[[276.62590018311533, 45.909556104826606, 3.0],[0,0.924,0.383,0],[0,0,0,0],[9E+09,9E+09,9E+09,9E+09,9E+09,9E+09]];
CONST robtarget Target_474:=[[275.7020206575609, 45.526872655666125, 3.0],[0,0.924,0.383,0],[0,0,0,0],[9E+09,9E+09,9E+09,9E+09,9E+09,9E+09]];
CONST robtarget Target_475:=[[274.7781411320065, 45.144189206505644, 3.0],[0,0.924,0.383,0],[0,0,0,0],[9E+09,9E+09,9E+09,9E+09,9E+09,9E+09]];
CONST robtarget Target_476:=[[273.8542616064521, 44.76150575734519, 3.0],[0,0.924,0.383,0],[0,0,0,0],[9E+09,9E+09,9E+09,9E+09,9E+09,9E+09]];
CONST robtarget Target_477:=[[272.9303820808977, 44.37882230818471, 3.0],[0,0.924,0.383,0],[0,0,0,0],[9E+09,9E+09,9E+09,9E+09,9E+09,9E+09]];
CONST robtarget Target_478:=[[272.0065025553433, 43.99613885902423, 3.0],[0,0.924,0.383,0],[0,0,0,0],[9E+09,9E+09,9E+09,9E+09,9E+09,9E+09]];
CONST robtarget Target_479:=[[271.08262302978886, 43.61345540986375, 3.0],[0,0.924,0.383,0],[0,0,0,0],[9E+09,9E+09,9E+09,9E+09,9E+09,9E+09]];
CONST robtarget Target_480:=[[270.15874350423445, 43.230771960703265, 3.0],[0,0.924,0.383,0],[0,0,0,0],[9E+09,9E+09,9E+09,9E+09,9E+09,9E+09]];
CONST robtarget Target_481:=[[269.23486397868004, 42.848088511542784, 3.0],[0,0.924,0.383,0],[0,0,0,0],[9E+09,9E+09,9E+09,9E+09,9E+09,9E+09]];
CONST robtarget Target_482:=[[268.3109844531256, 42.46540506238233, 3.0],[0,0.924,0.383,0],[0,0,0,0],[9E+09,9E+09,9E+09,9E+09,9E+09,9E+09]];
CONST robtarget Target_483:=[[267.3337017464281, 42.28202499429503, 3.0],[0,0.924,0.383,0],[0,0,0,0],[9E+09,9E+09,9E+09,9E+09,9E+09,9E+09]];
CONST robtarget Target_484:=[[266.3422568840694, 42.151498809555875, 3.0],[0,0.924,0.383,0],[0,0,0,0],[9E+09,9E+09,9E+09,9E+09,9E+09,9E+09]];
CONST robtarget Target_485:=[[265.35081202171074, 42.02097262481669, 3.0],[0,0.924,0.383,0],[0,0,0,0],[9E+09,9E+09,9E+09,9E+09,9E+09,9E+09]];
CONST robtarget Target_486:=[[264.359367159352, 41.89044644007751, 3.0],[0,0.924,0.383,0],[0,0,0,0],[9E+09,9E+09,9E+09,9E+09,9E+09,9E+09]];
CONST robtarget Target_487:=[[263.36792229699336, 41.75992025533836, 3.0],[0,0.924,0.383,0],[0,0,0,0],[9E+09,9E+09,9E+09,9E+09,9E+09,9E+09]];
CONST robtarget Target_488:=[[262.3764774346347, 41.629394070599176, 3.0],[0,0.924,0.383,0],[0,0,0,0],[9E+09,9E+09,9E+09,9E+09,9E+09,9E+09]];
CONST robtarget Target_489:=[[261.385032572276, 41.49886788586002, 3.0],[0,0.924,0.383,0],[0,0,0,0],[9E+09,9E+09,9E+09,9E+09,9E+09,9E+09]];
CONST robtarget Target_490:=[[260.3935877099173, 41.36834170112084, 3.0],[0,0.924,0.383,0],[0,0,0,0],[9E+09,9E+09,9E+09,9E+09,9E+09,9E+09]];
CONST robtarget Target_491:=[[259.4021428475586, 41.23781551638169, 3.0],[0,0.924,0.383,0],[0,0,0,0],[9E+09,9E+09,9E+09,9E+09,9E+09,9E+09]];
CONST robtarget Target_492:=[[258.41069798519993, 41.107289331642505, 3.0],[0,0.924,0.383,0],[0,0,0,0],[9E+09,9E+09,9E+09,9E+09,9E+09,9E+09]];
CONST robtarget Target_493:=[[257.4192531228412, 40.97676314690335, 3.0],[0,0.924,0.383,0],[0,0,0,0],[9E+09,9E+09,9E+09,9E+09,9E+09,9E+09]];
CONST robtarget Target_494:=[[256.42780826048255, 40.84623696216417, 3.0],[0,0.924,0.383,0],[0,0,0,0],[9E+09,9E+09,9E+09,9E+09,9E+09,9E+09]];
CONST robtarget Target_495:=[[255.43636339812386, 40.715710777425016, 3.0],[0,0.924,0.383,0],[0,0,0,0],[9E+09,9E+09,9E+09,9E+09,9E+09,9E+09]];
CONST robtarget Target_496:=[[254.44491853576517, 40.585184592685835, 3.0],[0,0.924,0.383,0],[0,0,0,0],[9E+09,9E+09,9E+09,9E+09,9E+09,9E+09]];
CONST robtarget Target_497:=[[253.45347367340648, 40.45465840794668, 3.0],[0,0.924,0.383,0],[0,0,0,0],[9E+09,9E+09,9E+09,9E+09,9E+09,9E+09]];
CONST robtarget Target_498:=[[252.4620288110478, 40.3241322232075, 3.0],[0,0.924,0.383,0],[0,0,0,0],[9E+09,9E+09,9E+09,9E+09,9E+09,9E+09]];
CONST robtarget Target_499:=[[251.4705839486891, 40.193606038468346, 3.0],[0,0.924,0.383,0],[0,0,0,0],[9E+09,9E+09,9E+09,9E+09,9E+09,9E+09]];
CONST robtarget Target_500:=[[250.47913908633043, 40.063079853729164, 3.0],[0,0.924,0.383,0],[0,0,0,0],[9E+09,9E+09,9E+09,9E+09,9E+09,9E+09]];
CONST robtarget Target_501:=[[249.48769422397174, 40.06744633100999, 3.0],[0,0.924,0.383,0],[0,0,0,0],[9E+09,9E+09,9E+09,9E+09,9E+09,9E+09]];
CONST robtarget Target_502:=[[248.49624936161305, 40.19797251574917, 3.0],[0,0.924,0.383,0],[0,0,0,0],[9E+09,9E+09,9E+09,9E+09,9E+09,9E+09]];
CONST robtarget Target_503:=[[247.50480449925436, 40.328498700488325, 3.0],[0,0.924,0.383,0],[0,0,0,0],[9E+09,9E+09,9E+09,9E+09,9E+09,9E+09]];
CONST robtarget Target_504:=[[246.51335963689567, 40.45902488522751, 3.0],[0,0.924,0.383,0],[0,0,0,0],[9E+09,9E+09,9E+09,9E+09,9E+09,9E+09]];
CONST robtarget Target_505:=[[245.521914774537, 40.58955106996666, 3.0],[0,0.924,0.383,0],[0,0,0,0],[9E+09,9E+09,9E+09,9E+09,9E+09,9E+09]];
CONST robtarget Target_506:=[[244.53046991217832, 40.72007725470584, 3.0],[0,0.924,0.383,0],[0,0,0,0],[9E+09,9E+09,9E+09,9E+09,9E+09,9E+09]];
CONST robtarget Target_507:=[[243.53902504981963, 40.850603439444996, 3.0],[0,0.924,0.383,0],[0,0,0,0],[9E+09,9E+09,9E+09,9E+09,9E+09,9E+09]];
CONST robtarget Target_508:=[[242.54758018746094, 40.98112962418418, 3.0],[0,0.924,0.383,0],[0,0,0,0],[9E+09,9E+09,9E+09,9E+09,9E+09,9E+09]];
CONST robtarget Target_509:=[[241.55613532510228, 41.11165580892333, 3.0],[0,0.924,0.383,0],[0,0,0,0],[9E+09,9E+09,9E+09,9E+09,9E+09,9E+09]];
CONST robtarget Target_510:=[[240.56469046274358, 41.24218199366251, 3.0],[0,0.924,0.383,0],[0,0,0,0],[9E+09,9E+09,9E+09,9E+09,9E+09,9E+09]];
CONST robtarget Target_511:=[[239.5732456003849, 41.372708178401666, 3.0],[0,0.924,0.383,0],[0,0,0,0],[9E+09,9E+09,9E+09,9E+09,9E+09,9E+09]];
CONST robtarget Target_512:=[[238.5818007380262, 41.50323436314085, 3.0],[0,0.924,0.383,0],[0,0,0,0],[9E+09,9E+09,9E+09,9E+09,9E+09,9E+09]];
CONST robtarget Target_513:=[[237.5903558756675, 41.63376054788003, 3.0],[0,0.924,0.383,0],[0,0,0,0],[9E+09,9E+09,9E+09,9E+09,9E+09,9E+09]];
CONST robtarget Target_514:=[[236.59891101330885, 41.76428673261918, 3.0],[0,0.924,0.383,0],[0,0,0,0],[9E+09,9E+09,9E+09,9E+09,9E+09,9E+09]];
CONST robtarget Target_515:=[[235.60746615095016, 41.894812917358365, 3.0],[0,0.924,0.383,0],[0,0,0,0],[9E+09,9E+09,9E+09,9E+09,9E+09,9E+09]];
CONST robtarget Target_516:=[[234.61602128859147, 42.02533910209752, 3.0],[0,0.924,0.383,0],[0,0,0,0],[9E+09,9E+09,9E+09,9E+09,9E+09,9E+09]];
CONST robtarget Target_517:=[[233.62457642623278, 42.1558652868367, 3.0],[0,0.924,0.383,0],[0,0,0,0],[9E+09,9E+09,9E+09,9E+09,9E+09,9E+09]];
CONST robtarget Target_518:=[[232.63313156387412, 42.286391471575854, 3.0],[0,0.924,0.383,0],[0,0,0,0],[9E+09,9E+09,9E+09,9E+09,9E+09,9E+09]];
CONST robtarget Target_519:=[[231.65810911253237, 42.47820692730963, 3.0],[0,0.924,0.383,0],[0,0,0,0],[9E+09,9E+09,9E+09,9E+09,9E+09,9E+09]];
CONST robtarget Target_520:=[[230.73422958697796, 42.86089037647011, 3.0],[0,0.924,0.383,0],[0,0,0,0],[9E+09,9E+09,9E+09,9E+09,9E+09,9E+09]];
CONST robtarget Target_521:=[[229.81035006142355, 43.24357382563056, 3.0],[0,0.924,0.383,0],[0,0,0,0],[9E+09,9E+09,9E+09,9E+09,9E+09,9E+09]];
CONST robtarget Target_522:=[[228.88647053586914, 43.626257274791044, 3.0],[0,0.924,0.383,0],[0,0,0,0],[9E+09,9E+09,9E+09,9E+09,9E+09,9E+09]];
CONST robtarget Target_523:=[[227.96259101031472, 44.008940723951525, 3.0],[0,0.924,0.383,0],[0,0,0,0],[9E+09,9E+09,9E+09,9E+09,9E+09,9E+09]];
CONST robtarget Target_524:=[[227.0387114847603, 44.39162417311201, 3.0],[0,0.924,0.383,0],[0,0,0,0],[9E+09,9E+09,9E+09,9E+09,9E+09,9E+09]];
CONST robtarget Target_525:=[[226.1148319592059, 44.77430762227249, 3.0],[0,0.924,0.383,0],[0,0,0,0],[9E+09,9E+09,9E+09,9E+09,9E+09,9E+09]];
CONST robtarget Target_526:=[[225.1909524336515, 45.15699107143297, 3.0],[0,0.924,0.383,0],[0,0,0,0],[9E+09,9E+09,9E+09,9E+09,9E+09,9E+09]];
CONST robtarget Target_527:=[[224.26707290809708, 45.53967452059345, 3.0],[0,0.924,0.383,0],[0,0,0,0],[9E+09,9E+09,9E+09,9E+09,9E+09,9E+09]];
CONST robtarget Target_528:=[[223.34319338254267, 45.92235796975393, 3.0],[0,0.924,0.383,0],[0,0,0,0],[9E+09,9E+09,9E+09,9E+09,9E+09,9E+09]];
CONST robtarget Target_529:=[[222.41931385698825, 46.30504141891441, 3.0],[0,0.924,0.383,0],[0,0,0,0],[9E+09,9E+09,9E+09,9E+09,9E+09,9E+09]];
CONST robtarget Target_530:=[[221.49543433143384, 46.687724868074866, 3.0],[0,0.924,0.383,0],[0,0,0,0],[9E+09,9E+09,9E+09,9E+09,9E+09,9E+09]];
CONST robtarget Target_531:=[[220.57155480587943, 47.07040831723535, 3.0],[0,0.924,0.383,0],[0,0,0,0],[9E+09,9E+09,9E+09,9E+09,9E+09,9E+09]];
CONST robtarget Target_532:=[[219.64767528032502, 47.45309176639583, 3.0],[0,0.924,0.383,0],[0,0,0,0],[9E+09,9E+09,9E+09,9E+09,9E+09,9E+09]];
CONST robtarget Target_533:=[[218.7237957547706, 47.83577521555631, 3.0],[0,0.924,0.383,0],[0,0,0,0],[9E+09,9E+09,9E+09,9E+09,9E+09,9E+09]];
CONST robtarget Target_534:=[[217.7999162292162, 48.21845866471679, 3.0],[0,0.924,0.383,0],[0,0,0,0],[9E+09,9E+09,9E+09,9E+09,9E+09,9E+09]];
CONST robtarget Target_535:=[[216.87603670366178, 48.60114211387727, 3.0],[0,0.924,0.383,0],[0,0,0,0],[9E+09,9E+09,9E+09,9E+09,9E+09,9E+09]];
CONST robtarget Target_536:=[[215.95215717810737, 48.983825563037755, 3.0],[0,0.924,0.383,0],[0,0,0,0],[9E+09,9E+09,9E+09,9E+09,9E+09,9E+09]];
CONST robtarget Target_537:=[[215.02827765255296, 49.366509012198236, 3.0],[0,0.924,0.383,0],[0,0,0,0],[9E+09,9E+09,9E+09,9E+09,9E+09,9E+09]];
CONST robtarget Target_538:=[[214.23092920949887, 49.968350729450066, 3.0],[0,0.924,0.383,0],[0,0,0,0],[9E+09,9E+09,9E+09,9E+09,9E+09,9E+09]];
CONST robtarget Target_539:=[[213.437575847402, 50.577112130041144, 3.0],[0,0.924,0.383,0],[0,0,0,0],[9E+09,9E+09,9E+09,9E+09,9E+09,9E+09]];
CONST robtarget Target_540:=[[212.64422248530514, 51.18587353063222, 3.0],[0,0.924,0.383,0],[0,0,0,0],[9E+09,9E+09,9E+09,9E+09,9E+09,9E+09]];
CONST robtarget Target_541:=[[211.85086912320827, 51.7946349312233, 3.0],[0,0.924,0.383,0],[0,0,0,0],[9E+09,9E+09,9E+09,9E+09,9E+09,9E+09]];
CONST robtarget Target_542:=[[211.05751576111143, 52.40339633181438, 3.0],[0,0.924,0.383,0],[0,0,0,0],[9E+09,9E+09,9E+09,9E+09,9E+09,9E+09]];
CONST robtarget Target_543:=[[210.26416239901457, 53.012157732405456, 3.0],[0,0.924,0.383,0],[0,0,0,0],[9E+09,9E+09,9E+09,9E+09,9E+09,9E+09]];
CONST robtarget Target_544:=[[209.47080903691773, 53.620919132996534, 3.0],[0,0.924,0.383,0],[0,0,0,0],[9E+09,9E+09,9E+09,9E+09,9E+09,9E+09]];
CONST robtarget Target_545:=[[208.67745567482086, 54.22968053358761, 3.0],[0,0.924,0.383,0],[0,0,0,0],[9E+09,9E+09,9E+09,9E+09,9E+09,9E+09]];
CONST robtarget Target_546:=[[207.884102312724, 54.83844193417869, 3.0],[0,0.924,0.383,0],[0,0,0,0],[9E+09,9E+09,9E+09,9E+09,9E+09,9E+09]];
CONST robtarget Target_547:=[[207.09074895062713, 55.44720333476977, 3.0],[0,0.924,0.383,0],[0,0,0,0],[9E+09,9E+09,9E+09,9E+09,9E+09,9E+09]];
CONST robtarget Target_548:=[[206.2973955885303, 56.055964735360845, 3.0],[0,0.924,0.383,0],[0,0,0,0],[9E+09,9E+09,9E+09,9E+09,9E+09,9E+09]];
CONST robtarget Target_549:=[[205.50404222643343, 56.66472613595192, 3.0],[0,0.924,0.383,0],[0,0,0,0],[9E+09,9E+09,9E+09,9E+09,9E+09,9E+09]];
CONST robtarget Target_550:=[[204.7106888643366, 57.27348753654303, 3.0],[0,0.924,0.383,0],[0,0,0,0],[9E+09,9E+09,9E+09,9E+09,9E+09,9E+09]];
CONST robtarget Target_551:=[[203.91733550223972, 57.88224893713411, 3.0],[0,0.924,0.383,0],[0,0,0,0],[9E+09,9E+09,9E+09,9E+09,9E+09,9E+09]];
CONST robtarget Target_552:=[[203.12398214014286, 58.491010337725186, 3.0],[0,0.924,0.383,0],[0,0,0,0],[9E+09,9E+09,9E+09,9E+09,9E+09,9E+09]];
CONST robtarget Target_553:=[[202.330628778046, 59.099771738316264, 3.0],[0,0.924,0.383,0],[0,0,0,0],[9E+09,9E+09,9E+09,9E+09,9E+09,9E+09]];
CONST robtarget Target_554:=[[201.53727541594915, 59.70853313890734, 3.0],[0,0.924,0.383,0],[0,0,0,0],[9E+09,9E+09,9E+09,9E+09,9E+09,9E+09]];
CONST robtarget Target_555:=[[200.7439220538523, 60.31729453949842, 3.0],[0,0.924,0.383,0],[0,0,0,0],[9E+09,9E+09,9E+09,9E+09,9E+09,9E+09]];
CONST robtarget Target_556:=[[200.0789940599105, 61.05448130824456, 3.0],[0,0.924,0.383,0],[0,0,0,0],[9E+09,9E+09,9E+09,9E+09,9E+09,9E+09]];
CONST robtarget Target_557:=[[199.47023265931944, 61.8478346703414, 3.0],[0,0.924,0.383,0],[0,0,0,0],[9E+09,9E+09,9E+09,9E+09,9E+09,9E+09]];
CONST robtarget Target_558:=[[198.86147125872833, 62.641188032438265, 3.0],[0,0.924,0.383,0],[0,0,0,0],[9E+09,9E+09,9E+09,9E+09,9E+09,9E+09]];
CONST robtarget Target_559:=[[198.25270985813728, 63.43454139453513, 3.0],[0,0.924,0.383,0],[0,0,0,0],[9E+09,9E+09,9E+09,9E+09,9E+09,9E+09]];
CONST robtarget Target_560:=[[197.64394845754617, 64.227894756632, 3.0],[0,0.924,0.383,0],[0,0,0,0],[9E+09,9E+09,9E+09,9E+09,9E+09,9E+09]];
CONST robtarget Target_561:=[[197.03518705695512, 65.02124811872883, 3.0],[0,0.924,0.383,0],[0,0,0,0],[9E+09,9E+09,9E+09,9E+09,9E+09,9E+09]];
CONST robtarget Target_562:=[[196.42642565636402, 65.8146014808257, 3.0],[0,0.924,0.383,0],[0,0,0,0],[9E+09,9E+09,9E+09,9E+09,9E+09,9E+09]];
CONST robtarget Target_563:=[[195.81766425577297, 66.60795484292257, 3.0],[0,0.924,0.383,0],[0,0,0,0],[9E+09,9E+09,9E+09,9E+09,9E+09,9E+09]];
CONST robtarget Target_564:=[[195.20890285518186, 67.4013082050194, 3.0],[0,0.924,0.383,0],[0,0,0,0],[9E+09,9E+09,9E+09,9E+09,9E+09,9E+09]];
CONST robtarget Target_565:=[[194.6001414545908, 68.19466156711627, 3.0],[0,0.924,0.383,0],[0,0,0,0],[9E+09,9E+09,9E+09,9E+09,9E+09,9E+09]];
CONST robtarget Target_566:=[[193.9913800539997, 68.98801492921314, 3.0],[0,0.924,0.383,0],[0,0,0,0],[9E+09,9E+09,9E+09,9E+09,9E+09,9E+09]];
CONST robtarget Target_567:=[[193.38261865340866, 69.78136829130997, 3.0],[0,0.924,0.383,0],[0,0,0,0],[9E+09,9E+09,9E+09,9E+09,9E+09,9E+09]];
CONST robtarget Target_568:=[[192.77385725281755, 70.57472165340684, 3.0],[0,0.924,0.383,0],[0,0,0,0],[9E+09,9E+09,9E+09,9E+09,9E+09,9E+09]];
CONST robtarget Target_569:=[[192.1650958522265, 71.3680750155037, 3.0],[0,0.924,0.383,0],[0,0,0,0],[9E+09,9E+09,9E+09,9E+09,9E+09,9E+09]];
CONST robtarget Target_570:=[[191.5563344516354, 72.16142837760054, 3.0],[0,0.924,0.383,0],[0,0,0,0],[9E+09,9E+09,9E+09,9E+09,9E+09,9E+09]];
CONST robtarget Target_571:=[[190.94757305104434, 72.95478173969741, 3.0],[0,0.924,0.383,0],[0,0,0,0],[9E+09,9E+09,9E+09,9E+09,9E+09,9E+09]];
CONST robtarget Target_572:=[[190.33881165045324, 73.74813510179428, 3.0],[0,0.924,0.383,0],[0,0,0,0],[9E+09,9E+09,9E+09,9E+09,9E+09,9E+09]];
CONST robtarget Target_573:=[[189.7300502498622, 74.54148846389111, 3.0],[0,0.924,0.383,0],[0,0,0,0],[9E+09,9E+09,9E+09,9E+09,9E+09,9E+09]];
CONST robtarget Target_574:=[[189.21670705468787, 75.3899315514488, 3.0],[0,0.924,0.383,0],[0,0,0,0],[9E+09,9E+09,9E+09,9E+09,9E+09,9E+09]];
CONST robtarget Target_575:=[[188.8340236055274, 76.31381107700321, 3.0],[0,0.924,0.383,0],[0,0,0,0],[9E+09,9E+09,9E+09,9E+09,9E+09,9E+09]];
CONST robtarget Target_576:=[[188.4513401563669, 77.23769060255762, 3.0],[0,0.924,0.383,0],[0,0,0,0],[9E+09,9E+09,9E+09,9E+09,9E+09,9E+09]];
CONST robtarget Target_577:=[[188.06865670720643, 78.16157012811203, 3.0],[0,0.924,0.383,0],[0,0,0,0],[9E+09,9E+09,9E+09,9E+09,9E+09,9E+09]];
CONST robtarget Target_578:=[[187.68597325804595, 79.08544965366644, 3.0],[0,0.924,0.383,0],[0,0,0,0],[9E+09,9E+09,9E+09,9E+09,9E+09,9E+09]];
CONST robtarget Target_579:=[[187.30328980888547, 80.00932917922086, 3.0],[0,0.924,0.383,0],[0,0,0,0],[9E+09,9E+09,9E+09,9E+09,9E+09,9E+09]];
CONST robtarget Target_580:=[[186.920606359725, 80.93320870477527, 3.0],[0,0.924,0.383,0],[0,0,0,0],[9E+09,9E+09,9E+09,9E+09,9E+09,9E+09]];
CONST robtarget Target_581:=[[186.53792291056453, 81.85708823032968, 3.0],[0,0.924,0.383,0],[0,0,0,0],[9E+09,9E+09,9E+09,9E+09,9E+09,9E+09]];
CONST robtarget Target_582:=[[186.15523946140405, 82.78096775588409, 3.0],[0,0.924,0.383,0],[0,0,0,0],[9E+09,9E+09,9E+09,9E+09,9E+09,9E+09]];
CONST robtarget Target_583:=[[185.77255601224357, 83.7048472814385, 3.0],[0,0.924,0.383,0],[0,0,0,0],[9E+09,9E+09,9E+09,9E+09,9E+09,9E+09]];
CONST robtarget Target_584:=[[185.3898725630831, 84.62872680699292, 3.0],[0,0.924,0.383,0],[0,0,0,0],[9E+09,9E+09,9E+09,9E+09,9E+09,9E+09]];
CONST robtarget Target_585:=[[185.0071891139226, 85.55260633254736, 3.0],[0,0.924,0.383,0],[0,0,0,0],[9E+09,9E+09,9E+09,9E+09,9E+09,9E+09]];
CONST robtarget Target_586:=[[184.62450566476213, 86.47648585810177, 3.0],[0,0.924,0.383,0],[0,0,0,0],[9E+09,9E+09,9E+09,9E+09,9E+09,9E+09]];
CONST robtarget Target_587:=[[184.24182221560164, 87.40036538365618, 3.0],[0,0.924,0.383,0],[0,0,0,0],[9E+09,9E+09,9E+09,9E+09,9E+09,9E+09]];
CONST robtarget Target_588:=[[183.85913876644116, 88.32424490921059, 3.0],[0,0.924,0.383,0],[0,0,0,0],[9E+09,9E+09,9E+09,9E+09,9E+09,9E+09]];
CONST robtarget Target_589:=[[183.47645531728068, 89.248124434765, 3.0],[0,0.924,0.383,0],[0,0,0,0],[9E+09,9E+09,9E+09,9E+09,9E+09,9E+09]];
CONST robtarget Target_590:=[[183.09377186812023, 90.17200396031942, 3.0],[0,0.924,0.383,0],[0,0,0,0],[9E+09,9E+09,9E+09,9E+09,9E+09,9E+09]];
CONST robtarget Target_591:=[[182.71108841895975, 91.09588348587383, 3.0],[0,0.924,0.383,0],[0,0,0,0],[9E+09,9E+09,9E+09,9E+09,9E+09,9E+09]];
CONST robtarget Target_592:=[[182.36582300348073, 92.02978914354878, 3.0],[0,0.924,0.383,0],[0,0,0,0],[9E+09,9E+09,9E+09,9E+09,9E+09,9E+09]];
CONST robtarget Target_593:=[[182.23529681874157, 93.02123400590744, 3.0],[0,0.924,0.383,0],[0,0,0,0],[9E+09,9E+09,9E+09,9E+09,9E+09,9E+09]];
CONST robtarget Target_594:=[[182.1047706340024, 94.01267886826614, 3.0],[0,0.924,0.383,0],[0,0,0,0],[9E+09,9E+09,9E+09,9E+09,9E+09,9E+09]];
CONST robtarget Target_595:=[[181.9742444492632, 95.00412373062483, 3.0],[0,0.924,0.383,0],[0,0,0,0],[9E+09,9E+09,9E+09,9E+09,9E+09,9E+09]];
CONST robtarget Target_596:=[[181.84371826452406, 95.99556859298352, 3.0],[0,0.924,0.383,0],[0,0,0,0],[9E+09,9E+09,9E+09,9E+09,9E+09,9E+09]];
CONST robtarget Target_597:=[[181.7131920797849, 96.98701345534221, 3.0],[0,0.924,0.383,0],[0,0,0,0],[9E+09,9E+09,9E+09,9E+09,9E+09,9E+09]];
CONST robtarget Target_598:=[[181.58266589504572, 97.9784583177009, 3.0],[0,0.924,0.383,0],[0,0,0,0],[9E+09,9E+09,9E+09,9E+09,9E+09,9E+09]];
CONST robtarget Target_599:=[[181.45213971030654, 98.96990318005959, 3.0],[0,0.924,0.383,0],[0,0,0,0],[9E+09,9E+09,9E+09,9E+09,9E+09,9E+09]];
CONST robtarget Target_600:=[[181.3216135255674, 99.96134804241828, 3.0],[0,0.924,0.383,0],[0,0,0,0],[9E+09,9E+09,9E+09,9E+09,9E+09,9E+09]];
CONST robtarget Target_601:=[[181.19108734082823, 100.95279290477697, 3.0],[0,0.924,0.383,0],[0,0,0,0],[9E+09,9E+09,9E+09,9E+09,9E+09,9E+09]];
CONST robtarget Target_602:=[[181.06056115608905, 101.94423776713566, 3.0],[0,0.924,0.383,0],[0,0,0,0],[9E+09,9E+09,9E+09,9E+09,9E+09,9E+09]];
CONST robtarget Target_603:=[[180.93003497134987, 102.93568262949432, 3.0],[0,0.924,0.383,0],[0,0,0,0],[9E+09,9E+09,9E+09,9E+09,9E+09,9E+09]];
CONST robtarget Target_604:=[[180.79950878661072, 103.92712749185301, 3.0],[0,0.924,0.383,0],[0,0,0,0],[9E+09,9E+09,9E+09,9E+09,9E+09,9E+09]];
CONST robtarget Target_605:=[[180.66898260187153, 104.9185723542117, 3.0],[0,0.924,0.383,0],[0,0,0,0],[9E+09,9E+09,9E+09,9E+09,9E+09,9E+09]];
CONST robtarget Target_606:=[[180.53845641713235, 105.9100172165704, 3.0],[0,0.924,0.383,0],[0,0,0,0],[9E+09,9E+09,9E+09,9E+09,9E+09,9E+09]];
CONST robtarget Target_607:=[[180.4079302323932, 106.90146207892909, 3.0],[0,0.924,0.383,0],[0,0,0,0],[9E+09,9E+09,9E+09,9E+09,9E+09,9E+09]];
CONST robtarget Target_608:=[[180.27740404765404, 107.89290694128778, 3.0],[0,0.924,0.383,0],[0,0,0,0],[9E+09,9E+09,9E+09,9E+09,9E+09,9E+09]];
CONST robtarget Target_609:=[[180.14687786291486, 108.88435180364647, 3.0],[0,0.924,0.383,0],[0,0,0,0],[9E+09,9E+09,9E+09,9E+09,9E+09,9E+09]];
CONST robtarget Target_610:=[[180.01635167817568, 109.87579666600516, 3.0],[0,0.924,0.383,0],[0,0,0,0],[9E+09,9E+09,9E+09,9E+09,9E+09,9E+09]];
CONST robtarget Target_611:=[[179.88582549343653, 110.86724152836385, 3.0],[0,0.924,0.383,0],[0,0,0,0],[9E+09,9E+09,9E+09,9E+09,9E+09,9E+09]];
CONST robtarget Target_612:=[[179.75529930869737, 111.85868639072254, 3.0],[0,0.924,0.383,0],[0,0,0,0],[9E+09,9E+09,9E+09,9E+09,9E+09,9E+09]];
CONST robtarget Target_613:=[[179.62477312395816, 112.8501312530812, 3.0],[0,0.924,0.383,0],[0,0,0,0],[9E+09,9E+09,9E+09,9E+09,9E+09,9E+09]];
CONST robtarget Target_614:=[[179.494246939219, 113.84157611543989, 3.0],[0,0.924,0.383,0],[0,0,0,0],[9E+09,9E+09,9E+09,9E+09,9E+09,9E+09]];
CONST robtarget Target_615:=[[179.36372075447986, 114.83302097779858, 3.0],[0,0.924,0.383,0],[0,0,0,0],[9E+09,9E+09,9E+09,9E+09,9E+09,9E+09]];
CONST robtarget Target_616:=[[179.23319456974068, 115.82446584015727, 3.0],[0,0.924,0.383,0],[0,0,0,0],[9E+09,9E+09,9E+09,9E+09,9E+09,9E+09]];
CONST robtarget Target_617:=[[179.1026683850015, 116.81591070251596, 3.0],[0,0.924,0.383,0],[0,0,0,0],[9E+09,9E+09,9E+09,9E+09,9E+09,9E+09]];
CONST robtarget Target_618:=[[178.97214220026234, 117.80735556487465, 3.0],[0,0.924,0.383,0],[0,0,0,0],[9E+09,9E+09,9E+09,9E+09,9E+09,9E+09]];
CONST robtarget Target_619:=[[178.8416160155232, 118.79880042723335, 3.0],[0,0.924,0.383,0],[0,0,0,0],[9E+09,9E+09,9E+09,9E+09,9E+09,9E+09]];
CONST robtarget Target_620:=[[178.711089830784, 119.79024528959204, 3.0],[0,0.924,0.383,0],[0,0,0,0],[9E+09,9E+09,9E+09,9E+09,9E+09,9E+09]];
CONST robtarget Target_621:=[[178.58056364604482, 120.7816901519507, 3.0],[0,0.924,0.383,0],[0,0,0,0],[9E+09,9E+09,9E+09,9E+09,9E+09,9E+09]];
CONST robtarget Target_622:=[[178.45003746130567, 121.77313501430939, 3.0],[0,0.924,0.383,0],[0,0,0,0],[9E+09,9E+09,9E+09,9E+09,9E+09,9E+09]];
CONST robtarget Target_623:=[[178.3195112765665, 122.76457987666808, 3.0],[0,0.924,0.383,0],[0,0,0,0],[9E+09,9E+09,9E+09,9E+09,9E+09,9E+09]];
CONST robtarget Target_624:=[[178.1889850918273, 123.75602473902677, 3.0],[0,0.924,0.383,0],[0,0,0,0],[9E+09,9E+09,9E+09,9E+09,9E+09,9E+09]];
CONST robtarget Target_625:=[[178.05845890708815, 124.74746960138546, 3.0],[0,0.924,0.383,0],[0,0,0,0],[9E+09,9E+09,9E+09,9E+09,9E+09,9E+09]];
CONST robtarget Target_626:=[[177.927932722349, 125.73891446374415, 3.0],[0,0.924,0.383,0],[0,0,0,0],[9E+09,9E+09,9E+09,9E+09,9E+09,9E+09]];
CONST robtarget Target_627:=[[177.79740653760982, 126.73035932610284, 3.0],[0,0.924,0.383,0],[0,0,0,0],[9E+09,9E+09,9E+09,9E+09,9E+09,9E+09]];
CONST robtarget Target_628:=[[177.66688035287063, 127.72180418846152, 3.0],[0,0.924,0.383,0],[0,0,0,0],[9E+09,9E+09,9E+09,9E+09,9E+09,9E+09]];
CONST robtarget Target_629:=[[179.3873607904551, 128.43864214438366, 3.237259469093509],[0,0.924,0.383,0],[0,0,0,0],[9E+09,9E+09,9E+09,9E+09,9E+09,9E+09]];
CONST robtarget Target_630:=[[182.33641477066158, 128.97321454171566, 3.6319957919115993],[0,0.924,0.383,0],[0,0,0,0],[9E+09,9E+09,9E+09,9E+09,9E+09,9E+09]];
CONST robtarget Target_631:=[[185.285468750868, 129.50778693904772, 4.02673211472969],[0,0.924,0.383,0],[0,0,0,0],[9E+09,9E+09,9E+09,9E+09,9E+09,9E+09]];
CONST robtarget Target_632:=[[188.2345227310745, 130.04235933637975, 4.42146843754778],[0,0.924,0.383,0],[0,0,0,0],[9E+09,9E+09,9E+09,9E+09,9E+09,9E+09]];
CONST robtarget Target_633:=[[191.18357671128092, 130.57693173371177, 4.81620476036586],[0,0.924,0.383,0],[0,0,0,0],[9E+09,9E+09,9E+09,9E+09,9E+09,9E+09]];
CONST robtarget Target_634:=[[194.1326306914874, 131.1115041310438, 5.21094108318395],[0,0.924,0.383,0],[0,0,0,0],[9E+09,9E+09,9E+09,9E+09,9E+09,9E+09]];
CONST robtarget Target_635:=[[197.08168467169384, 131.64607652837583, 5.605677406002041],[0,0.924,0.383,0],[0,0,0,0],[9E+09,9E+09,9E+09,9E+09,9E+09,9E+09]];
CONST robtarget Target_636:=[[200.03073865190032, 132.18064892570789, 6.000413728820131],[0,0.924,0.383,0],[0,0,0,0],[9E+09,9E+09,9E+09,9E+09,9E+09,9E+09]];
CONST robtarget Target_637:=[[202.97979263210675, 132.71522132303988, 6.395150051638222],[0,0.924,0.383,0],[0,0,0,0],[9E+09,9E+09,9E+09,9E+09,9E+09,9E+09]];
CONST robtarget Target_638:=[[205.92884661231324, 133.24979372037194, 6.789886374456312],[0,0.924,0.383,0],[0,0,0,0],[9E+09,9E+09,9E+09,9E+09,9E+09,9E+09]];
CONST robtarget Target_639:=[[208.87790059251972, 133.78436611770397, 7.184622697274403],[0,0.924,0.383,0],[0,0,0,0],[9E+09,9E+09,9E+09,9E+09,9E+09,9E+09]];
CONST robtarget Target_640:=[[211.8269545727262, 134.318938515036, 7.579359020092493],[0,0.924,0.383,0],[0,0,0,0],[9E+09,9E+09,9E+09,9E+09,9E+09,9E+09]];
CONST robtarget Target_641:=[[214.77600855293264, 134.85351091236805, 7.974095342910584],[0,0.924,0.383,0],[0,0,0,0],[9E+09,9E+09,9E+09,9E+09,9E+09,9E+09]];
CONST robtarget Target_642:=[[217.72506253313912, 135.38808330970005, 8.368831665728669],[0,0.924,0.383,0],[0,0,0,0],[9E+09,9E+09,9E+09,9E+09,9E+09,9E+09]];
CONST robtarget Target_643:=[[220.67411651334555, 135.9226557070321, 8.76356798854676],[0,0.924,0.383,0],[0,0,0,0],[9E+09,9E+09,9E+09,9E+09,9E+09,9E+09]];
CONST robtarget Target_644:=[[223.62317049355204, 136.45722810436413, 9.15830431136485],[0,0.924,0.383,0],[0,0,0,0],[9E+09,9E+09,9E+09,9E+09,9E+09,9E+09]];
CONST robtarget Target_645:=[[226.57222447375852, 136.99180050169616, 9.55304063418294],[0,0.924,0.383,0],[0,0,0,0],[9E+09,9E+09,9E+09,9E+09,9E+09,9E+09]];
CONST robtarget Target_646:=[[229.52127845396495, 137.5263728990282, 9.947776957001025],[0,0.924,0.383,0],[0,0,0,0],[9E+09,9E+09,9E+09,9E+09,9E+09,9E+09]];
CONST robtarget Target_647:=[[232.47033243417144, 138.06094529636022, 10.342513279819116],[0,0.924,0.383,0],[0,0,0,0],[9E+09,9E+09,9E+09,9E+09,9E+09,9E+09]];
CONST robtarget Target_648:=[[235.41938641437787, 138.59551769369227, 10.737249602637206],[0,0.924,0.383,0],[0,0,0,0],[9E+09,9E+09,9E+09,9E+09,9E+09,9E+09]];
CONST robtarget Target_649:=[[238.36844039458435, 139.13009009102427, 11.131985925455291],[0,0.924,0.383,0],[0,0,0,0],[9E+09,9E+09,9E+09,9E+09,9E+09,9E+09]];
CONST robtarget Target_650:=[[241.31749437479078, 139.66466248835633, 11.526722248273382],[0,0.924,0.383,0],[0,0,0,0],[9E+09,9E+09,9E+09,9E+09,9E+09,9E+09]];
CONST robtarget Target_651:=[[244.26654835499727, 140.19923488568836, 11.921458571091472],[0,0.924,0.383,0],[0,0,0,0],[9E+09,9E+09,9E+09,9E+09,9E+09,9E+09]];
CONST robtarget Target_652:=[[247.2156023352037, 140.73380728302038, 12.316194893909563],[0,0.924,0.383,0],[0,0,0,0],[9E+09,9E+09,9E+09,9E+09,9E+09,9E+09]];
CONST robtarget Target_653:=[[250.16465631541018, 141.2683796803524, 12.710931216727648],[0,0.924,0.383,0],[0,0,0,0],[9E+09,9E+09,9E+09,9E+09,9E+09,9E+09]];
CONST robtarget Target_654:=[[253.1137102956166, 141.80295207768444, 13.105667539545738],[0,0.924,0.383,0],[0,0,0,0],[9E+09,9E+09,9E+09,9E+09,9E+09,9E+09]];
CONST robtarget Target_655:=[[256.0627642758231, 142.3375244750165, 13.500403862363829],[0,0.924,0.383,0],[0,0,0,0],[9E+09,9E+09,9E+09,9E+09,9E+09,9E+09]];
CONST robtarget Target_656:=[[259.0118182560296, 142.87209687234852, 13.895140185181925],[0,0.924,0.383,0],[0,0,0,0],[9E+09,9E+09,9E+09,9E+09,9E+09,9E+09]];
CONST robtarget Target_657:=[[261.96087223623607, 143.40666926968055, 14.28987650800001],[0,0.924,0.383,0],[0,0,0,0],[9E+09,9E+09,9E+09,9E+09,9E+09,9E+09]];
CONST robtarget Target_658:=[[264.9099262164425, 143.94124166701258, 14.6846128308181],[0,0.924,0.383,0],[0,0,0,0],[9E+09,9E+09,9E+09,9E+09,9E+09,9E+09]];
CONST robtarget Target_659:=[[267.858980196649, 144.4758140643446, 15.07934915363619],[0,0.924,0.383,0],[0,0,0,0],[9E+09,9E+09,9E+09,9E+09,9E+09,9E+09]];
CONST robtarget Target_660:=[[270.8080341768555, 145.01038646167666, 15.474085476454276],[0,0.924,0.383,0],[0,0,0,0],[9E+09,9E+09,9E+09,9E+09,9E+09,9E+09]];
CONST robtarget Target_661:=[[273.7570881570619, 145.54495885900866, 15.868821799272366],[0,0.924,0.383,0],[0,0,0,0],[9E+09,9E+09,9E+09,9E+09,9E+09,9E+09]];
CONST robtarget Target_662:=[[276.7061421372684, 146.07953125634072, 16.26355812209046],[0,0.924,0.383,0],[0,0,0,0],[9E+09,9E+09,9E+09,9E+09,9E+09,9E+09]];
CONST robtarget Target_663:=[[279.6551961174748, 146.61410365367274, 16.65829444490855],[0,0.924,0.383,0],[0,0,0,0],[9E+09,9E+09,9E+09,9E+09,9E+09,9E+09]];
CONST robtarget Target_664:=[[282.6042500976813, 147.14867605100477, 17.053030767726632],[0,0.924,0.383,0],[0,0,0,0],[9E+09,9E+09,9E+09,9E+09,9E+09,9E+09]];
CONST robtarget Target_665:=[[285.55330407788773, 147.6832484483368, 17.447767090544723],[0,0.924,0.383,0],[0,0,0,0],[9E+09,9E+09,9E+09,9E+09,9E+09,9E+09]];
CONST robtarget Target_666:=[[288.5023580580942, 148.21782084566883, 17.842503413362813],[0,0.924,0.383,0],[0,0,0,0],[9E+09,9E+09,9E+09,9E+09,9E+09,9E+09]];
CONST robtarget Target_667:=[[291.45141203830065, 148.75239324300088, 18.237239736180904],[0,0.924,0.383,0],[0,0,0,0],[9E+09,9E+09,9E+09,9E+09,9E+09,9E+09]];
CONST robtarget Target_668:=[[294.40046601850713, 149.2869656403329, 18.631976058998987],[0,0.924,0.383,0],[0,0,0,0],[9E+09,9E+09,9E+09,9E+09,9E+09,9E+09]];
CONST robtarget Target_669:=[[297.34951999871356, 149.82153803766494, 19.026712381817077],[0,0.924,0.383,0],[0,0,0,0],[9E+09,9E+09,9E+09,9E+09,9E+09,9E+09]];
CONST robtarget Target_670:=[[300.29857397892005, 150.35611043499696, 19.421448704635168],[0,0.924,0.383,0],[0,0,0,0],[9E+09,9E+09,9E+09,9E+09,9E+09,9E+09]];
CONST robtarget Target_671:=[[303.24762795912653, 150.890682832329, 19.816185027453255],[0,0.924,0.383,0],[0,0,0,0],[9E+09,9E+09,9E+09,9E+09,9E+09,9E+09]];
CONST robtarget Target_672:=[[306.196681939333, 151.42525522966105, 20.21092135027135],[0,0.924,0.383,0],[0,0,0,0],[9E+09,9E+09,9E+09,9E+09,9E+09,9E+09]];
CONST robtarget Target_673:=[[309.14573591953945, 151.95982762699308, 20.60565767308944],[0,0.924,0.383,0],[0,0,0,0],[9E+09,9E+09,9E+09,9E+09,9E+09,9E+09]];
CONST robtarget Target_674:=[[312.09478989974593, 152.4944000243251, 21.00039399590753],[0,0.924,0.383,0],[0,0,0,0],[9E+09,9E+09,9E+09,9E+09,9E+09,9E+09]];
CONST robtarget Target_675:=[[315.0438438799524, 153.02897242165713, 21.395130318725617],[0,0.924,0.383,0],[0,0,0,0],[9E+09,9E+09,9E+09,9E+09,9E+09,9E+09]];
CONST robtarget Target_676:=[[317.99289786015885, 153.56354481898916, 21.789866641543707],[0,0.924,0.383,0],[0,0,0,0],[9E+09,9E+09,9E+09,9E+09,9E+09,9E+09]];
CONST robtarget Target_677:=[[320.9419518403653, 154.09811721632119, 22.184602964361797],[0,0.924,0.383,0],[0,0,0,0],[9E+09,9E+09,9E+09,9E+09,9E+09,9E+09]];
CONST robtarget Target_678:=[[323.89100582057176, 154.6326896136532, 22.579339287179888],[0,0.924,0.383,0],[0,0,0,0],[9E+09,9E+09,9E+09,9E+09,9E+09,9E+09]];
CONST robtarget Target_679:=[[326.84005980077825, 155.16726201098527, 22.974075609997975],[0,0.924,0.383,0],[0,0,0,0],[9E+09,9E+09,9E+09,9E+09,9E+09,9E+09]];
CONST robtarget Target_680:=[[329.7891137809847, 155.7018344083173, 23.368811932816065],[0,0.924,0.383,0],[0,0,0,0],[9E+09,9E+09,9E+09,9E+09,9E+09,9E+09]];
CONST robtarget Target_681:=[[332.7381677611911, 156.23640680564932, 23.763548255634156],[0,0.924,0.383,0],[0,0,0,0],[9E+09,9E+09,9E+09,9E+09,9E+09,9E+09]];
CONST robtarget Target_682:=[[335.6872217413976, 156.77097920298135, 24.15828457845224],[0,0.924,0.383,0],[0,0,0,0],[9E+09,9E+09,9E+09,9E+09,9E+09,9E+09]];
CONST robtarget Target_683:=[[338.6362757216041, 157.30555160031338, 24.55302090127033],[0,0.924,0.383,0],[0,0,0,0],[9E+09,9E+09,9E+09,9E+09,9E+09,9E+09]];
CONST robtarget Target_684:=[[341.58532970181056, 157.8401239976454, 24.94775722408842],[0,0.924,0.383,0],[0,0,0,0],[9E+09,9E+09,9E+09,9E+09,9E+09,9E+09]];
CONST robtarget Target_685:=[[344.534383682017, 158.37469639497743, 25.34249354690651],[0,0.924,0.383,0],[0,0,0,0],[9E+09,9E+09,9E+09,9E+09,9E+09,9E+09]];
CONST robtarget Target_686:=[[347.4834376622234, 158.9092687923095, 25.737229869724594],[0,0.924,0.383,0],[0,0,0,0],[9E+09,9E+09,9E+09,9E+09,9E+09,9E+09]];
