CONST robtarget Target_1:=[[550.0, 550.0, 93.0],[0,0.924,0.383,0],[0,0,0,0],[9E+09,9E+09,9E+09,9E+09,9E+09,9E+09]];
CONST robtarget Target_2:=[[547.904936457872, 544.4133450217703, 91.10264547909182],[0,0.924,0.383,0],[0,0,0,0],[9E+09,9E+09,9E+09,9E+09,9E+09,9E+09]];
CONST robtarget Target_3:=[[545.8098729157441, 538.8266900435407, 89.20529095818362],[0,0.924,0.383,0],[0,0,0,0],[9E+09,9E+09,9E+09,9E+09,9E+09,9E+09]];
CONST robtarget Target_4:=[[543.714809373616, 533.2400350653111, 87.30793643727543],[0,0.924,0.383,0],[0,0,0,0],[9E+09,9E+09,9E+09,9E+09,9E+09,9E+09]];
CONST robtarget Target_5:=[[541.6197458314881, 527.6533800870814, 85.41058191636725],[0,0.924,0.383,0],[0,0,0,0],[9E+09,9E+09,9E+09,9E+09,9E+09,9E+09]];
CONST robtarget Target_6:=[[539.5246822893602, 522.0667251088516, 83.51322739545905],[0,0.924,0.383,0],[0,0,0,0],[9E+09,9E+09,9E+09,9E+09,9E+09,9E+09]];
CONST robtarget Target_7:=[[537.4296187472321, 516.4800701306219, 81.61587287455086],[0,0.924,0.383,0],[0,0,0,0],[9E+09,9E+09,9E+09,9E+09,9E+09,9E+09]];
CONST robtarget Target_8:=[[535.3345552051042, 510.8934151523923, 79.71851835364268],[0,0.924,0.383,0],[0,0,0,0],[9E+09,9E+09,9E+09,9E+09,9E+09,9E+09]];
CONST robtarget Target_9:=[[533.2394916629762, 505.30676017416266, 77.82116383273448],[0,0.924,0.383,0],[0,0,0,0],[9E+09,9E+09,9E+09,9E+09,9E+09,9E+09]];
CONST robtarget Target_10:=[[531.1444281208483, 499.720105195933, 75.9238093118263],[0,0.924,0.383,0],[0,0,0,0],[9E+09,9E+09,9E+09,9E+09,9E+09,9E+09]];
CONST robtarget Target_11:=[[529.0493645787203, 494.13345021770334, 74.02645479091811],[0,0.924,0.383,0],[0,0,0,0],[9E+09,9E+09,9E+09,9E+09,9E+09,9E+09]];
CONST robtarget Target_12:=[[526.9543010365924, 488.5467952394737, 72.12910027000993],[0,0.924,0.383,0],[0,0,0,0],[9E+09,9E+09,9E+09,9E+09,9E+09,9E+09]];
CONST robtarget Target_13:=[[524.8592374944643, 482.96014026124396, 70.23174574910173],[0,0.924,0.383,0],[0,0,0,0],[9E+09,9E+09,9E+09,9E+09,9E+09,9E+09]];
CONST robtarget Target_14:=[[522.7641739523364, 477.3734852830143, 68.33439122819354],[0,0.924,0.383,0],[0,0,0,0],[9E+09,9E+09,9E+09,9E+09,9E+09,9E+09]];
CONST robtarget Target_15:=[[520.6691104102083, 471.78683030478464, 66.43703670728536],[0,0.924,0.383,0],[0,0,0,0],[9E+09,9E+09,9E+09,9E+09,9E+09,9E+09]];
CONST robtarget Target_16:=[[518.5740468680804, 466.200175326555, 64.53968218637716],[0,0.924,0.383,0],[0,0,0,0],[9E+09,9E+09,9E+09,9E+09,9E+09,9E+09]];
CONST robtarget Target_17:=[[516.4789833259524, 460.6135203483253, 62.642327665468976],[0,0.924,0.383,0],[0,0,0,0],[9E+09,9E+09,9E+09,9E+09,9E+09,9E+09]];
CONST robtarget Target_18:=[[514.3839197838245, 455.02686537009566, 60.74497314456079],[0,0.924,0.383,0],[0,0,0,0],[9E+09,9E+09,9E+09,9E+09,9E+09,9E+09]];
CONST robtarget Target_19:=[[512.2888562416965, 449.440210391866, 58.8476186236526],[0,0.924,0.383,0],[0,0,0,0],[9E+09,9E+09,9E+09,9E+09,9E+09,9E+09]];
CONST robtarget Target_20:=[[510.1937926995685, 443.85355541363634, 56.95026410274441],[0,0.924,0.383,0],[0,0,0,0],[9E+09,9E+09,9E+09,9E+09,9E+09,9E+09]];
CONST robtarget Target_21:=[[508.0987291574405, 438.2669004354067, 55.052909581836225],[0,0.924,0.383,0],[0,0,0,0],[9E+09,9E+09,9E+09,9E+09,9E+09,9E+09]];
CONST robtarget Target_22:=[[506.00366561531257, 432.68024545717697, 53.15555506092804],[0,0.924,0.383,0],[0,0,0,0],[9E+09,9E+09,9E+09,9E+09,9E+09,9E+09]];
CONST robtarget Target_23:=[[503.90860207318457, 427.0935904789473, 51.25820054001984],[0,0.924,0.383,0],[0,0,0,0],[9E+09,9E+09,9E+09,9E+09,9E+09,9E+09]];
CONST robtarget Target_24:=[[501.8135385310566, 421.50693550071765, 49.36084601911165],[0,0.924,0.383,0],[0,0,0,0],[9E+09,9E+09,9E+09,9E+09,9E+09,9E+09]];
CONST robtarget Target_25:=[[499.7184749889286, 415.920280522488, 47.46349149820347],[0,0.924,0.383,0],[0,0,0,0],[9E+09,9E+09,9E+09,9E+09,9E+09,9E+09]];
CONST robtarget Target_26:=[[497.6234114468007, 410.3336255442583, 45.56613697729527],[0,0.924,0.383,0],[0,0,0,0],[9E+09,9E+09,9E+09,9E+09,9E+09,9E+09]];
CONST robtarget Target_27:=[[495.52834790467267, 404.74697056602866, 43.66878245638709],[0,0.924,0.383,0],[0,0,0,0],[9E+09,9E+09,9E+09,9E+09,9E+09,9E+09]];
CONST robtarget Target_28:=[[493.4332843625447, 399.160315587799, 41.7714279354789],[0,0.924,0.383,0],[0,0,0,0],[9E+09,9E+09,9E+09,9E+09,9E+09,9E+09]];
CONST robtarget Target_29:=[[491.3382208204167, 393.5736606095693, 39.87407341457071],[0,0.924,0.383,0],[0,0,0,0],[9E+09,9E+09,9E+09,9E+09,9E+09,9E+09]];
CONST robtarget Target_30:=[[489.2431572782888, 387.9870056313397, 37.97671889366252],[0,0.924,0.383,0],[0,0,0,0],[9E+09,9E+09,9E+09,9E+09,9E+09,9E+09]];
CONST robtarget Target_31:=[[487.14809373616083, 382.40035065310997, 36.079364372754334],[0,0.924,0.383,0],[0,0,0,0],[9E+09,9E+09,9E+09,9E+09,9E+09,9E+09]];
CONST robtarget Target_32:=[[485.05303019403283, 376.8136956748803, 34.182009851846146],[0,0.924,0.383,0],[0,0,0,0],[9E+09,9E+09,9E+09,9E+09,9E+09,9E+09]];
CONST robtarget Target_33:=[[482.9579666519048, 371.22704069665065, 32.28465533093796],[0,0.924,0.383,0],[0,0,0,0],[9E+09,9E+09,9E+09,9E+09,9E+09,9E+09]];
CONST robtarget Target_34:=[[480.8629031097769, 365.640385718421, 30.387300810029764],[0,0.924,0.383,0],[0,0,0,0],[9E+09,9E+09,9E+09,9E+09,9E+09,9E+09]];
CONST robtarget Target_35:=[[478.76783956764893, 360.0537307401913, 28.489946289121576],[0,0.924,0.383,0],[0,0,0,0],[9E+09,9E+09,9E+09,9E+09,9E+09,9E+09]];
CONST robtarget Target_36:=[[476.67277602552093, 354.46707576196167, 26.592591768213392],[0,0.924,0.383,0],[0,0,0,0],[9E+09,9E+09,9E+09,9E+09,9E+09,9E+09]];
CONST robtarget Target_37:=[[474.57771248339293, 348.880420783732, 24.6952372473052],[0,0.924,0.383,0],[0,0,0,0],[9E+09,9E+09,9E+09,9E+09,9E+09,9E+09]];
CONST robtarget Target_38:=[[472.482648941265, 343.2937658055023, 22.797882726397013],[0,0.924,0.383,0],[0,0,0,0],[9E+09,9E+09,9E+09,9E+09,9E+09,9E+09]];
CONST robtarget Target_39:=[[470.38758539913704, 337.70711082727263, 20.900528205488822],[0,0.924,0.383,0],[0,0,0,0],[9E+09,9E+09,9E+09,9E+09,9E+09,9E+09]];
CONST robtarget Target_40:=[[468.29252185700904, 332.12045584904297, 19.003173684580634],[0,0.924,0.383,0],[0,0,0,0],[9E+09,9E+09,9E+09,9E+09,9E+09,9E+09]];
CONST robtarget Target_41:=[[466.19745831488103, 326.5338008708133, 17.105819163672443],[0,0.924,0.383,0],[0,0,0,0],[9E+09,9E+09,9E+09,9E+09,9E+09,9E+09]];
CONST robtarget Target_42:=[[464.1023947727531, 320.94714589258365, 15.208464642764257],[0,0.924,0.383,0],[0,0,0,0],[9E+09,9E+09,9E+09,9E+09,9E+09,9E+09]];
CONST robtarget Target_43:=[[462.00733123062514, 315.360490914354, 13.311110121856068],[0,0.924,0.383,0],[0,0,0,0],[9E+09,9E+09,9E+09,9E+09,9E+09,9E+09]];
CONST robtarget Target_44:=[[459.91226768849714, 309.7738359361243, 11.41375560094788],[0,0.924,0.383,0],[0,0,0,0],[9E+09,9E+09,9E+09,9E+09,9E+09,9E+09]];
CONST robtarget Target_45:=[[457.81720414636914, 304.18718095789467, 9.516401080039692],[0,0.924,0.383,0],[0,0,0,0],[9E+09,9E+09,9E+09,9E+09,9E+09,9E+09]];
CONST robtarget Target_46:=[[455.7221406042412, 298.600525979665, 7.619046559131502],[0,0.924,0.383,0],[0,0,0,0],[9E+09,9E+09,9E+09,9E+09,9E+09,9E+09]];
CONST robtarget Target_47:=[[453.62707706211324, 293.0138710014353, 5.721692038223313],[0,0.924,0.383,0],[0,0,0,0],[9E+09,9E+09,9E+09,9E+09,9E+09,9E+09]];
CONST robtarget Target_48:=[[451.53201351998524, 287.42721602320563, 3.824337517315124],[0,0.924,0.383,0],[0,0,0,0],[9E+09,9E+09,9E+09,9E+09,9E+09,9E+09]];
CONST robtarget Target_49:=[[451.0546184032224, 283.95503088192834, 3.0],[0,0.924,0.383,0],[0,0,0,0],[9E+09,9E+09,9E+09,9E+09,9E+09,9E+09]];
CONST robtarget Target_50:=[[451.8199853015433, 282.1072718308195, 3.0],[0,0.924,0.383,0],[0,0,0,0],[9E+09,9E+09,9E+09,9E+09,9E+09,9E+09]];
CONST robtarget Target_51:=[[452.58535219986425, 280.2595127797107, 3.0],[0,0.924,0.383,0],[0,0,0,0],[9E+09,9E+09,9E+09,9E+09,9E+09,9E+09]];
CONST robtarget Target_52:=[[453.3507190981852, 278.41175372860187, 3.0],[0,0.924,0.383,0],[0,0,0,0],[9E+09,9E+09,9E+09,9E+09,9E+09,9E+09]];
CONST robtarget Target_53:=[[454.1160859965062, 276.56399467749304, 3.0],[0,0.924,0.383,0],[0,0,0,0],[9E+09,9E+09,9E+09,9E+09,9E+09,9E+09]];
CONST robtarget Target_54:=[[454.88145289482713, 274.7162356263842, 3.0],[0,0.924,0.383,0],[0,0,0,0],[9E+09,9E+09,9E+09,9E+09,9E+09,9E+09]];
CONST robtarget Target_55:=[[455.6468197931481, 272.8684765752754, 3.0],[0,0.924,0.383,0],[0,0,0,0],[9E+09,9E+09,9E+09,9E+09,9E+09,9E+09]];
CONST robtarget Target_56:=[[456.41218669146906, 271.02071752416657, 3.0],[0,0.924,0.383,0],[0,0,0,0],[9E+09,9E+09,9E+09,9E+09,9E+09,9E+09]];
CONST robtarget Target_57:=[[457.17755358979, 269.17295847305775, 3.0],[0,0.924,0.383,0],[0,0,0,0],[9E+09,9E+09,9E+09,9E+09,9E+09,9E+09]];
CONST robtarget Target_58:=[[457.7267210480619, 267.2672689553517, 3.0],[0,0.924,0.383,0],[0,0,0,0],[9E+09,9E+09,9E+09,9E+09,9E+09,9E+09]];
CONST robtarget Target_59:=[[457.98777341754027, 265.28437923063433, 3.0],[0,0.924,0.383,0],[0,0,0,0],[9E+09,9E+09,9E+09,9E+09,9E+09,9E+09]];
CONST robtarget Target_60:=[[458.24882578701863, 263.30148950591695, 3.0],[0,0.924,0.383,0],[0,0,0,0],[9E+09,9E+09,9E+09,9E+09,9E+09,9E+09]];
CONST robtarget Target_61:=[[458.50987815649694, 261.31859978119957, 3.0],[0,0.924,0.383,0],[0,0,0,0],[9E+09,9E+09,9E+09,9E+09,9E+09,9E+09]];
CONST robtarget Target_62:=[[458.77093052597525, 259.33571005648224, 3.0],[0,0.924,0.383,0],[0,0,0,0],[9E+09,9E+09,9E+09,9E+09,9E+09,9E+09]];
CONST robtarget Target_63:=[[459.0319828954536, 257.35282033176486, 3.0],[0,0.924,0.383,0],[0,0,0,0],[9E+09,9E+09,9E+09,9E+09,9E+09,9E+09]];
CONST robtarget Target_64:=[[459.293035264932, 255.36993060704748, 3.0],[0,0.924,0.383,0],[0,0,0,0],[9E+09,9E+09,9E+09,9E+09,9E+09,9E+09]];
CONST robtarget Target_65:=[[459.5540876344103, 253.3870408823301, 3.0],[0,0.924,0.383,0],[0,0,0,0],[9E+09,9E+09,9E+09,9E+09,9E+09,9E+09]];
CONST robtarget Target_66:=[[459.8151400038886, 251.40415115761272, 3.0],[0,0.924,0.383,0],[0,0,0,0],[9E+09,9E+09,9E+09,9E+09,9E+09,9E+09]];
CONST robtarget Target_67:=[[459.92380762663305, 249.42126143289534, 3.0],[0,0.924,0.383,0],[0,0,0,0],[9E+09,9E+09,9E+09,9E+09,9E+09,9E+09]];
CONST robtarget Target_68:=[[459.6627552571547, 247.43837170817795, 3.0],[0,0.924,0.383,0],[0,0,0,0],[9E+09,9E+09,9E+09,9E+09,9E+09,9E+09]];
CONST robtarget Target_69:=[[459.4017028876764, 245.4554819834606, 3.0],[0,0.924,0.383,0],[0,0,0,0],[9E+09,9E+09,9E+09,9E+09,9E+09,9E+09]];
CONST robtarget Target_70:=[[459.1406505181981, 243.47259225874322, 3.0],[0,0.924,0.383,0],[0,0,0,0],[9E+09,9E+09,9E+09,9E+09,9E+09,9E+09]];
CONST robtarget Target_71:=[[458.8795981487197, 241.48970253402584, 3.0],[0,0.924,0.383,0],[0,0,0,0],[9E+09,9E+09,9E+09,9E+09,9E+09,9E+09]];
CONST robtarget Target_72:=[[458.61854577924134, 239.50681280930846, 3.0],[0,0.924,0.383,0],[0,0,0,0],[9E+09,9E+09,9E+09,9E+09,9E+09,9E+09]];
CONST robtarget Target_73:=[[458.35749340976304, 237.5239230845911, 3.0],[0,0.924,0.383,0],[0,0,0,0],[9E+09,9E+09,9E+09,9E+09,9E+09,9E+09]];
CONST robtarget Target_74:=[[458.0964410402847, 235.54103335987372, 3.0],[0,0.924,0.383,0],[0,0,0,0],[9E+09,9E+09,9E+09,9E+09,9E+09,9E+09]];
CONST robtarget Target_75:=[[457.8353886708063, 233.55814363515634, 3.0],[0,0.924,0.383,0],[0,0,0,0],[9E+09,9E+09,9E+09,9E+09,9E+09,9E+09]];
CONST robtarget Target_76:=[[457.49615097135757, 231.59620360691005, 3.0],[0,0.924,0.383,0],[0,0,0,0],[9E+09,9E+09,9E+09,9E+09,9E+09,9E+09]];
CONST robtarget Target_77:=[[456.7307840730366, 229.74844455580123, 3.0],[0,0.924,0.383,0],[0,0,0,0],[9E+09,9E+09,9E+09,9E+09,9E+09,9E+09]];
CONST robtarget Target_78:=[[455.96541717471564, 227.90068550469243, 3.0],[0,0.924,0.383,0],[0,0,0,0],[9E+09,9E+09,9E+09,9E+09,9E+09,9E+09]];
CONST robtarget Target_79:=[[455.2000502763947, 226.0529264535836, 3.0],[0,0.924,0.383,0],[0,0,0,0],[9E+09,9E+09,9E+09,9E+09,9E+09,9E+09]];
CONST robtarget Target_80:=[[454.4346833780737, 224.20516740247479, 3.0],[0,0.924,0.383,0],[0,0,0,0],[9E+09,9E+09,9E+09,9E+09,9E+09,9E+09]];
CONST robtarget Target_81:=[[453.6693164797528, 222.35740835136596, 3.0],[0,0.924,0.383,0],[0,0,0,0],[9E+09,9E+09,9E+09,9E+09,9E+09,9E+09]];
CONST robtarget Target_82:=[[452.90394958143185, 220.50964930025714, 3.0],[0,0.924,0.383,0],[0,0,0,0],[9E+09,9E+09,9E+09,9E+09,9E+09,9E+09]];
CONST robtarget Target_83:=[[452.1385826831109, 218.6618902491483, 3.0],[0,0.924,0.383,0],[0,0,0,0],[9E+09,9E+09,9E+09,9E+09,9E+09,9E+09]];
CONST robtarget Target_84:=[[451.37321578479, 216.8141311980395, 3.0],[0,0.924,0.383,0],[0,0,0,0],[9E+09,9E+09,9E+09,9E+09,9E+09,9E+09]];
CONST robtarget Target_85:=[[450.5996199822422, 214.9711231069044, 3.0],[0,0.924,0.383,0],[0,0,0,0],[9E+09,9E+09,9E+09,9E+09,9E+09,9E+09]];
CONST robtarget Target_86:=[[449.38209718106, 213.3844163827107, 3.0],[0,0.924,0.383,0],[0,0,0,0],[9E+09,9E+09,9E+09,9E+09,9E+09,9E+09]];
CONST robtarget Target_87:=[[448.1645743798779, 211.79770965851696, 3.0],[0,0.924,0.383,0],[0,0,0,0],[9E+09,9E+09,9E+09,9E+09,9E+09,9E+09]];
CONST robtarget Target_88:=[[446.94705157869566, 210.21100293432326, 3.0],[0,0.924,0.383,0],[0,0,0,0],[9E+09,9E+09,9E+09,9E+09,9E+09,9E+09]];
CONST robtarget Target_89:=[[445.72952877751356, 208.62429621012956, 3.0],[0,0.924,0.383,0],[0,0,0,0],[9E+09,9E+09,9E+09,9E+09,9E+09,9E+09]];
CONST robtarget Target_90:=[[444.51200597633135, 207.03758948593583, 3.0],[0,0.924,0.383,0],[0,0,0,0],[9E+09,9E+09,9E+09,9E+09,9E+09,9E+09]];
CONST robtarget Target_91:=[[443.2944831751492, 205.45088276174212, 3.0],[0,0.924,0.383,0],[0,0,0,0],[9E+09,9E+09,9E+09,9E+09,9E+09,9E+09]];
CONST robtarget Target_92:=[[442.07696037396704, 203.86417603754842, 3.0],[0,0.924,0.383,0],[0,0,0,0],[9E+09,9E+09,9E+09,9E+09,9E+09,9E+09]];
CONST robtarget Target_93:=[[440.8594375727849, 202.2774693133547, 3.0],[0,0.924,0.383,0],[0,0,0,0],[9E+09,9E+09,9E+09,9E+09,9E+09,9E+09]];
CONST robtarget Target_94:=[[439.6419147716027, 200.69076258916098, 3.0],[0,0.924,0.383,0],[0,0,0,0],[9E+09,9E+09,9E+09,9E+09,9E+09,9E+09]];
CONST robtarget Target_95:=[[438.09900586496724, 199.42944197042056, 3.0],[0,0.924,0.383,0],[0,0,0,0],[9E+09,9E+09,9E+09,9E+09,9E+09,9E+09]];
CONST robtarget Target_96:=[[436.51229914077356, 198.2119191692384, 3.0],[0,0.924,0.383,0],[0,0,0,0],[9E+09,9E+09,9E+09,9E+09,9E+09,9E+09]];
CONST robtarget Target_97:=[[434.92559241657983, 196.99439636805624, 3.0],[0,0.924,0.383,0],[0,0,0,0],[9E+09,9E+09,9E+09,9E+09,9E+09,9E+09]];
CONST robtarget Target_98:=[[433.33888569238616, 195.7768735668741, 3.0],[0,0.924,0.383,0],[0,0,0,0],[9E+09,9E+09,9E+09,9E+09,9E+09,9E+09]];
CONST robtarget Target_99:=[[431.7521789681924, 194.55935076569193, 3.0],[0,0.924,0.383,0],[0,0,0,0],[9E+09,9E+09,9E+09,9E+09,9E+09,9E+09]];
CONST robtarget Target_100:=[[430.1654722439987, 193.34182796450978, 3.0],[0,0.924,0.383,0],[0,0,0,0],[9E+09,9E+09,9E+09,9E+09,9E+09,9E+09]];
CONST robtarget Target_101:=[[428.57876551980496, 192.12430516332762, 3.0],[0,0.924,0.383,0],[0,0,0,0],[9E+09,9E+09,9E+09,9E+09,9E+09,9E+09]];
CONST robtarget Target_102:=[[426.99205879561123, 190.90678236214546, 3.0],[0,0.924,0.383,0],[0,0,0,0],[9E+09,9E+09,9E+09,9E+09,9E+09,9E+09]];
CONST robtarget Target_103:=[[425.4053520714175, 189.68925956096328, 3.0],[0,0.924,0.383,0],[0,0,0,0],[9E+09,9E+09,9E+09,9E+09,9E+09,9E+09]];
CONST robtarget Target_104:=[[423.6242834173745, 188.80838150419459, 3.0],[0,0.924,0.383,0],[0,0,0,0],[9E+09,9E+09,9E+09,9E+09,9E+09,9E+09]];
CONST robtarget Target_105:=[[421.7765243662657, 188.04301460587362, 3.0],[0,0.924,0.383,0],[0,0,0,0],[9E+09,9E+09,9E+09,9E+09,9E+09,9E+09]];
CONST robtarget Target_106:=[[419.92876531515685, 187.27764770755266, 3.0],[0,0.924,0.383,0],[0,0,0,0],[9E+09,9E+09,9E+09,9E+09,9E+09,9E+09]];
CONST robtarget Target_107:=[[418.081006264048, 186.51228080923173, 3.0],[0,0.924,0.383,0],[0,0,0,0],[9E+09,9E+09,9E+09,9E+09,9E+09,9E+09]];
CONST robtarget Target_108:=[[416.2332472129392, 185.74691391091076, 3.0],[0,0.924,0.383,0],[0,0,0,0],[9E+09,9E+09,9E+09,9E+09,9E+09,9E+09]];
CONST robtarget Target_109:=[[414.3854881618304, 184.98154701258983, 3.0],[0,0.924,0.383,0],[0,0,0,0],[9E+09,9E+09,9E+09,9E+09,9E+09,9E+09]];
CONST robtarget Target_110:=[[412.53772911072156, 184.21618011426887, 3.0],[0,0.924,0.383,0],[0,0,0,0],[9E+09,9E+09,9E+09,9E+09,9E+09,9E+09]];
CONST robtarget Target_111:=[[410.68997005961273, 183.4508132159479, 3.0],[0,0.924,0.383,0],[0,0,0,0],[9E+09,9E+09,9E+09,9E+09,9E+09,9E+09]];
CONST robtarget Target_112:=[[408.8422110085039, 182.68544631762694, 3.0],[0,0.924,0.383,0],[0,0,0,0],[9E+09,9E+09,9E+09,9E+09,9E+09,9E+09]];
CONST robtarget Target_113:=[[406.91233320301615, 182.2265507763846, 3.0],[0,0.924,0.383,0],[0,0,0,0],[9E+09,9E+09,9E+09,9E+09,9E+09,9E+09]];
CONST robtarget Target_114:=[[404.92944347829877, 181.96549840690628, 3.0],[0,0.924,0.383,0],[0,0,0,0],[9E+09,9E+09,9E+09,9E+09,9E+09,9E+09]];
CONST robtarget Target_115:=[[402.9465537535814, 181.70444603742794, 3.0],[0,0.924,0.383,0],[0,0,0,0],[9E+09,9E+09,9E+09,9E+09,9E+09,9E+09]];
CONST robtarget Target_116:=[[400.96366402886406, 181.44339366794958, 3.0],[0,0.924,0.383,0],[0,0,0,0],[9E+09,9E+09,9E+09,9E+09,9E+09,9E+09]];
CONST robtarget Target_117:=[[398.9807743041466, 181.18234129847127, 3.0],[0,0.924,0.383,0],[0,0,0,0],[9E+09,9E+09,9E+09,9E+09,9E+09,9E+09]];
CONST robtarget Target_118:=[[396.9978845794293, 180.9212889289929, 3.0],[0,0.924,0.383,0],[0,0,0,0],[9E+09,9E+09,9E+09,9E+09,9E+09,9E+09]];
CONST robtarget Target_119:=[[395.01499485471186, 180.6602365595146, 3.0],[0,0.924,0.383,0],[0,0,0,0],[9E+09,9E+09,9E+09,9E+09,9E+09,9E+09]];
CONST robtarget Target_120:=[[393.03210512999453, 180.39918419003624, 3.0],[0,0.924,0.383,0],[0,0,0,0],[9E+09,9E+09,9E+09,9E+09,9E+09,9E+09]];
CONST robtarget Target_121:=[[391.04921540527715, 180.1381318205579, 3.0],[0,0.924,0.383,0],[0,0,0,0],[9E+09,9E+09,9E+09,9E+09,9E+09,9E+09]];
CONST robtarget Target_122:=[[389.06632568055977, 179.87707945107957, 3.0],[0,0.924,0.383,0],[0,0,0,0],[9E+09,9E+09,9E+09,9E+09,9E+09,9E+09]];
CONST robtarget Target_123:=[[387.0834359558424, 179.61602708160123, 3.0],[0,0.924,0.383,0],[0,0,0,0],[9E+09,9E+09,9E+09,9E+09,9E+09,9E+09]];
CONST robtarget Target_124:=[[385.100546231125, 179.3549747121229, 3.0],[0,0.924,0.383,0],[0,0,0,0],[9E+09,9E+09,9E+09,9E+09,9E+09,9E+09]];
CONST robtarget Target_125:=[[383.1176565064077, 179.09392234264453, 3.0],[0,0.924,0.383,0],[0,0,0,0],[9E+09,9E+09,9E+09,9E+09,9E+09,9E+09]];
CONST robtarget Target_126:=[[381.13476678169025, 178.83286997316623, 3.0],[0,0.924,0.383,0],[0,0,0,0],[9E+09,9E+09,9E+09,9E+09,9E+09,9E+09]];
CONST robtarget Target_127:=[[379.1518770569729, 178.57181760368786, 3.0],[0,0.924,0.383,0],[0,0,0,0],[9E+09,9E+09,9E+09,9E+09,9E+09,9E+09]];
CONST robtarget Target_128:=[[377.16898733225554, 178.31076523420955, 3.0],[0,0.924,0.383,0],[0,0,0,0],[9E+09,9E+09,9E+09,9E+09,9E+09,9E+09]];
CONST robtarget Target_129:=[[375.18609760753816, 178.0497128647312, 3.0],[0,0.924,0.383,0],[0,0,0,0],[9E+09,9E+09,9E+09,9E+09,9E+09,9E+09]];
CONST robtarget Target_130:=[[373.2032078828208, 177.78866049525286, 3.0],[0,0.924,0.383,0],[0,0,0,0],[9E+09,9E+09,9E+09,9E+09,9E+09,9E+09]];
CONST robtarget Target_131:=[[371.2654561423562, 177.3591508787745, 3.0],[0,0.924,0.383,0],[0,0,0,0],[9E+09,9E+09,9E+09,9E+09,9E+09,9E+09]];
CONST robtarget Target_132:=[[369.41769709124736, 176.59378398045354, 3.0],[0,0.924,0.383,0],[0,0,0,0],[9E+09,9E+09,9E+09,9E+09,9E+09,9E+09]];
CONST robtarget Target_133:=[[367.5699380401386, 175.8284170821326, 3.0],[0,0.924,0.383,0],[0,0,0,0],[9E+09,9E+09,9E+09,9E+09,9E+09,9E+09]];
CONST robtarget Target_134:=[[365.72217898902977, 175.06305018381164, 3.0],[0,0.924,0.383,0],[0,0,0,0],[9E+09,9E+09,9E+09,9E+09,9E+09,9E+09]];
CONST robtarget Target_135:=[[363.87441993792095, 174.29768328549068, 3.0],[0,0.924,0.383,0],[0,0,0,0],[9E+09,9E+09,9E+09,9E+09,9E+09,9E+09]];
CONST robtarget Target_136:=[[362.0266608868121, 173.53231638716971, 3.0],[0,0.924,0.383,0],[0,0,0,0],[9E+09,9E+09,9E+09,9E+09,9E+09,9E+09]];
CONST robtarget Target_137:=[[360.1789018357033, 172.76694948884878, 3.0],[0,0.924,0.383,0],[0,0,0,0],[9E+09,9E+09,9E+09,9E+09,9E+09,9E+09]];
CONST robtarget Target_138:=[[358.3311427845945, 172.00158259052785, 3.0],[0,0.924,0.383,0],[0,0,0,0],[9E+09,9E+09,9E+09,9E+09,9E+09,9E+09]];
CONST robtarget Target_139:=[[356.48338373348565, 171.23621569220688, 3.0],[0,0.924,0.383,0],[0,0,0,0],[9E+09,9E+09,9E+09,9E+09,9E+09,9E+09]];
CONST robtarget Target_140:=[[354.68710381028524, 170.38168432700297, 3.0],[0,0.924,0.383,0],[0,0,0,0],[9E+09,9E+09,9E+09,9E+09,9E+09,9E+09]];
CONST robtarget Target_141:=[[353.1003970860915, 169.16416152582082, 3.0],[0,0.924,0.383,0],[0,0,0,0],[9E+09,9E+09,9E+09,9E+09,9E+09,9E+09]];
CONST robtarget Target_142:=[[351.51369036189783, 167.94663872463866, 3.0],[0,0.924,0.383,0],[0,0,0,0],[9E+09,9E+09,9E+09,9E+09,9E+09,9E+09]];
CONST robtarget Target_143:=[[349.9269836377041, 166.7291159234565, 3.0],[0,0.924,0.383,0],[0,0,0,0],[9E+09,9E+09,9E+09,9E+09,9E+09,9E+09]];
CONST robtarget Target_144:=[[348.34027691351037, 165.51159312227435, 3.0],[0,0.924,0.383,0],[0,0,0,0],[9E+09,9E+09,9E+09,9E+09,9E+09,9E+09]];
CONST robtarget Target_145:=[[346.7535701893167, 164.2940703210922, 3.0],[0,0.924,0.383,0],[0,0,0,0],[9E+09,9E+09,9E+09,9E+09,9E+09,9E+09]];
CONST robtarget Target_146:=[[345.16686346512296, 163.07654751991004, 3.0],[0,0.924,0.383,0],[0,0,0,0],[9E+09,9E+09,9E+09,9E+09,9E+09,9E+09]];
CONST robtarget Target_147:=[[343.5801567409292, 161.85902471872788, 3.0],[0,0.924,0.383,0],[0,0,0,0],[9E+09,9E+09,9E+09,9E+09,9E+09,9E+09]];
CONST robtarget Target_148:=[[341.99345001673555, 160.64150191754572, 3.0],[0,0.924,0.383,0],[0,0,0,0],[9E+09,9E+09,9E+09,9E+09,9E+09,9E+09]];
CONST robtarget Target_149:=[[340.42902911636355, 159.4016932925418, 3.0],[0,0.924,0.383,0],[0,0,0,0],[9E+09,9E+09,9E+09,9E+09,9E+09,9E+09]];
CONST robtarget Target_150:=[[339.2115063151814, 157.8149865683481, 3.0],[0,0.924,0.383,0],[0,0,0,0],[9E+09,9E+09,9E+09,9E+09,9E+09,9E+09]];
CONST robtarget Target_151:=[[337.99398351399924, 156.22827984415437, 3.0],[0,0.924,0.383,0],[0,0,0,0],[9E+09,9E+09,9E+09,9E+09,9E+09,9E+09]];
CONST robtarget Target_152:=[[336.7764607128171, 154.64157311996064, 3.0],[0,0.924,0.383,0],[0,0,0,0],[9E+09,9E+09,9E+09,9E+09,9E+09,9E+09]];
CONST robtarget Target_153:=[[335.5589379116349, 153.05486639576694, 3.0],[0,0.924,0.383,0],[0,0,0,0],[9E+09,9E+09,9E+09,9E+09,9E+09,9E+09]];
CONST robtarget Target_154:=[[334.3414151104528, 151.46815967157323, 3.0],[0,0.924,0.383,0],[0,0,0,0],[9E+09,9E+09,9E+09,9E+09,9E+09,9E+09]];
CONST robtarget Target_155:=[[333.12389230927056, 149.8814529473795, 3.0],[0,0.924,0.383,0],[0,0,0,0],[9E+09,9E+09,9E+09,9E+09,9E+09,9E+09]];
CONST robtarget Target_156:=[[331.90636950808846, 148.2947462231858, 3.0],[0,0.924,0.383,0],[0,0,0,0],[9E+09,9E+09,9E+09,9E+09,9E+09,9E+09]];
CONST robtarget Target_157:=[[330.68884670690625, 146.7080394989921, 3.0],[0,0.924,0.383,0],[0,0,0,0],[9E+09,9E+09,9E+09,9E+09,9E+09,9E+09]];
CONST robtarget Target_158:=[[329.4713239057241, 145.12133277479836, 3.0],[0,0.924,0.383,0],[0,0,0,0],[9E+09,9E+09,9E+09,9E+09,9E+09,9E+09]];
CONST robtarget Target_159:=[[328.6713814116115, 143.2935359528206, 3.0],[0,0.924,0.383,0],[0,0,0,0],[9E+09,9E+09,9E+09,9E+09,9E+09,9E+09]];
CONST robtarget Target_160:=[[327.90601451329053, 141.4457769017118, 3.0],[0,0.924,0.383,0],[0,0,0,0],[9E+09,9E+09,9E+09,9E+09,9E+09,9E+09]];
CONST robtarget Target_161:=[[327.1406476149696, 139.598017850603, 3.0],[0,0.924,0.383,0],[0,0,0,0],[9E+09,9E+09,9E+09,9E+09,9E+09,9E+09]];
CONST robtarget Target_162:=[[326.37528071664866, 137.7502587994942, 3.0],[0,0.924,0.383,0],[0,0,0,0],[9E+09,9E+09,9E+09,9E+09,9E+09,9E+09]];
CONST robtarget Target_163:=[[325.6099138183277, 135.90249974838537, 3.0],[0,0.924,0.383,0],[0,0,0,0],[9E+09,9E+09,9E+09,9E+09,9E+09,9E+09]];
CONST robtarget Target_164:=[[324.8445469200068, 134.05474069727654, 3.0],[0,0.924,0.383,0],[0,0,0,0],[9E+09,9E+09,9E+09,9E+09,9E+09,9E+09]];
CONST robtarget Target_165:=[[324.07918002168583, 132.20698164616772, 3.0],[0,0.924,0.383,0],[0,0,0,0],[9E+09,9E+09,9E+09,9E+09,9E+09,9E+09]];
CONST robtarget Target_166:=[[323.31381312336487, 130.35922259505892, 3.0],[0,0.924,0.383,0],[0,0,0,0],[9E+09,9E+09,9E+09,9E+09,9E+09,9E+09]];
CONST robtarget Target_167:=[[322.5484462250439, 128.5114635439501, 3.0],[0,0.924,0.383,0],[0,0,0,0],[9E+09,9E+09,9E+09,9E+09,9E+09,9E+09]];
CONST robtarget Target_168:=[[322.17982260083113, 126.55739745068064, 3.0],[0,0.924,0.383,0],[0,0,0,0],[9E+09,9E+09,9E+09,9E+09,9E+09,9E+09]];
CONST robtarget Target_169:=[[321.9187702313528, 124.57450772596326, 3.0],[0,0.924,0.383,0],[0,0,0,0],[9E+09,9E+09,9E+09,9E+09,9E+09,9E+09]];
CONST robtarget Target_170:=[[321.65771786187446, 122.59161800124588, 3.0],[0,0.924,0.383,0],[0,0,0,0],[9E+09,9E+09,9E+09,9E+09,9E+09,9E+09]];
CONST robtarget Target_171:=[[321.3966654923961, 120.6087282765285, 3.0],[0,0.924,0.383,0],[0,0,0,0],[9E+09,9E+09,9E+09,9E+09,9E+09,9E+09]];
CONST robtarget Target_172:=[[321.1356131229178, 118.62583855181114, 3.0],[0,0.924,0.383,0],[0,0,0,0],[9E+09,9E+09,9E+09,9E+09,9E+09,9E+09]];
CONST robtarget Target_173:=[[320.8745607534395, 116.64294882709376, 3.0],[0,0.924,0.383,0],[0,0,0,0],[9E+09,9E+09,9E+09,9E+09,9E+09,9E+09]];
CONST robtarget Target_174:=[[320.6135083839611, 114.66005910237638, 3.0],[0,0.924,0.383,0],[0,0,0,0],[9E+09,9E+09,9E+09,9E+09,9E+09,9E+09]];
CONST robtarget Target_175:=[[320.35245601448275, 112.677169377659, 3.0],[0,0.924,0.383,0],[0,0,0,0],[9E+09,9E+09,9E+09,9E+09,9E+09,9E+09]];
CONST robtarget Target_176:=[[320.09140364500445, 110.69427965294165, 3.0],[0,0.924,0.383,0],[0,0,0,0],[9E+09,9E+09,9E+09,9E+09,9E+09,9E+09]];
CONST robtarget Target_177:=[[319.8303512755261, 108.71138992822426, 3.0],[0,0.924,0.383,0],[0,0,0,0],[9E+09,9E+09,9E+09,9E+09,9E+09,9E+09]];
CONST robtarget Target_178:=[[319.5692989060478, 106.72850020350688, 3.0],[0,0.924,0.383,0],[0,0,0,0],[9E+09,9E+09,9E+09,9E+09,9E+09,9E+09]];
CONST robtarget Target_179:=[[319.3082465365694, 104.7456104787895, 3.0],[0,0.924,0.383,0],[0,0,0,0],[9E+09,9E+09,9E+09,9E+09,9E+09,9E+09]];
CONST robtarget Target_180:=[[319.0471941670911, 102.76272075407212, 3.0],[0,0.924,0.383,0],[0,0,0,0],[9E+09,9E+09,9E+09,9E+09,9E+09,9E+09]];
CONST robtarget Target_181:=[[318.78614179761274, 100.77983102935477, 3.0],[0,0.924,0.383,0],[0,0,0,0],[9E+09,9E+09,9E+09,9E+09,9E+09,9E+09]];
CONST robtarget Target_182:=[[318.5250894281344, 98.79694130463739, 3.0],[0,0.924,0.383,0],[0,0,0,0],[9E+09,9E+09,9E+09,9E+09,9E+09,9E+09]];
CONST robtarget Target_183:=[[318.2640370586561, 96.81405157992, 3.0],[0,0.924,0.383,0],[0,0,0,0],[9E+09,9E+09,9E+09,9E+09,9E+09,9E+09]];
CONST robtarget Target_184:=[[318.00298468917777, 94.83116185520262, 3.0],[0,0.924,0.383,0],[0,0,0,0],[9E+09,9E+09,9E+09,9E+09,9E+09,9E+09]];
CONST robtarget Target_185:=[[317.7419323196994, 92.84827213048527, 3.0],[0,0.924,0.383,0],[0,0,0,0],[9E+09,9E+09,9E+09,9E+09,9E+09,9E+09]];
CONST robtarget Target_186:=[[317.22215078619143, 90.93470867780238, 3.0],[0,0.924,0.383,0],[0,0,0,0],[9E+09,9E+09,9E+09,9E+09,9E+09,9E+09]];
CONST robtarget Target_187:=[[316.4567838878705, 89.08694962669355, 3.0],[0,0.924,0.383,0],[0,0,0,0],[9E+09,9E+09,9E+09,9E+09,9E+09,9E+09]];
CONST robtarget Target_188:=[[315.69141698954957, 87.23919057558473, 3.0],[0,0.924,0.383,0],[0,0,0,0],[9E+09,9E+09,9E+09,9E+09,9E+09,9E+09]];
CONST robtarget Target_189:=[[314.9260500912286, 85.3914315244759, 3.0],[0,0.924,0.383,0],[0,0,0,0],[9E+09,9E+09,9E+09,9E+09,9E+09,9E+09]];
CONST robtarget Target_190:=[[314.16068319290764, 83.54367247336708, 3.0],[0,0.924,0.383,0],[0,0,0,0],[9E+09,9E+09,9E+09,9E+09,9E+09,9E+09]];
CONST robtarget Target_191:=[[313.3953162945867, 81.69591342225826, 3.0],[0,0.924,0.383,0],[0,0,0,0],[9E+09,9E+09,9E+09,9E+09,9E+09,9E+09]];
CONST robtarget Target_192:=[[312.6299493962657, 79.84815437114943, 3.0],[0,0.924,0.383,0],[0,0,0,0],[9E+09,9E+09,9E+09,9E+09,9E+09,9E+09]];
CONST robtarget Target_193:=[[311.86458249794475, 78.00039532004061, 3.0],[0,0.924,0.383,0],[0,0,0,0],[9E+09,9E+09,9E+09,9E+09,9E+09,9E+09]];
CONST robtarget Target_194:=[[311.0992155996238, 76.15263626893179, 3.0],[0,0.924,0.383,0],[0,0,0,0],[9E+09,9E+09,9E+09,9E+09,9E+09,9E+09]];
CONST robtarget Target_195:=[[310.1637486717638, 74.40308451366607, 3.0],[0,0.924,0.383,0],[0,0,0,0],[9E+09,9E+09,9E+09,9E+09,9E+09,9E+09]];
CONST robtarget Target_196:=[[308.94622587058166, 72.81637778947234, 3.0],[0,0.924,0.383,0],[0,0,0,0],[9E+09,9E+09,9E+09,9E+09,9E+09,9E+09]];
CONST robtarget Target_197:=[[307.7287030693995, 71.22967106527864, 3.0],[0,0.924,0.383,0],[0,0,0,0],[9E+09,9E+09,9E+09,9E+09,9E+09,9E+09]];
CONST robtarget Target_198:=[[306.51118026821734, 69.64296434108493, 3.0],[0,0.924,0.383,0],[0,0,0,0],[9E+09,9E+09,9E+09,9E+09,9E+09,9E+09]];
CONST robtarget Target_199:=[[305.2936574670352, 68.0562576168912, 3.0],[0,0.924,0.383,0],[0,0,0,0],[9E+09,9E+09,9E+09,9E+09,9E+09,9E+09]];
CONST robtarget Target_200:=[[304.07613466585303, 66.4695508926975, 3.0],[0,0.924,0.383,0],[0,0,0,0],[9E+09,9E+09,9E+09,9E+09,9E+09,9E+09]];
CONST robtarget Target_201:=[[302.8586118646709, 64.8828441685038, 3.0],[0,0.924,0.383,0],[0,0,0,0],[9E+09,9E+09,9E+09,9E+09,9E+09,9E+09]];
CONST robtarget Target_202:=[[301.6410890634887, 63.29613744431006, 3.0],[0,0.924,0.383,0],[0,0,0,0],[9E+09,9E+09,9E+09,9E+09,9E+09,9E+09]];
CONST robtarget Target_203:=[[300.42356626230657, 61.70943072011636, 3.0],[0,0.924,0.383,0],[0,0,0,0],[9E+09,9E+09,9E+09,9E+09,9E+09,9E+09]];
CONST robtarget Target_204:=[[299.11767399592264, 60.21109346112439, 3.0],[0,0.924,0.383,0],[0,0,0,0],[9E+09,9E+09,9E+09,9E+09,9E+09,9E+09]];
CONST robtarget Target_205:=[[297.53096727172897, 58.993570659942236, 3.0],[0,0.924,0.383,0],[0,0,0,0],[9E+09,9E+09,9E+09,9E+09,9E+09,9E+09]];
CONST robtarget Target_206:=[[295.94426054753524, 57.77604785876005, 3.0],[0,0.924,0.383,0],[0,0,0,0],[9E+09,9E+09,9E+09,9E+09,9E+09,9E+09]];
CONST robtarget Target_207:=[[294.3575538233415, 56.558525057577896, 3.0],[0,0.924,0.383,0],[0,0,0,0],[9E+09,9E+09,9E+09,9E+09,9E+09,9E+09]];
CONST robtarget Target_208:=[[292.7708470991478, 55.34100225639574, 3.0],[0,0.924,0.383,0],[0,0,0,0],[9E+09,9E+09,9E+09,9E+09,9E+09,9E+09]];
CONST robtarget Target_209:=[[291.1841403749541, 54.123479455213584, 3.0],[0,0.924,0.383,0],[0,0,0,0],[9E+09,9E+09,9E+09,9E+09,9E+09,9E+09]];
CONST robtarget Target_210:=[[289.59743365076037, 52.90595665403143, 3.0],[0,0.924,0.383,0],[0,0,0,0],[9E+09,9E+09,9E+09,9E+09,9E+09,9E+09]];
CONST robtarget Target_211:=[[288.0107269265667, 51.68843385284927, 3.0],[0,0.924,0.383,0],[0,0,0,0],[9E+09,9E+09,9E+09,9E+09,9E+09,9E+09]];
CONST robtarget Target_212:=[[286.42402020237296, 50.470911051667116, 3.0],[0,0.924,0.383,0],[0,0,0,0],[9E+09,9E+09,9E+09,9E+09,9E+09,9E+09]];
CONST robtarget Target_213:=[[284.81054753937565, 49.29974821734942, 3.0],[0,0.924,0.383,0],[0,0,0,0],[9E+09,9E+09,9E+09,9E+09,9E+09,9E+09]];
CONST robtarget Target_214:=[[282.9627884882668, 48.534381319028455, 3.0],[0,0.924,0.383,0],[0,0,0,0],[9E+09,9E+09,9E+09,9E+09,9E+09,9E+09]];
CONST robtarget Target_215:=[[281.115029437158, 47.76901442070752, 3.0],[0,0.924,0.383,0],[0,0,0,0],[9E+09,9E+09,9E+09,9E+09,9E+09,9E+09]];
CONST robtarget Target_216:=[[279.2672703860492, 47.00364752238656, 3.0],[0,0.924,0.383,0],[0,0,0,0],[9E+09,9E+09,9E+09,9E+09,9E+09,9E+09]];
CONST robtarget Target_217:=[[277.41951133494035, 46.238280624065595, 3.0],[0,0.924,0.383,0],[0,0,0,0],[9E+09,9E+09,9E+09,9E+09,9E+09,9E+09]];
CONST robtarget Target_218:=[[275.57175228383153, 45.47291372574466, 3.0],[0,0.924,0.383,0],[0,0,0,0],[9E+09,9E+09,9E+09,9E+09,9E+09,9E+09]];
CONST robtarget Target_219:=[[273.7239932327227, 44.7075468274237, 3.0],[0,0.924,0.383,0],[0,0,0,0],[9E+09,9E+09,9E+09,9E+09,9E+09,9E+09]];
CONST robtarget Target_220:=[[271.8762341816139, 43.942179929102736, 3.0],[0,0.924,0.383,0],[0,0,0,0],[9E+09,9E+09,9E+09,9E+09,9E+09,9E+09]];
CONST robtarget Target_221:=[[270.02847513050506, 43.1768130307818, 3.0],[0,0.924,0.383,0],[0,0,0,0],[9E+09,9E+09,9E+09,9E+09,9E+09,9E+09]];
CONST robtarget Target_222:=[[268.18071607939623, 42.41144613246084, 3.0],[0,0.924,0.383,0],[0,0,0,0],[9E+09,9E+09,9E+09,9E+09,9E+09,9E+09]];
CONST robtarget Target_223:=[[266.2024616983451, 42.13309442527765, 3.0],[0,0.924,0.383,0],[0,0,0,0],[9E+09,9E+09,9E+09,9E+09,9E+09,9E+09]];
CONST robtarget Target_224:=[[264.2195719736277, 41.87204205579931, 3.0],[0,0.924,0.383,0],[0,0,0,0],[9E+09,9E+09,9E+09,9E+09,9E+09,9E+09]];
CONST robtarget Target_225:=[[262.2366822489103, 41.61098968632098, 3.0],[0,0.924,0.383,0],[0,0,0,0],[9E+09,9E+09,9E+09,9E+09,9E+09,9E+09]];
CONST robtarget Target_226:=[[260.25379252419293, 41.34993731684264, 3.0],[0,0.924,0.383,0],[0,0,0,0],[9E+09,9E+09,9E+09,9E+09,9E+09,9E+09]];
CONST robtarget Target_227:=[[258.27090279947555, 41.088884947364306, 3.0],[0,0.924,0.383,0],[0,0,0,0],[9E+09,9E+09,9E+09,9E+09,9E+09,9E+09]];
CONST robtarget Target_228:=[[256.28801307475817, 40.82783257788597, 3.0],[0,0.924,0.383,0],[0,0,0,0],[9E+09,9E+09,9E+09,9E+09,9E+09,9E+09]];
CONST robtarget Target_229:=[[254.30512335004082, 40.566780208407636, 3.0],[0,0.924,0.383,0],[0,0,0,0],[9E+09,9E+09,9E+09,9E+09,9E+09,9E+09]];
CONST robtarget Target_230:=[[252.32223362532343, 40.3057278389293, 3.0],[0,0.924,0.383,0],[0,0,0,0],[9E+09,9E+09,9E+09,9E+09,9E+09,9E+09]];
CONST robtarget Target_231:=[[250.33934390060605, 40.044675469450965, 3.0],[0,0.924,0.383,0],[0,0,0,0],[9E+09,9E+09,9E+09,9E+09,9E+09,9E+09]];
CONST robtarget Target_232:=[[248.3564541758887, 40.21637690002737, 3.0],[0,0.924,0.383,0],[0,0,0,0],[9E+09,9E+09,9E+09,9E+09,9E+09,9E+09]];
CONST robtarget Target_233:=[[246.37356445117132, 40.477429269505706, 3.0],[0,0.924,0.383,0],[0,0,0,0],[9E+09,9E+09,9E+09,9E+09,9E+09,9E+09]];
CONST robtarget Target_234:=[[244.39067472645394, 40.73848163898404, 3.0],[0,0.924,0.383,0],[0,0,0,0],[9E+09,9E+09,9E+09,9E+09,9E+09,9E+09]];
CONST robtarget Target_235:=[[242.40778500173656, 40.999534008462376, 3.0],[0,0.924,0.383,0],[0,0,0,0],[9E+09,9E+09,9E+09,9E+09,9E+09,9E+09]];
CONST robtarget Target_236:=[[240.42489527701917, 41.26058637794071, 3.0],[0,0.924,0.383,0],[0,0,0,0],[9E+09,9E+09,9E+09,9E+09,9E+09,9E+09]];
CONST robtarget Target_237:=[[238.44200555230182, 41.52163874741905, 3.0],[0,0.924,0.383,0],[0,0,0,0],[9E+09,9E+09,9E+09,9E+09,9E+09,9E+09]];
CONST robtarget Target_238:=[[236.45911582758444, 41.78269111689741, 3.0],[0,0.924,0.383,0],[0,0,0,0],[9E+09,9E+09,9E+09,9E+09,9E+09,9E+09]];
CONST robtarget Target_239:=[[234.47622610286706, 42.043743486375746, 3.0],[0,0.924,0.383,0],[0,0,0,0],[9E+09,9E+09,9E+09,9E+09,9E+09,9E+09]];
CONST robtarget Target_240:=[[232.49333637814968, 42.30479585585408, 3.0],[0,0.924,0.383,0],[0,0,0,0],[9E+09,9E+09,9E+09,9E+09,9E+09,9E+09]];
CONST robtarget Target_241:=[[230.60396121324854, 42.9148493063916, 3.0],[0,0.924,0.383,0],[0,0,0,0],[9E+09,9E+09,9E+09,9E+09,9E+09,9E+09]];
CONST robtarget Target_242:=[[228.75620216213972, 43.680216204712565, 3.0],[0,0.924,0.383,0],[0,0,0,0],[9E+09,9E+09,9E+09,9E+09,9E+09,9E+09]];
CONST robtarget Target_243:=[[226.9084431110309, 44.4455831030335, 3.0],[0,0.924,0.383,0],[0,0,0,0],[9E+09,9E+09,9E+09,9E+09,9E+09,9E+09]];
CONST robtarget Target_244:=[[225.06068405992207, 45.21095000135446, 3.0],[0,0.924,0.383,0],[0,0,0,0],[9E+09,9E+09,9E+09,9E+09,9E+09,9E+09]];
CONST robtarget Target_245:=[[223.21292500881324, 45.976316899675425, 3.0],[0,0.924,0.383,0],[0,0,0,0],[9E+09,9E+09,9E+09,9E+09,9E+09,9E+09]];
CONST robtarget Target_246:=[[221.36516595770445, 46.74168379799636, 3.0],[0,0.924,0.383,0],[0,0,0,0],[9E+09,9E+09,9E+09,9E+09,9E+09,9E+09]];
CONST robtarget Target_247:=[[219.51740690659562, 47.50705069631732, 3.0],[0,0.924,0.383,0],[0,0,0,0],[9E+09,9E+09,9E+09,9E+09,9E+09,9E+09]];
CONST robtarget Target_248:=[[217.6696478554868, 48.272417594638284, 3.0],[0,0.924,0.383,0],[0,0,0,0],[9E+09,9E+09,9E+09,9E+09,9E+09,9E+09]];
CONST robtarget Target_249:=[[215.82188880437798, 49.03778449295925, 3.0],[0,0.924,0.383,0],[0,0,0,0],[9E+09,9E+09,9E+09,9E+09,9E+09,9E+09]];
CONST robtarget Target_250:=[[214.11906521704694, 50.05418698347532, 3.0],[0,0.924,0.383,0],[0,0,0,0],[9E+09,9E+09,9E+09,9E+09,9E+09,9E+09]];
CONST robtarget Target_251:=[[212.53235849285323, 51.271709784657475, 3.0],[0,0.924,0.383,0],[0,0,0,0],[9E+09,9E+09,9E+09,9E+09,9E+09,9E+09]];
CONST robtarget Target_252:=[[210.9456517686595, 52.48923258583963, 3.0],[0,0.924,0.383,0],[0,0,0,0],[9E+09,9E+09,9E+09,9E+09,9E+09,9E+09]];
CONST robtarget Target_253:=[[209.3589450444658, 53.706755387021786, 3.0],[0,0.924,0.383,0],[0,0,0,0],[9E+09,9E+09,9E+09,9E+09,9E+09,9E+09]];
CONST robtarget Target_254:=[[207.7722383202721, 54.92427818820394, 3.0],[0,0.924,0.383,0],[0,0,0,0],[9E+09,9E+09,9E+09,9E+09,9E+09,9E+09]];
CONST robtarget Target_255:=[[206.18553159607836, 56.1418009893861, 3.0],[0,0.924,0.383,0],[0,0,0,0],[9E+09,9E+09,9E+09,9E+09,9E+09,9E+09]];
CONST robtarget Target_256:=[[204.59882487188466, 57.359323790568254, 3.0],[0,0.924,0.383,0],[0,0,0,0],[9E+09,9E+09,9E+09,9E+09,9E+09,9E+09]];
CONST robtarget Target_257:=[[203.01211814769096, 58.57684659175044, 3.0],[0,0.924,0.383,0],[0,0,0,0],[9E+09,9E+09,9E+09,9E+09,9E+09,9E+09]];
CONST robtarget Target_258:=[[201.42541142349722, 59.794369392932595, 3.0],[0,0.924,0.383,0],[0,0,0,0],[9E+09,9E+09,9E+09,9E+09,9E+09,9E+09]];
CONST robtarget Target_259:=[[199.99315780588523, 61.16634530069646, 3.0],[0,0.924,0.383,0],[0,0,0,0],[9E+09,9E+09,9E+09,9E+09,9E+09,9E+09]];
CONST robtarget Target_260:=[[198.77563500470308, 62.75305202489017, 3.0],[0,0.924,0.383,0],[0,0,0,0],[9E+09,9E+09,9E+09,9E+09,9E+09,9E+09]];
CONST robtarget Target_261:=[[197.55811220352092, 64.3397587490839, 3.0],[0,0.924,0.383,0],[0,0,0,0],[9E+09,9E+09,9E+09,9E+09,9E+09,9E+09]];
CONST robtarget Target_262:=[[196.34058940233876, 65.9264654732776, 3.0],[0,0.924,0.383,0],[0,0,0,0],[9E+09,9E+09,9E+09,9E+09,9E+09,9E+09]];
CONST robtarget Target_263:=[[195.1230666011566, 67.51317219747133, 3.0],[0,0.924,0.383,0],[0,0,0,0],[9E+09,9E+09,9E+09,9E+09,9E+09,9E+09]];
CONST robtarget Target_264:=[[193.90554379997445, 69.09987892166504, 3.0],[0,0.924,0.383,0],[0,0,0,0],[9E+09,9E+09,9E+09,9E+09,9E+09,9E+09]];
CONST robtarget Target_265:=[[192.6880209987923, 70.68658564585874, 3.0],[0,0.924,0.383,0],[0,0,0,0],[9E+09,9E+09,9E+09,9E+09,9E+09,9E+09]];
CONST robtarget Target_266:=[[191.47049819761014, 72.27329237005247, 3.0],[0,0.924,0.383,0],[0,0,0,0],[9E+09,9E+09,9E+09,9E+09,9E+09,9E+09]];
CONST robtarget Target_267:=[[190.25297539642798, 73.85999909424618, 3.0],[0,0.924,0.383,0],[0,0,0,0],[9E+09,9E+09,9E+09,9E+09,9E+09,9E+09]];
CONST robtarget Target_268:=[[189.16274812476638, 75.52019992517819, 3.0],[0,0.924,0.383,0],[0,0,0,0],[9E+09,9E+09,9E+09,9E+09,9E+09,9E+09]];
CONST robtarget Target_269:=[[188.39738122644542, 77.36795897628701, 3.0],[0,0.924,0.383,0],[0,0,0,0],[9E+09,9E+09,9E+09,9E+09,9E+09,9E+09]];
CONST robtarget Target_270:=[[187.63201432812446, 79.21571802739584, 3.0],[0,0.924,0.383,0],[0,0,0,0],[9E+09,9E+09,9E+09,9E+09,9E+09,9E+09]];
CONST robtarget Target_271:=[[186.86664742980352, 81.06347707850466, 3.0],[0,0.924,0.383,0],[0,0,0,0],[9E+09,9E+09,9E+09,9E+09,9E+09,9E+09]];
CONST robtarget Target_272:=[[186.10128053148256, 82.91123612961348, 3.0],[0,0.924,0.383,0],[0,0,0,0],[9E+09,9E+09,9E+09,9E+09,9E+09,9E+09]];
CONST robtarget Target_273:=[[185.33591363316162, 84.75899518072231, 3.0],[0,0.924,0.383,0],[0,0,0,0],[9E+09,9E+09,9E+09,9E+09,9E+09,9E+09]];
CONST robtarget Target_274:=[[184.57054673484066, 86.60675423183113, 3.0],[0,0.924,0.383,0],[0,0,0,0],[9E+09,9E+09,9E+09,9E+09,9E+09,9E+09]];
CONST robtarget Target_275:=[[183.8051798365197, 88.45451328293996, 3.0],[0,0.924,0.383,0],[0,0,0,0],[9E+09,9E+09,9E+09,9E+09,9E+09,9E+09]];
CONST robtarget Target_276:=[[183.03981293819874, 90.30227233404878, 3.0],[0,0.924,0.383,0],[0,0,0,0],[9E+09,9E+09,9E+09,9E+09,9E+09,9E+09]];
CONST robtarget Target_277:=[[182.34741861920253, 92.16958432927314, 3.0],[0,0.924,0.383,0],[0,0,0,0],[9E+09,9E+09,9E+09,9E+09,9E+09,9E+09]];
CONST robtarget Target_278:=[[182.0863662497242, 94.15247405399052, 3.0],[0,0.924,0.383,0],[0,0,0,0],[9E+09,9E+09,9E+09,9E+09,9E+09,9E+09]];
CONST robtarget Target_279:=[[181.82531388024586, 96.1353637787079, 3.0],[0,0.924,0.383,0],[0,0,0,0],[9E+09,9E+09,9E+09,9E+09,9E+09,9E+09]];
CONST robtarget Target_280:=[[181.5642615107675, 98.11825350342525, 3.0],[0,0.924,0.383,0],[0,0,0,0],[9E+09,9E+09,9E+09,9E+09,9E+09,9E+09]];
CONST robtarget Target_281:=[[181.3032091412892, 100.10114322814263, 3.0],[0,0.924,0.383,0],[0,0,0,0],[9E+09,9E+09,9E+09,9E+09,9E+09,9E+09]];
CONST robtarget Target_282:=[[181.04215677181082, 102.08403295286001, 3.0],[0,0.924,0.383,0],[0,0,0,0],[9E+09,9E+09,9E+09,9E+09,9E+09,9E+09]];
CONST robtarget Target_283:=[[180.78110440233252, 104.0669226775774, 3.0],[0,0.924,0.383,0],[0,0,0,0],[9E+09,9E+09,9E+09,9E+09,9E+09,9E+09]];
CONST robtarget Target_284:=[[180.52005203285415, 106.04981240229475, 3.0],[0,0.924,0.383,0],[0,0,0,0],[9E+09,9E+09,9E+09,9E+09,9E+09,9E+09]];
CONST robtarget Target_285:=[[180.25899966337582, 108.03270212701213, 3.0],[0,0.924,0.383,0],[0,0,0,0],[9E+09,9E+09,9E+09,9E+09,9E+09,9E+09]];
CONST robtarget Target_286:=[[179.99794729389748, 110.01559185172951, 3.0],[0,0.924,0.383,0],[0,0,0,0],[9E+09,9E+09,9E+09,9E+09,9E+09,9E+09]];
CONST robtarget Target_287:=[[179.73689492441915, 111.99848157644689, 3.0],[0,0.924,0.383,0],[0,0,0,0],[9E+09,9E+09,9E+09,9E+09,9E+09,9E+09]];
CONST robtarget Target_288:=[[179.4758425549408, 113.98137130116424, 3.0],[0,0.924,0.383,0],[0,0,0,0],[9E+09,9E+09,9E+09,9E+09,9E+09,9E+09]];
CONST robtarget Target_289:=[[179.21479018546248, 115.96426102588163, 3.0],[0,0.924,0.383,0],[0,0,0,0],[9E+09,9E+09,9E+09,9E+09,9E+09,9E+09]];
CONST robtarget Target_290:=[[178.95373781598414, 117.94715075059901, 3.0],[0,0.924,0.383,0],[0,0,0,0],[9E+09,9E+09,9E+09,9E+09,9E+09,9E+09]];
CONST robtarget Target_291:=[[178.69268544650578, 119.93004047531639, 3.0],[0,0.924,0.383,0],[0,0,0,0],[9E+09,9E+09,9E+09,9E+09,9E+09,9E+09]];
CONST robtarget Target_292:=[[178.43163307702747, 121.91293020003377, 3.0],[0,0.924,0.383,0],[0,0,0,0],[9E+09,9E+09,9E+09,9E+09,9E+09,9E+09]];
CONST robtarget Target_293:=[[178.1705807075491, 123.89581992475114, 3.0],[0,0.924,0.383,0],[0,0,0,0],[9E+09,9E+09,9E+09,9E+09,9E+09,9E+09]];
CONST robtarget Target_294:=[[177.90952833807077, 125.8787096494685, 3.0],[0,0.924,0.383,0],[0,0,0,0],[9E+09,9E+09,9E+09,9E+09,9E+09,9E+09]];
CONST robtarget Target_295:=[[177.64847596859244, 127.86159937418589, 3.0],[0,0.924,0.383,0],[0,0,0,0],[9E+09,9E+09,9E+09,9E+09,9E+09,9E+09]];
CONST robtarget Target_296:=[[181.06836550903856, 132.02993779974042, 3.834673840456757],[0,0.924,0.383,0],[0,0,0,0],[9E+09,9E+09,9E+09,9E+09,9E+09,9E+09]];
CONST robtarget Target_297:=[[185.03327872645139, 136.5218676565748, 4.79293479499022],[0,0.924,0.383,0],[0,0,0,0],[9E+09,9E+09,9E+09,9E+09,9E+09,9E+09]];
CONST robtarget Target_298:=[[188.99819194386419, 141.01379751340923, 5.751195749523678],[0,0.924,0.383,0],[0,0,0,0],[9E+09,9E+09,9E+09,9E+09,9E+09,9E+09]];
CONST robtarget Target_299:=[[192.963105161277, 145.50572737024362, 6.709456704057136],[0,0.924,0.383,0],[0,0,0,0],[9E+09,9E+09,9E+09,9E+09,9E+09,9E+09]];
CONST robtarget Target_300:=[[196.92801837868984, 149.99765722707804, 7.667717658590593],[0,0.924,0.383,0],[0,0,0,0],[9E+09,9E+09,9E+09,9E+09,9E+09,9E+09]];
CONST robtarget Target_301:=[[200.89293159610264, 154.48958708391245, 8.625978613124056],[0,0.924,0.383,0],[0,0,0,0],[9E+09,9E+09,9E+09,9E+09,9E+09,9E+09]];
CONST robtarget Target_302:=[[204.85784481351544, 158.98151694074684, 9.584239567657514],[0,0.924,0.383,0],[0,0,0,0],[9E+09,9E+09,9E+09,9E+09,9E+09,9E+09]];
CONST robtarget Target_303:=[[208.8227580309283, 163.47344679758123, 10.542500522190972],[0,0.924,0.383,0],[0,0,0,0],[9E+09,9E+09,9E+09,9E+09,9E+09,9E+09]];
CONST robtarget Target_304:=[[212.7876712483411, 167.96537665441565, 11.50076147672443],[0,0.924,0.383,0],[0,0,0,0],[9E+09,9E+09,9E+09,9E+09,9E+09,9E+09]];
CONST robtarget Target_305:=[[216.7525844657539, 172.45730651125007, 12.459022431257889],[0,0.924,0.383,0],[0,0,0,0],[9E+09,9E+09,9E+09,9E+09,9E+09,9E+09]];
CONST robtarget Target_306:=[[220.71749768316673, 176.94923636808446, 13.417283385791347],[0,0.924,0.383,0],[0,0,0,0],[9E+09,9E+09,9E+09,9E+09,9E+09,9E+09]];
CONST robtarget Target_307:=[[224.68241090057955, 181.44116622491885, 14.375544340324808],[0,0.924,0.383,0],[0,0,0,0],[9E+09,9E+09,9E+09,9E+09,9E+09,9E+09]];
CONST robtarget Target_308:=[[228.64732411799235, 185.93309608175326, 15.333805294858262],[0,0.924,0.383,0],[0,0,0,0],[9E+09,9E+09,9E+09,9E+09,9E+09,9E+09]];
CONST robtarget Target_309:=[[232.61223733540515, 190.42502593858765, 16.29206624939172],[0,0.924,0.383,0],[0,0,0,0],[9E+09,9E+09,9E+09,9E+09,9E+09,9E+09]];
CONST robtarget Target_310:=[[236.57715055281798, 194.91695579542204, 17.25032720392518],[0,0.924,0.383,0],[0,0,0,0],[9E+09,9E+09,9E+09,9E+09,9E+09,9E+09]];
CONST robtarget Target_311:=[[240.5420637702308, 199.40888565225646, 18.20858815845864],[0,0.924,0.383,0],[0,0,0,0],[9E+09,9E+09,9E+09,9E+09,9E+09,9E+09]];
CONST robtarget Target_312:=[[244.5069769876436, 203.90081550909088, 19.166849112992097],[0,0.924,0.383,0],[0,0,0,0],[9E+09,9E+09,9E+09,9E+09,9E+09,9E+09]];
CONST robtarget Target_313:=[[248.47189020505644, 208.39274536592526, 20.125110067525558],[0,0.924,0.383,0],[0,0,0,0],[9E+09,9E+09,9E+09,9E+09,9E+09,9E+09]];
CONST robtarget Target_314:=[[252.43680342246927, 212.88467522275965, 21.083371022059016],[0,0.924,0.383,0],[0,0,0,0],[9E+09,9E+09,9E+09,9E+09,9E+09,9E+09]];
CONST robtarget Target_315:=[[256.40171663988207, 217.37660507959407, 22.041631976592477],[0,0.924,0.383,0],[0,0,0,0],[9E+09,9E+09,9E+09,9E+09,9E+09,9E+09]];
CONST robtarget Target_316:=[[260.36662985729487, 221.8685349364285, 22.999892931125935],[0,0.924,0.383,0],[0,0,0,0],[9E+09,9E+09,9E+09,9E+09,9E+09,9E+09]];
CONST robtarget Target_317:=[[264.3315430747077, 226.36046479326288, 23.958153885659392],[0,0.924,0.383,0],[0,0,0,0],[9E+09,9E+09,9E+09,9E+09,9E+09,9E+09]];
CONST robtarget Target_318:=[[268.2964562921205, 230.85239465009727, 24.91641484019285],[0,0.924,0.383,0],[0,0,0,0],[9E+09,9E+09,9E+09,9E+09,9E+09,9E+09]];
CONST robtarget Target_319:=[[272.2613695095333, 235.34432450693168, 25.87467579472631],[0,0.924,0.383,0],[0,0,0,0],[9E+09,9E+09,9E+09,9E+09,9E+09,9E+09]];
CONST robtarget Target_320:=[[276.2262827269462, 239.8362543637661, 26.83293674925977],[0,0.924,0.383,0],[0,0,0,0],[9E+09,9E+09,9E+09,9E+09,9E+09,9E+09]];
CONST robtarget Target_321:=[[280.191195944359, 244.3281842206005, 27.791197703793227],[0,0.924,0.383,0],[0,0,0,0],[9E+09,9E+09,9E+09,9E+09,9E+09,9E+09]];
CONST robtarget Target_322:=[[284.1561091617718, 248.82011407743488, 28.749458658326684],[0,0.924,0.383,0],[0,0,0,0],[9E+09,9E+09,9E+09,9E+09,9E+09,9E+09]];
CONST robtarget Target_323:=[[288.12102237918464, 253.3120439342693, 29.707719612860142],[0,0.924,0.383,0],[0,0,0,0],[9E+09,9E+09,9E+09,9E+09,9E+09,9E+09]];
CONST robtarget Target_324:=[[292.08593559659744, 257.8039737911037, 30.6659805673936],[0,0.924,0.383,0],[0,0,0,0],[9E+09,9E+09,9E+09,9E+09,9E+09,9E+09]];
CONST robtarget Target_325:=[[296.05084881401024, 262.2959036479381, 31.62424152192706],[0,0.924,0.383,0],[0,0,0,0],[9E+09,9E+09,9E+09,9E+09,9E+09,9E+09]];
CONST robtarget Target_326:=[[300.01576203142304, 266.7878335047725, 32.58250247646052],[0,0.924,0.383,0],[0,0,0,0],[9E+09,9E+09,9E+09,9E+09,9E+09,9E+09]];
CONST robtarget Target_327:=[[303.9806752488359, 271.2797633616069, 33.54076343099398],[0,0.924,0.383,0],[0,0,0,0],[9E+09,9E+09,9E+09,9E+09,9E+09,9E+09]];
CONST robtarget Target_328:=[[307.9455884662487, 275.7716932184413, 34.499024385527434],[0,0.924,0.383,0],[0,0,0,0],[9E+09,9E+09,9E+09,9E+09,9E+09,9E+09]];
CONST robtarget Target_329:=[[311.9105016836615, 280.2636230752757, 35.45728534006089],[0,0.924,0.383,0],[0,0,0,0],[9E+09,9E+09,9E+09,9E+09,9E+09,9E+09]];
CONST robtarget Target_330:=[[312.9864568453687, 286.0019616969677, 33.73458862269497],[0,0.924,0.383,0],[0,0,0,0],[9E+09,9E+09,9E+09,9E+09,9E+09,9E+09]];
CONST robtarget Target_331:=[[313.6346545148824, 291.9248515226658, 31.614932272030238],[0,0.924,0.383,0],[0,0,0,0],[9E+09,9E+09,9E+09,9E+09,9E+09,9E+09]];
CONST robtarget Target_332:=[[314.2828521843961, 297.84774134836385, 29.4952759213655],[0,0.924,0.383,0],[0,0,0,0],[9E+09,9E+09,9E+09,9E+09,9E+09,9E+09]];
CONST robtarget Target_333:=[[314.93104985390977, 303.7706311740619, 27.375619570700763],[0,0.924,0.383,0],[0,0,0,0],[9E+09,9E+09,9E+09,9E+09,9E+09,9E+09]];
CONST robtarget Target_334:=[[315.5792475234235, 309.69352099976004, 25.25596322003603],[0,0.924,0.383,0],[0,0,0,0],[9E+09,9E+09,9E+09,9E+09,9E+09,9E+09]];
CONST robtarget Target_335:=[[316.2274451929372, 315.6164108254581, 23.136306869371293],[0,0.924,0.383,0],[0,0,0,0],[9E+09,9E+09,9E+09,9E+09,9E+09,9E+09]];
CONST robtarget Target_336:=[[316.8756428624509, 321.53930065115617, 21.016650518706555],[0,0.924,0.383,0],[0,0,0,0],[9E+09,9E+09,9E+09,9E+09,9E+09,9E+09]];
CONST robtarget Target_337:=[[317.5238405319646, 327.46219047685423, 18.896994168041818],[0,0.924,0.383,0],[0,0,0,0],[9E+09,9E+09,9E+09,9E+09,9E+09,9E+09]];
CONST robtarget Target_338:=[[318.17203820147824, 333.3850803025523, 16.77733781737708],[0,0.924,0.383,0],[0,0,0,0],[9E+09,9E+09,9E+09,9E+09,9E+09,9E+09]];
CONST robtarget Target_339:=[[318.82023587099195, 339.3079701282504, 14.657681466712347],[0,0.924,0.383,0],[0,0,0,0],[9E+09,9E+09,9E+09,9E+09,9E+09,9E+09]];
CONST robtarget Target_340:=[[319.46843354050566, 345.2308599539484, 12.53802511604761],[0,0.924,0.383,0],[0,0,0,0],[9E+09,9E+09,9E+09,9E+09,9E+09,9E+09]];
CONST robtarget Target_341:=[[320.11663121001936, 351.15374977964655, 10.418368765382873],[0,0.924,0.383,0],[0,0,0,0],[9E+09,9E+09,9E+09,9E+09,9E+09,9E+09]];
CONST robtarget Target_342:=[[320.76482887953307, 357.0766396053446, 8.298712414718139],[0,0.924,0.383,0],[0,0,0,0],[9E+09,9E+09,9E+09,9E+09,9E+09,9E+09]];
CONST robtarget Target_343:=[[321.4130265490468, 362.9995294310427, 6.179056064053401],[0,0.924,0.383,0],[0,0,0,0],[9E+09,9E+09,9E+09,9E+09,9E+09,9E+09]];
CONST robtarget Target_344:=[[322.0612242185605, 368.92241925674074, 4.059399713388665],[0,0.924,0.383,0],[0,0,0,0],[9E+09,9E+09,9E+09,9E+09,9E+09,9E+09]];
CONST robtarget Target_345:=[[322.7680301867677, 370.95841390483486, 3.0],[0,0.924,0.383,0],[0,0,0,0],[9E+09,9E+09,9E+09,9E+09,9E+09,9E+09]];
CONST robtarget Target_346:=[[323.53339708508867, 369.11065485372603, 3.0],[0,0.924,0.383,0],[0,0,0,0],[9E+09,9E+09,9E+09,9E+09,9E+09,9E+09]];
CONST robtarget Target_347:=[[324.2987639834096, 367.2628958026172, 3.0],[0,0.924,0.383,0],[0,0,0,0],[9E+09,9E+09,9E+09,9E+09,9E+09,9E+09]];
CONST robtarget Target_348:=[[325.06413088173053, 365.4151367515084, 3.0],[0,0.924,0.383,0],[0,0,0,0],[9E+09,9E+09,9E+09,9E+09,9E+09,9E+09]];
CONST robtarget Target_349:=[[325.8294977800515, 363.56737770039956, 3.0],[0,0.924,0.383,0],[0,0,0,0],[9E+09,9E+09,9E+09,9E+09,9E+09,9E+09]];
CONST robtarget Target_350:=[[326.59486467837246, 361.71961864929074, 3.0],[0,0.924,0.383,0],[0,0,0,0],[9E+09,9E+09,9E+09,9E+09,9E+09,9E+09]];
CONST robtarget Target_351:=[[327.3602315766934, 359.8718595981819, 3.0],[0,0.924,0.383,0],[0,0,0,0],[9E+09,9E+09,9E+09,9E+09,9E+09,9E+09]];
CONST robtarget Target_352:=[[328.1255984750144, 358.0241005470731, 3.0],[0,0.924,0.383,0],[0,0,0,0],[9E+09,9E+09,9E+09,9E+09,9E+09,9E+09]];
CONST robtarget Target_353:=[[328.8909653733353, 356.1763414959643, 3.0],[0,0.924,0.383,0],[0,0,0,0],[9E+09,9E+09,9E+09,9E+09,9E+09,9E+09]];
CONST robtarget Target_354:=[[329.82063151330306, 354.42344065431575, 3.0],[0,0.924,0.383,0],[0,0,0,0],[9E+09,9E+09,9E+09,9E+09,9E+09,9E+09]];
CONST robtarget Target_355:=[[331.03815431448527, 352.836733930122, 3.0],[0,0.924,0.383,0],[0,0,0,0],[9E+09,9E+09,9E+09,9E+09,9E+09,9E+09]];
CONST robtarget Target_356:=[[332.25567711566737, 351.2500272059283, 3.0],[0,0.924,0.383,0],[0,0,0,0],[9E+09,9E+09,9E+09,9E+09,9E+09,9E+09]];
CONST robtarget Target_357:=[[333.4731999168496, 349.66332048173456, 3.0],[0,0.924,0.383,0],[0,0,0,0],[9E+09,9E+09,9E+09,9E+09,9E+09,9E+09]];
CONST robtarget Target_358:=[[334.6907227180317, 348.0766137575409, 3.0],[0,0.924,0.383,0],[0,0,0,0],[9E+09,9E+09,9E+09,9E+09,9E+09,9E+09]];
CONST robtarget Target_359:=[[335.9082455192139, 346.48990703334715, 3.0],[0,0.924,0.383,0],[0,0,0,0],[9E+09,9E+09,9E+09,9E+09,9E+09,9E+09]];
CONST robtarget Target_360:=[[337.12576832039605, 344.9032003091535, 3.0],[0,0.924,0.383,0],[0,0,0,0],[9E+09,9E+09,9E+09,9E+09,9E+09,9E+09]];
CONST robtarget Target_361:=[[338.3432911215782, 343.31649358495974, 3.0],[0,0.924,0.383,0],[0,0,0,0],[9E+09,9E+09,9E+09,9E+09,9E+09,9E+09]];
CONST robtarget Target_362:=[[339.56081392276036, 341.729786860766, 3.0],[0,0.924,0.383,0],[0,0,0,0],[9E+09,9E+09,9E+09,9E+09,9E+09,9E+09]];
CONST robtarget Target_363:=[[340.8619698634277, 340.2267132760575, 3.0],[0,0.924,0.383,0],[0,0,0,0],[9E+09,9E+09,9E+09,9E+09,9E+09,9E+09]];
CONST robtarget Target_364:=[[342.44867658762143, 339.00919047487537, 3.0],[0,0.924,0.383,0],[0,0,0,0],[9E+09,9E+09,9E+09,9E+09,9E+09,9E+09]];
CONST robtarget Target_365:=[[344.0353833118151, 337.79166767369315, 3.0],[0,0.924,0.383,0],[0,0,0,0],[9E+09,9E+09,9E+09,9E+09,9E+09,9E+09]];
CONST robtarget Target_366:=[[345.62209003600884, 336.57414487251106, 3.0],[0,0.924,0.383,0],[0,0,0,0],[9E+09,9E+09,9E+09,9E+09,9E+09,9E+09]];
CONST robtarget Target_367:=[[347.2087967602025, 335.35662207132884, 3.0],[0,0.924,0.383,0],[0,0,0,0],[9E+09,9E+09,9E+09,9E+09,9E+09,9E+09]];
CONST robtarget Target_368:=[[348.79550348439625, 334.13909927014674, 3.0],[0,0.924,0.383,0],[0,0,0,0],[9E+09,9E+09,9E+09,9E+09,9E+09,9E+09]];
CONST robtarget Target_369:=[[350.38221020859, 332.92157646896453, 3.0],[0,0.924,0.383,0],[0,0,0,0],[9E+09,9E+09,9E+09,9E+09,9E+09,9E+09]];
CONST robtarget Target_370:=[[351.9689169327837, 331.70405366778243, 3.0],[0,0.924,0.383,0],[0,0,0,0],[9E+09,9E+09,9E+09,9E+09,9E+09,9E+09]];
CONST robtarget Target_371:=[[353.5556236569774, 330.4865308666002, 3.0],[0,0.924,0.383,0],[0,0,0,0],[9E+09,9E+09,9E+09,9E+09,9E+09,9E+09]];
CONST robtarget Target_372:=[[355.16574723359184, 329.30956724439034, 3.0],[0,0.924,0.383,0],[0,0,0,0],[9E+09,9E+09,9E+09,9E+09,9E+09,9E+09]];
CONST robtarget Target_373:=[[357.01350628470067, 328.5442003460694, 3.0],[0,0.924,0.383,0],[0,0,0,0],[9E+09,9E+09,9E+09,9E+09,9E+09,9E+09]];
CONST robtarget Target_374:=[[358.8612653358095, 327.7788334477484, 3.0],[0,0.924,0.383,0],[0,0,0,0],[9E+09,9E+09,9E+09,9E+09,9E+09,9E+09]];
CONST robtarget Target_375:=[[360.7090243869183, 327.01346654942745, 3.0],[0,0.924,0.383,0],[0,0,0,0],[9E+09,9E+09,9E+09,9E+09,9E+09,9E+09]];
CONST robtarget Target_376:=[[362.55678343802714, 326.2480996511065, 3.0],[0,0.924,0.383,0],[0,0,0,0],[9E+09,9E+09,9E+09,9E+09,9E+09,9E+09]];
CONST robtarget Target_377:=[[364.40454248913596, 325.4827327527855, 3.0],[0,0.924,0.383,0],[0,0,0,0],[9E+09,9E+09,9E+09,9E+09,9E+09,9E+09]];
CONST robtarget Target_378:=[[366.2523015402448, 324.71736585446456, 3.0],[0,0.924,0.383,0],[0,0,0,0],[9E+09,9E+09,9E+09,9E+09,9E+09,9E+09]];
CONST robtarget Target_379:=[[368.1000605913536, 323.9519989561436, 3.0],[0,0.924,0.383,0],[0,0,0,0],[9E+09,9E+09,9E+09,9E+09,9E+09,9E+09]];
CONST robtarget Target_380:=[[369.94781964246243, 323.18663205782264, 3.0],[0,0.924,0.383,0],[0,0,0,0],[9E+09,9E+09,9E+09,9E+09,9E+09,9E+09]];
CONST robtarget Target_381:=[[371.7955786935713, 322.42126515950173, 3.0],[0,0.924,0.383,0],[0,0,0,0],[9E+09,9E+09,9E+09,9E+09,9E+09,9E+09]];
CONST robtarget Target_382:=[[373.7720994593575, 322.1364435122066, 3.0],[0,0.924,0.383,0],[0,0,0,0],[9E+09,9E+09,9E+09,9E+09,9E+09,9E+09]];
CONST robtarget Target_383:=[[375.75498918407493, 321.87539114272823, 3.0],[0,0.924,0.383,0],[0,0,0,0],[9E+09,9E+09,9E+09,9E+09,9E+09,9E+09]];
CONST robtarget Target_384:=[[377.73787890879225, 321.61433877324987, 3.0],[0,0.924,0.383,0],[0,0,0,0],[9E+09,9E+09,9E+09,9E+09,9E+09,9E+09]];
CONST robtarget Target_385:=[[379.72076863350964, 321.35328640377156, 3.0],[0,0.924,0.383,0],[0,0,0,0],[9E+09,9E+09,9E+09,9E+09,9E+09,9E+09]];
CONST robtarget Target_386:=[[381.703658358227, 321.09223403429326, 3.0],[0,0.924,0.383,0],[0,0,0,0],[9E+09,9E+09,9E+09,9E+09,9E+09,9E+09]];
CONST robtarget Target_387:=[[383.6865480829444, 320.8311816648149, 3.0],[0,0.924,0.383,0],[0,0,0,0],[9E+09,9E+09,9E+09,9E+09,9E+09,9E+09]];
CONST robtarget Target_388:=[[385.6694378076618, 320.5701292953365, 3.0],[0,0.924,0.383,0],[0,0,0,0],[9E+09,9E+09,9E+09,9E+09,9E+09,9E+09]];
CONST robtarget Target_389:=[[387.65232753237916, 320.3090769258582, 3.0],[0,0.924,0.383,0],[0,0,0,0],[9E+09,9E+09,9E+09,9E+09,9E+09,9E+09]];
CONST robtarget Target_390:=[[389.63521725709654, 320.04802455637986, 3.0],[0,0.924,0.383,0],[0,0,0,0],[9E+09,9E+09,9E+09,9E+09,9E+09,9E+09]];
CONST robtarget Target_391:=[[391.61810698181387, 319.78697218690155, 3.0],[0,0.924,0.383,0],[0,0,0,0],[9E+09,9E+09,9E+09,9E+09,9E+09,9E+09]];
CONST robtarget Target_392:=[[393.6009967065313, 319.5259198174232, 3.0],[0,0.924,0.383,0],[0,0,0,0],[9E+09,9E+09,9E+09,9E+09,9E+09,9E+09]];
CONST robtarget Target_393:=[[395.58388643124863, 319.2648674479449, 3.0],[0,0.924,0.383,0],[0,0,0,0],[9E+09,9E+09,9E+09,9E+09,9E+09,9E+09]];
CONST robtarget Target_394:=[[397.566776155966, 319.0038150784665, 3.0],[0,0.924,0.383,0],[0,0,0,0],[9E+09,9E+09,9E+09,9E+09,9E+09,9E+09]];
CONST robtarget Target_395:=[[399.5496658806834, 318.74276270898815, 3.0],[0,0.924,0.383,0],[0,0,0,0],[9E+09,9E+09,9E+09,9E+09,9E+09,9E+09]];
CONST robtarget Target_396:=[[401.5325556054008, 318.48171033950985, 3.0],[0,0.924,0.383,0],[0,0,0,0],[9E+09,9E+09,9E+09,9E+09,9E+09,9E+09]];
CONST robtarget Target_397:=[[403.51544533011815, 318.22065797003154, 3.0],[0,0.924,0.383,0],[0,0,0,0],[9E+09,9E+09,9E+09,9E+09,9E+09,9E+09]];
CONST robtarget Target_398:=[[405.4983350548355, 317.9596056005532, 3.0],[0,0.924,0.383,0],[0,0,0,0],[9E+09,9E+09,9E+09,9E+09,9E+09,9E+09]];
CONST robtarget Target_399:=[[407.4812247795529, 317.6985532310748, 3.0],[0,0.924,0.383,0],[0,0,0,0],[9E+09,9E+09,9E+09,9E+09,9E+09,9E+09]];
CONST robtarget Target_400:=[[409.372333559719, 317.09496972064926, 3.0],[0,0.924,0.383,0],[0,0,0,0],[9E+09,9E+09,9E+09,9E+09,9E+09,9E+09]];
CONST robtarget Target_401:=[[411.2200926108278, 316.3296028223283, 3.0],[0,0.924,0.383,0],[0,0,0,0],[9E+09,9E+09,9E+09,9E+09,9E+09,9E+09]];
CONST robtarget Target_402:=[[413.06785166193663, 315.56423592400733, 3.0],[0,0.924,0.383,0],[0,0,0,0],[9E+09,9E+09,9E+09,9E+09,9E+09,9E+09]];
CONST robtarget Target_403:=[[414.91561071304545, 314.7988690256864, 3.0],[0,0.924,0.383,0],[0,0,0,0],[9E+09,9E+09,9E+09,9E+09,9E+09,9E+09]];
CONST robtarget Target_404:=[[416.7633697641543, 314.03350212736547, 3.0],[0,0.924,0.383,0],[0,0,0,0],[9E+09,9E+09,9E+09,9E+09,9E+09,9E+09]];
CONST robtarget Target_405:=[[418.6111288152631, 313.2681352290445, 3.0],[0,0.924,0.383,0],[0,0,0,0],[9E+09,9E+09,9E+09,9E+09,9E+09,9E+09]];
CONST robtarget Target_406:=[[420.45888786637187, 312.50276833072354, 3.0],[0,0.924,0.383,0],[0,0,0,0],[9E+09,9E+09,9E+09,9E+09,9E+09,9E+09]];
CONST robtarget Target_407:=[[422.3066469174807, 311.7374014324026, 3.0],[0,0.924,0.383,0],[0,0,0,0],[9E+09,9E+09,9E+09,9E+09,9E+09,9E+09]];
CONST robtarget Target_408:=[[424.1544059685895, 310.9720345340817, 3.0],[0,0.924,0.383,0],[0,0,0,0],[9E+09,9E+09,9E+09,9E+09,9E+09,9E+09]];
CONST robtarget Target_409:=[[425.8605786423034, 309.9614328314578, 3.0],[0,0.924,0.383,0],[0,0,0,0],[9E+09,9E+09,9E+09,9E+09,9E+09,9E+09]];
CONST robtarget Target_410:=[[427.4472853664971, 308.74391003027563, 3.0],[0,0.924,0.383,0],[0,0,0,0],[9E+09,9E+09,9E+09,9E+09,9E+09,9E+09]];
CONST robtarget Target_411:=[[429.03399209069084, 307.5263872290935, 3.0],[0,0.924,0.383,0],[0,0,0,0],[9E+09,9E+09,9E+09,9E+09,9E+09,9E+09]];
CONST robtarget Target_412:=[[430.6206988148846, 306.3088644279113, 3.0],[0,0.924,0.383,0],[0,0,0,0],[9E+09,9E+09,9E+09,9E+09,9E+09,9E+09]];
CONST robtarget Target_413:=[[432.20740553907825, 305.09134162672916, 3.0],[0,0.924,0.383,0],[0,0,0,0],[9E+09,9E+09,9E+09,9E+09,9E+09,9E+09]];
CONST robtarget Target_414:=[[433.794112263272, 303.873818825547, 3.0],[0,0.924,0.383,0],[0,0,0,0],[9E+09,9E+09,9E+09,9E+09,9E+09,9E+09]];
CONST robtarget Target_415:=[[435.38081898746566, 302.65629602436485, 3.0],[0,0.924,0.383,0],[0,0,0,0],[9E+09,9E+09,9E+09,9E+09,9E+09,9E+09]];
CONST robtarget Target_416:=[[436.9675257116594, 301.4387732231827, 3.0],[0,0.924,0.383,0],[0,0,0,0],[9E+09,9E+09,9E+09,9E+09,9E+09,9E+09]];
CONST robtarget Target_417:=[[438.5542324358531, 300.22125042200054, 3.0],[0,0.924,0.383,0],[0,0,0,0],[9E+09,9E+09,9E+09,9E+09,9E+09,9E+09]];
CONST robtarget Target_418:=[[439.99122237918164, 298.85401083995316, 3.0],[0,0.924,0.383,0],[0,0,0,0],[9E+09,9E+09,9E+09,9E+09,9E+09,9E+09]];
CONST robtarget Target_419:=[[441.20874518036385, 297.26730411575943, 3.0],[0,0.924,0.383,0],[0,0,0,0],[9E+09,9E+09,9E+09,9E+09,9E+09,9E+09]];
CONST robtarget Target_420:=[[442.42626798154595, 295.68059739156575, 3.0],[0,0.924,0.383,0],[0,0,0,0],[9E+09,9E+09,9E+09,9E+09,9E+09,9E+09]];
CONST robtarget Target_421:=[[443.64379078272816, 294.093890667372, 3.0],[0,0.924,0.383,0],[0,0,0,0],[9E+09,9E+09,9E+09,9E+09,9E+09,9E+09]];
CONST robtarget Target_422:=[[444.8613135839103, 292.5071839431783, 3.0],[0,0.924,0.383,0],[0,0,0,0],[9E+09,9E+09,9E+09,9E+09,9E+09,9E+09]];
CONST robtarget Target_423:=[[446.0788363850925, 290.92047721898456, 3.0],[0,0.924,0.383,0],[0,0,0,0],[9E+09,9E+09,9E+09,9E+09,9E+09,9E+09]];
CONST robtarget Target_424:=[[447.29635918627463, 289.3337704947908, 3.0],[0,0.924,0.383,0],[0,0,0,0],[9E+09,9E+09,9E+09,9E+09,9E+09,9E+09]];
CONST robtarget Target_425:=[[448.5138819874568, 287.74706377059715, 3.0],[0,0.924,0.383,0],[0,0,0,0],[9E+09,9E+09,9E+09,9E+09,9E+09,9E+09]];
CONST robtarget Target_426:=[[449.731404788639, 286.1603570464034, 3.0],[0,0.924,0.383,0],[0,0,0,0],[9E+09,9E+09,9E+09,9E+09,9E+09,9E+09]];
CONST robtarget Target_427:=[[451.18472366129754, 286.50113975921056, 3.50982105029793],[0,0.924,0.383,0],[0,0,0,0],[9E+09,9E+09,9E+09,9E+09,9E+09,9E+09]];
CONST robtarget Target_428:=[[453.27978720342554, 292.0877947374402, 5.407175571206118],[0,0.924,0.383,0],[0,0,0,0],[9E+09,9E+09,9E+09,9E+09,9E+09,9E+09]];
CONST robtarget Target_429:=[[455.37485074555354, 297.6744497156699, 7.304530092114305],[0,0.924,0.383,0],[0,0,0,0],[9E+09,9E+09,9E+09,9E+09,9E+09,9E+09]];
CONST robtarget Target_430:=[[457.4699142876815, 303.2611046938996, 9.201884613022493],[0,0.924,0.383,0],[0,0,0,0],[9E+09,9E+09,9E+09,9E+09,9E+09,9E+09]];
CONST robtarget Target_431:=[[459.56497782980944, 308.8477596721292, 11.09923913393068],[0,0.924,0.383,0],[0,0,0,0],[9E+09,9E+09,9E+09,9E+09,9E+09,9E+09]];
CONST robtarget Target_432:=[[461.66004137193744, 314.4344146503589, 12.996593654838868],[0,0.924,0.383,0],[0,0,0,0],[9E+09,9E+09,9E+09,9E+09,9E+09,9E+09]];
CONST robtarget Target_433:=[[463.7551049140654, 320.0210696285885, 14.893948175747056],[0,0.924,0.383,0],[0,0,0,0],[9E+09,9E+09,9E+09,9E+09,9E+09,9E+09]];
CONST robtarget Target_434:=[[465.8501684561934, 325.60772460681824, 16.791302696655244],[0,0.924,0.383,0],[0,0,0,0],[9E+09,9E+09,9E+09,9E+09,9E+09,9E+09]];
CONST robtarget Target_435:=[[467.94523199832133, 331.1943795850479, 18.688657217563442],[0,0.924,0.383,0],[0,0,0,0],[9E+09,9E+09,9E+09,9E+09,9E+09,9E+09]];
CONST robtarget Target_436:=[[470.04029554044934, 336.78103456327756, 20.58601173847163],[0,0.924,0.383,0],[0,0,0,0],[9E+09,9E+09,9E+09,9E+09,9E+09,9E+09]];
CONST robtarget Target_437:=[[472.1353590825773, 342.3676895415072, 22.483366259379817],[0,0.924,0.383,0],[0,0,0,0],[9E+09,9E+09,9E+09,9E+09,9E+09,9E+09]];
CONST robtarget Target_438:=[[474.2304226247053, 347.9543445197369, 24.380720780288005],[0,0.924,0.383,0],[0,0,0,0],[9E+09,9E+09,9E+09,9E+09,9E+09,9E+09]];
CONST robtarget Target_439:=[[476.32548616683323, 353.5409994979666, 26.278075301196193],[0,0.924,0.383,0],[0,0,0,0],[9E+09,9E+09,9E+09,9E+09,9E+09,9E+09]];
CONST robtarget Target_440:=[[478.42054970896123, 359.1276544761962, 28.17542982210438],[0,0.924,0.383,0],[0,0,0,0],[9E+09,9E+09,9E+09,9E+09,9E+09,9E+09]];
CONST robtarget Target_441:=[[480.5156132510892, 364.7143094544259, 30.072784343012568],[0,0.924,0.383,0],[0,0,0,0],[9E+09,9E+09,9E+09,9E+09,9E+09,9E+09]];
CONST robtarget Target_442:=[[482.6106767932172, 370.3009644326555, 31.970138863920756],[0,0.924,0.383,0],[0,0,0,0],[9E+09,9E+09,9E+09,9E+09,9E+09,9E+09]];
CONST robtarget Target_443:=[[484.7057403353451, 375.88761941088524, 33.86749338482895],[0,0.924,0.383,0],[0,0,0,0],[9E+09,9E+09,9E+09,9E+09,9E+09,9E+09]];
CONST robtarget Target_444:=[[486.8008038774731, 381.47427438911484, 35.76484790573713],[0,0.924,0.383,0],[0,0,0,0],[9E+09,9E+09,9E+09,9E+09,9E+09,9E+09]];
CONST robtarget Target_445:=[[488.8958674196011, 387.06092936734456, 37.66220242664532],[0,0.924,0.383,0],[0,0,0,0],[9E+09,9E+09,9E+09,9E+09,9E+09,9E+09]];
CONST robtarget Target_446:=[[490.9909309617291, 392.6475843455742, 39.5595569475535],[0,0.924,0.383,0],[0,0,0,0],[9E+09,9E+09,9E+09,9E+09,9E+09,9E+09]];
CONST robtarget Target_447:=[[493.085994503857, 398.2342393238039, 41.456911468461705],[0,0.924,0.383,0],[0,0,0,0],[9E+09,9E+09,9E+09,9E+09,9E+09,9E+09]];
CONST robtarget Target_448:=[[495.181058045985, 403.8208943020336, 43.35426598936989],[0,0.924,0.383,0],[0,0,0,0],[9E+09,9E+09,9E+09,9E+09,9E+09,9E+09]];
CONST robtarget Target_449:=[[497.27612158811297, 409.4075492802632, 45.25162051027807],[0,0.924,0.383,0],[0,0,0,0],[9E+09,9E+09,9E+09,9E+09,9E+09,9E+09]];
CONST robtarget Target_450:=[[499.371185130241, 414.9942042584929, 47.14897503118626],[0,0.924,0.383,0],[0,0,0,0],[9E+09,9E+09,9E+09,9E+09,9E+09,9E+09]];
CONST robtarget Target_451:=[[501.4662486723689, 420.5808592367225, 49.04632955209445],[0,0.924,0.383,0],[0,0,0,0],[9E+09,9E+09,9E+09,9E+09,9E+09,9E+09]];
CONST robtarget Target_452:=[[503.56131221449687, 426.16751421495223, 50.943684073002636],[0,0.924,0.383,0],[0,0,0,0],[9E+09,9E+09,9E+09,9E+09,9E+09,9E+09]];
CONST robtarget Target_453:=[[505.65637575662487, 431.7541691931819, 52.84103859391083],[0,0.924,0.383,0],[0,0,0,0],[9E+09,9E+09,9E+09,9E+09,9E+09,9E+09]];
CONST robtarget Target_454:=[[507.75143929875287, 437.34082417141155, 54.73839311481902],[0,0.924,0.383,0],[0,0,0,0],[9E+09,9E+09,9E+09,9E+09,9E+09,9E+09]];
CONST robtarget Target_455:=[[509.8465028408808, 442.9274791496412, 56.635747635727206],[0,0.924,0.383,0],[0,0,0,0],[9E+09,9E+09,9E+09,9E+09,9E+09,9E+09]];
CONST robtarget Target_456:=[[511.94156638300876, 448.5141341278709, 58.533102156635394],[0,0.924,0.383,0],[0,0,0,0],[9E+09,9E+09,9E+09,9E+09,9E+09,9E+09]];
CONST robtarget Target_457:=[[514.0366299251368, 454.10078910610054, 60.43045667754358],[0,0.924,0.383,0],[0,0,0,0],[9E+09,9E+09,9E+09,9E+09,9E+09,9E+09]];
CONST robtarget Target_458:=[[516.1316934672648, 459.6874440843302, 62.32781119845177],[0,0.924,0.383,0],[0,0,0,0],[9E+09,9E+09,9E+09,9E+09,9E+09,9E+09]];
CONST robtarget Target_459:=[[518.2267570093927, 465.27409906255986, 64.22516571935995],[0,0.924,0.383,0],[0,0,0,0],[9E+09,9E+09,9E+09,9E+09,9E+09,9E+09]];
CONST robtarget Target_460:=[[520.3218205515207, 470.8607540407895, 66.12252024026814],[0,0.924,0.383,0],[0,0,0,0],[9E+09,9E+09,9E+09,9E+09,9E+09,9E+09]];
CONST robtarget Target_461:=[[522.4168840936486, 476.44740901901923, 68.01987476117634],[0,0.924,0.383,0],[0,0,0,0],[9E+09,9E+09,9E+09,9E+09,9E+09,9E+09]];
CONST robtarget Target_462:=[[524.5119476357766, 482.0340639972489, 69.91722928208452],[0,0.924,0.383,0],[0,0,0,0],[9E+09,9E+09,9E+09,9E+09,9E+09,9E+09]];
CONST robtarget Target_463:=[[526.6070111779046, 487.62071897547855, 71.8145838029927],[0,0.924,0.383,0],[0,0,0,0],[9E+09,9E+09,9E+09,9E+09,9E+09,9E+09]];
CONST robtarget Target_464:=[[528.7020747200326, 493.2073739537082, 73.7119383239009],[0,0.924,0.383,0],[0,0,0,0],[9E+09,9E+09,9E+09,9E+09,9E+09,9E+09]];
CONST robtarget Target_465:=[[530.7971382621606, 498.7940289319379, 75.60929284480909],[0,0.924,0.383,0],[0,0,0,0],[9E+09,9E+09,9E+09,9E+09,9E+09,9E+09]];
CONST robtarget Target_466:=[[532.8922018042886, 504.38068391016753, 77.50664736571728],[0,0.924,0.383,0],[0,0,0,0],[9E+09,9E+09,9E+09,9E+09,9E+09,9E+09]];
CONST robtarget Target_467:=[[534.9872653464165, 509.9673388883972, 79.40400188662547],[0,0.924,0.383,0],[0,0,0,0],[9E+09,9E+09,9E+09,9E+09,9E+09,9E+09]];
CONST robtarget Target_468:=[[537.0823288885445, 515.5539938666269, 81.30135640753366],[0,0.924,0.383,0],[0,0,0,0],[9E+09,9E+09,9E+09,9E+09,9E+09,9E+09]];
CONST robtarget Target_469:=[[539.1773924306724, 521.1406488448565, 83.19871092844184],[0,0.924,0.383,0],[0,0,0,0],[9E+09,9E+09,9E+09,9E+09,9E+09,9E+09]];
CONST robtarget Target_470:=[[541.2724559728003, 526.7273038230862, 85.09606544935004],[0,0.924,0.383,0],[0,0,0,0],[9E+09,9E+09,9E+09,9E+09,9E+09,9E+09]];
CONST robtarget Target_471:=[[543.3675195149284, 532.313958801316, 86.99341997025822],[0,0.924,0.383,0],[0,0,0,0],[9E+09,9E+09,9E+09,9E+09,9E+09,9E+09]];
CONST robtarget Target_472:=[[545.4625830570563, 537.9006137795456, 88.89077449116641],[0,0.924,0.383,0],[0,0,0,0],[9E+09,9E+09,9E+09,9E+09,9E+09,9E+09]];
CONST robtarget Target_473:=[[547.5576465991844, 543.4872687577752, 90.78812901207459],[0,0.924,0.383,0],[0,0,0,0],[9E+09,9E+09,9E+09,9E+09,9E+09,9E+09]];
CONST robtarget Target_474:=[[549.6527101413124, 549.0739237360049, 92.68548353298279],[0,0.924,0.383,0],[0,0,0,0],[9E+09,9E+09,9E+09,9E+09,9E+09,9E+09]];
CONST robtarget Target_475:=[[550.0, 550.0, 93.0],[0,0.924,0.383,0],[0,0,0,0],[9E+09,9E+09,9E+09,9E+09,9E+09,9E+09]];
CONST robtarget Target_476:=[[550.0, 550.0, 93.0],[0,0.924,0.383,0],[0,0,0,0],[9E+09,9E+09,9E+09,9E+09,9E+09,9E+09]];
CONST robtarget Target_477:=[[550.0, 550.0, 93.0],[0,0.924,0.383,0],[0,0,0,0],[9E+09,9E+09,9E+09,9E+09,9E+09,9E+09]];
CONST robtarget Target_478:=[[550.0, 550.0, 93.0],[0,0.924,0.383,0],[0,0,0,0],[9E+09,9E+09,9E+09,9E+09,9E+09,9E+09]];
CONST robtarget Target_479:=[[550.0, 550.0, 93.0],[0,0.924,0.383,0],[0,0,0,0],[9E+09,9E+09,9E+09,9E+09,9E+09,9E+09]];
CONST robtarget Target_480:=[[550.0, 550.0, 93.0],[0,0.924,0.383,0],[0,0,0,0],[9E+09,9E+09,9E+09,9E+09,9E+09,9E+09]];
CONST robtarget Target_481:=[[550.0, 550.0, 93.0],[0,0.924,0.383,0],[0,0,0,0],[9E+09,9E+09,9E+09,9E+09,9E+09,9E+09]];
CONST robtarget Target_482:=[[550.0, 550.0, 93.0],[0,0.924,0.383,0],[0,0,0,0],[9E+09,9E+09,9E+09,9E+09,9E+09,9E+09]];
CONST robtarget Target_483:=[[550.0, 550.0, 93.0],[0,0.924,0.383,0],[0,0,0,0],[9E+09,9E+09,9E+09,9E+09,9E+09,9E+09]];
CONST robtarget Target_484:=[[550.0, 550.0, 93.0],[0,0.924,0.383,0],[0,0,0,0],[9E+09,9E+09,9E+09,9E+09,9E+09,9E+09]];
CONST robtarget Target_485:=[[550.0, 550.0, 93.0],[0,0.924,0.383,0],[0,0,0,0],[9E+09,9E+09,9E+09,9E+09,9E+09,9E+09]];
CONST robtarget Target_486:=[[550.0, 550.0, 93.0],[0,0.924,0.383,0],[0,0,0,0],[9E+09,9E+09,9E+09,9E+09,9E+09,9E+09]];
CONST robtarget Target_487:=[[550.0, 550.0, 93.0],[0,0.924,0.383,0],[0,0,0,0],[9E+09,9E+09,9E+09,9E+09,9E+09,9E+09]];
CONST robtarget Target_488:=[[550.0, 550.0, 93.0],[0,0.924,0.383,0],[0,0,0,0],[9E+09,9E+09,9E+09,9E+09,9E+09,9E+09]];
CONST robtarget Target_489:=[[550.0, 550.0, 93.0],[0,0.924,0.383,0],[0,0,0,0],[9E+09,9E+09,9E+09,9E+09,9E+09,9E+09]];
CONST robtarget Target_490:=[[550.0, 550.0, 93.0],[0,0.924,0.383,0],[0,0,0,0],[9E+09,9E+09,9E+09,9E+09,9E+09,9E+09]];
CONST robtarget Target_491:=[[550.0, 550.0, 93.0],[0,0.924,0.383,0],[0,0,0,0],[9E+09,9E+09,9E+09,9E+09,9E+09,9E+09]];
CONST robtarget Target_492:=[[550.0, 550.0, 93.0],[0,0.924,0.383,0],[0,0,0,0],[9E+09,9E+09,9E+09,9E+09,9E+09,9E+09]];
CONST robtarget Target_493:=[[550.0, 550.0, 93.0],[0,0.924,0.383,0],[0,0,0,0],[9E+09,9E+09,9E+09,9E+09,9E+09,9E+09]];
CONST robtarget Target_494:=[[550.0, 550.0, 93.0],[0,0.924,0.383,0],[0,0,0,0],[9E+09,9E+09,9E+09,9E+09,9E+09,9E+09]];
CONST robtarget Target_495:=[[550.0, 550.0, 93.0],[0,0.924,0.383,0],[0,0,0,0],[9E+09,9E+09,9E+09,9E+09,9E+09,9E+09]];
CONST robtarget Target_496:=[[550.0, 550.0, 93.0],[0,0.924,0.383,0],[0,0,0,0],[9E+09,9E+09,9E+09,9E+09,9E+09,9E+09]];
CONST robtarget Target_497:=[[550.0, 550.0, 93.0],[0,0.924,0.383,0],[0,0,0,0],[9E+09,9E+09,9E+09,9E+09,9E+09,9E+09]];
CONST robtarget Target_498:=[[550.0, 550.0, 93.0],[0,0.924,0.383,0],[0,0,0,0],[9E+09,9E+09,9E+09,9E+09,9E+09,9E+09]];
CONST robtarget Target_499:=[[550.0, 550.0, 93.0],[0,0.924,0.383,0],[0,0,0,0],[9E+09,9E+09,9E+09,9E+09,9E+09,9E+09]];
CONST robtarget Target_500:=[[550.0, 550.0, 93.0],[0,0.924,0.383,0],[0,0,0,0],[9E+09,9E+09,9E+09,9E+09,9E+09,9E+09]];
CONST robtarget Target_501:=[[550.0, 550.0, 93.0],[0,0.924,0.383,0],[0,0,0,0],[9E+09,9E+09,9E+09,9E+09,9E+09,9E+09]];
CONST robtarget Target_502:=[[550.0, 550.0, 93.0],[0,0.924,0.383,0],[0,0,0,0],[9E+09,9E+09,9E+09,9E+09,9E+09,9E+09]];
CONST robtarget Target_503:=[[550.0, 550.0, 93.0],[0,0.924,0.383,0],[0,0,0,0],[9E+09,9E+09,9E+09,9E+09,9E+09,9E+09]];
CONST robtarget Target_504:=[[550.0, 550.0, 93.0],[0,0.924,0.383,0],[0,0,0,0],[9E+09,9E+09,9E+09,9E+09,9E+09,9E+09]];
CONST robtarget Target_505:=[[550.0, 550.0, 93.0],[0,0.924,0.383,0],[0,0,0,0],[9E+09,9E+09,9E+09,9E+09,9E+09,9E+09]];
CONST robtarget Target_506:=[[550.0, 550.0, 93.0],[0,0.924,0.383,0],[0,0,0,0],[9E+09,9E+09,9E+09,9E+09,9E+09,9E+09]];
CONST robtarget Target_507:=[[550.0, 550.0, 93.0],[0,0.924,0.383,0],[0,0,0,0],[9E+09,9E+09,9E+09,9E+09,9E+09,9E+09]];
CONST robtarget Target_508:=[[550.0, 550.0, 93.0],[0,0.924,0.383,0],[0,0,0,0],[9E+09,9E+09,9E+09,9E+09,9E+09,9E+09]];
CONST robtarget Target_509:=[[550.0, 550.0, 93.0],[0,0.924,0.383,0],[0,0,0,0],[9E+09,9E+09,9E+09,9E+09,9E+09,9E+09]];
CONST robtarget Target_510:=[[550.0, 550.0, 93.0],[0,0.924,0.383,0],[0,0,0,0],[9E+09,9E+09,9E+09,9E+09,9E+09,9E+09]];
CONST robtarget Target_511:=[[550.0, 550.0, 93.0],[0,0.924,0.383,0],[0,0,0,0],[9E+09,9E+09,9E+09,9E+09,9E+09,9E+09]];
CONST robtarget Target_512:=[[550.0, 550.0, 93.0],[0,0.924,0.383,0],[0,0,0,0],[9E+09,9E+09,9E+09,9E+09,9E+09,9E+09]];
CONST robtarget Target_513:=[[550.0, 550.0, 93.0],[0,0.924,0.383,0],[0,0,0,0],[9E+09,9E+09,9E+09,9E+09,9E+09,9E+09]];
CONST robtarget Target_514:=[[550.0, 550.0, 93.0],[0,0.924,0.383,0],[0,0,0,0],[9E+09,9E+09,9E+09,9E+09,9E+09,9E+09]];
CONST robtarget Target_515:=[[550.0, 550.0, 93.0],[0,0.924,0.383,0],[0,0,0,0],[9E+09,9E+09,9E+09,9E+09,9E+09,9E+09]];
CONST robtarget Target_516:=[[550.0, 550.0, 93.0],[0,0.924,0.383,0],[0,0,0,0],[9E+09,9E+09,9E+09,9E+09,9E+09,9E+09]];
CONST robtarget Target_517:=[[550.0, 550.0, 93.0],[0,0.924,0.383,0],[0,0,0,0],[9E+09,9E+09,9E+09,9E+09,9E+09,9E+09]];
CONST robtarget Target_518:=[[550.0, 550.0, 93.0],[0,0.924,0.383,0],[0,0,0,0],[9E+09,9E+09,9E+09,9E+09,9E+09,9E+09]];
CONST robtarget Target_519:=[[550.0, 550.0, 93.0],[0,0.924,0.383,0],[0,0,0,0],[9E+09,9E+09,9E+09,9E+09,9E+09,9E+09]];
CONST robtarget Target_520:=[[550.0, 550.0, 93.0],[0,0.924,0.383,0],[0,0,0,0],[9E+09,9E+09,9E+09,9E+09,9E+09,9E+09]];
CONST robtarget Target_521:=[[550.0, 550.0, 93.0],[0,0.924,0.383,0],[0,0,0,0],[9E+09,9E+09,9E+09,9E+09,9E+09,9E+09]];
CONST robtarget Target_522:=[[550.0, 550.0, 93.0],[0,0.924,0.383,0],[0,0,0,0],[9E+09,9E+09,9E+09,9E+09,9E+09,9E+09]];
CONST robtarget Target_523:=[[550.0, 550.0, 93.0],[0,0.924,0.383,0],[0,0,0,0],[9E+09,9E+09,9E+09,9E+09,9E+09,9E+09]];
CONST robtarget Target_524:=[[550.0, 550.0, 93.0],[0,0.924,0.383,0],[0,0,0,0],[9E+09,9E+09,9E+09,9E+09,9E+09,9E+09]];
CONST robtarget Target_525:=[[550.0, 550.0, 93.0],[0,0.924,0.383,0],[0,0,0,0],[9E+09,9E+09,9E+09,9E+09,9E+09,9E+09]];
CONST robtarget Target_526:=[[550.0, 550.0, 93.0],[0,0.924,0.383,0],[0,0,0,0],[9E+09,9E+09,9E+09,9E+09,9E+09,9E+09]];
CONST robtarget Target_527:=[[550.0, 550.0, 93.0],[0,0.924,0.383,0],[0,0,0,0],[9E+09,9E+09,9E+09,9E+09,9E+09,9E+09]];
CONST robtarget Target_528:=[[550.0, 550.0, 93.0],[0,0.924,0.383,0],[0,0,0,0],[9E+09,9E+09,9E+09,9E+09,9E+09,9E+09]];
CONST robtarget Target_529:=[[550.0, 550.0, 93.0],[0,0.924,0.383,0],[0,0,0,0],[9E+09,9E+09,9E+09,9E+09,9E+09,9E+09]];
CONST robtarget Target_530:=[[550.0, 550.0, 93.0],[0,0.924,0.383,0],[0,0,0,0],[9E+09,9E+09,9E+09,9E+09,9E+09,9E+09]];
CONST robtarget Target_531:=[[550.0, 550.0, 93.0],[0,0.924,0.383,0],[0,0,0,0],[9E+09,9E+09,9E+09,9E+09,9E+09,9E+09]];
CONST robtarget Target_532:=[[550.0, 550.0, 93.0],[0,0.924,0.383,0],[0,0,0,0],[9E+09,9E+09,9E+09,9E+09,9E+09,9E+09]];
CONST robtarget Target_533:=[[550.0, 550.0, 93.0],[0,0.924,0.383,0],[0,0,0,0],[9E+09,9E+09,9E+09,9E+09,9E+09,9E+09]];
CONST robtarget Target_534:=[[550.0, 550.0, 93.0],[0,0.924,0.383,0],[0,0,0,0],[9E+09,9E+09,9E+09,9E+09,9E+09,9E+09]];
CONST robtarget Target_535:=[[550.0, 550.0, 93.0],[0,0.924,0.383,0],[0,0,0,0],[9E+09,9E+09,9E+09,9E+09,9E+09,9E+09]];
CONST robtarget Target_536:=[[550.0, 550.0, 93.0],[0,0.924,0.383,0],[0,0,0,0],[9E+09,9E+09,9E+09,9E+09,9E+09,9E+09]];
CONST robtarget Target_537:=[[550.0, 550.0, 93.0],[0,0.924,0.383,0],[0,0,0,0],[9E+09,9E+09,9E+09,9E+09,9E+09,9E+09]];
CONST robtarget Target_538:=[[550.0, 550.0, 93.0],[0,0.924,0.383,0],[0,0,0,0],[9E+09,9E+09,9E+09,9E+09,9E+09,9E+09]];
CONST robtarget Target_539:=[[550.0, 550.0, 93.0],[0,0.924,0.383,0],[0,0,0,0],[9E+09,9E+09,9E+09,9E+09,9E+09,9E+09]];
CONST robtarget Target_540:=[[550.0, 550.0, 93.0],[0,0.924,0.383,0],[0,0,0,0],[9E+09,9E+09,9E+09,9E+09,9E+09,9E+09]];
CONST robtarget Target_541:=[[550.0, 550.0, 93.0],[0,0.924,0.383,0],[0,0,0,0],[9E+09,9E+09,9E+09,9E+09,9E+09,9E+09]];
CONST robtarget Target_542:=[[550.0, 550.0, 93.0],[0,0.924,0.383,0],[0,0,0,0],[9E+09,9E+09,9E+09,9E+09,9E+09,9E+09]];
CONST robtarget Target_543:=[[550.0, 550.0, 93.0],[0,0.924,0.383,0],[0,0,0,0],[9E+09,9E+09,9E+09,9E+09,9E+09,9E+09]];
CONST robtarget Target_544:=[[550.0, 550.0, 93.0],[0,0.924,0.383,0],[0,0,0,0],[9E+09,9E+09,9E+09,9E+09,9E+09,9E+09]];
CONST robtarget Target_545:=[[550.0, 550.0, 93.0],[0,0.924,0.383,0],[0,0,0,0],[9E+09,9E+09,9E+09,9E+09,9E+09,9E+09]];
CONST robtarget Target_546:=[[550.0, 550.0, 93.0],[0,0.924,0.383,0],[0,0,0,0],[9E+09,9E+09,9E+09,9E+09,9E+09,9E+09]];
CONST robtarget Target_547:=[[550.0, 550.0, 93.0],[0,0.924,0.383,0],[0,0,0,0],[9E+09,9E+09,9E+09,9E+09,9E+09,9E+09]];
CONST robtarget Target_548:=[[550.0, 550.0, 93.0],[0,0.924,0.383,0],[0,0,0,0],[9E+09,9E+09,9E+09,9E+09,9E+09,9E+09]];
CONST robtarget Target_549:=[[550.0, 550.0, 93.0],[0,0.924,0.383,0],[0,0,0,0],[9E+09,9E+09,9E+09,9E+09,9E+09,9E+09]];
CONST robtarget Target_550:=[[550.0, 550.0, 93.0],[0,0.924,0.383,0],[0,0,0,0],[9E+09,9E+09,9E+09,9E+09,9E+09,9E+09]];
CONST robtarget Target_551:=[[550.0, 550.0, 93.0],[0,0.924,0.383,0],[0,0,0,0],[9E+09,9E+09,9E+09,9E+09,9E+09,9E+09]];
CONST robtarget Target_552:=[[550.0, 550.0, 93.0],[0,0.924,0.383,0],[0,0,0,0],[9E+09,9E+09,9E+09,9E+09,9E+09,9E+09]];
CONST robtarget Target_553:=[[550.0, 550.0, 93.0],[0,0.924,0.383,0],[0,0,0,0],[9E+09,9E+09,9E+09,9E+09,9E+09,9E+09]];
CONST robtarget Target_554:=[[550.0, 550.0, 93.0],[0,0.924,0.383,0],[0,0,0,0],[9E+09,9E+09,9E+09,9E+09,9E+09,9E+09]];
CONST robtarget Target_555:=[[550.0, 550.0, 93.0],[0,0.924,0.383,0],[0,0,0,0],[9E+09,9E+09,9E+09,9E+09,9E+09,9E+09]];
CONST robtarget Target_556:=[[550.0, 550.0, 93.0],[0,0.924,0.383,0],[0,0,0,0],[9E+09,9E+09,9E+09,9E+09,9E+09,9E+09]];
CONST robtarget Target_557:=[[550.0, 550.0, 93.0],[0,0.924,0.383,0],[0,0,0,0],[9E+09,9E+09,9E+09,9E+09,9E+09,9E+09]];
CONST robtarget Target_558:=[[550.0, 550.0, 93.0],[0,0.924,0.383,0],[0,0,0,0],[9E+09,9E+09,9E+09,9E+09,9E+09,9E+09]];
CONST robtarget Target_559:=[[550.0, 550.0, 93.0],[0,0.924,0.383,0],[0,0,0,0],[9E+09,9E+09,9E+09,9E+09,9E+09,9E+09]];
CONST robtarget Target_560:=[[550.0, 550.0, 93.0],[0,0.924,0.383,0],[0,0,0,0],[9E+09,9E+09,9E+09,9E+09,9E+09,9E+09]];
CONST robtarget Target_561:=[[550.0, 550.0, 93.0],[0,0.924,0.383,0],[0,0,0,0],[9E+09,9E+09,9E+09,9E+09,9E+09,9E+09]];
CONST robtarget Target_562:=[[550.0, 550.0, 93.0],[0,0.924,0.383,0],[0,0,0,0],[9E+09,9E+09,9E+09,9E+09,9E+09,9E+09]];
CONST robtarget Target_563:=[[550.0, 550.0, 93.0],[0,0.924,0.383,0],[0,0,0,0],[9E+09,9E+09,9E+09,9E+09,9E+09,9E+09]];
CONST robtarget Target_564:=[[550.0, 550.0, 93.0],[0,0.924,0.383,0],[0,0,0,0],[9E+09,9E+09,9E+09,9E+09,9E+09,9E+09]];
CONST robtarget Target_565:=[[550.0, 550.0, 93.0],[0,0.924,0.383,0],[0,0,0,0],[9E+09,9E+09,9E+09,9E+09,9E+09,9E+09]];
CONST robtarget Target_566:=[[550.0, 550.0, 93.0],[0,0.924,0.383,0],[0,0,0,0],[9E+09,9E+09,9E+09,9E+09,9E+09,9E+09]];
CONST robtarget Target_567:=[[550.0, 550.0, 93.0],[0,0.924,0.383,0],[0,0,0,0],[9E+09,9E+09,9E+09,9E+09,9E+09,9E+09]];
CONST robtarget Target_568:=[[550.0, 550.0, 93.0],[0,0.924,0.383,0],[0,0,0,0],[9E+09,9E+09,9E+09,9E+09,9E+09,9E+09]];
CONST robtarget Target_569:=[[550.0, 550.0, 93.0],[0,0.924,0.383,0],[0,0,0,0],[9E+09,9E+09,9E+09,9E+09,9E+09,9E+09]];
CONST robtarget Target_570:=[[550.0, 550.0, 93.0],[0,0.924,0.383,0],[0,0,0,0],[9E+09,9E+09,9E+09,9E+09,9E+09,9E+09]];
CONST robtarget Target_571:=[[550.0, 550.0, 93.0],[0,0.924,0.383,0],[0,0,0,0],[9E+09,9E+09,9E+09,9E+09,9E+09,9E+09]];
CONST robtarget Target_572:=[[550.0, 550.0, 93.0],[0,0.924,0.383,0],[0,0,0,0],[9E+09,9E+09,9E+09,9E+09,9E+09,9E+09]];
CONST robtarget Target_573:=[[550.0, 550.0, 93.0],[0,0.924,0.383,0],[0,0,0,0],[9E+09,9E+09,9E+09,9E+09,9E+09,9E+09]];
CONST robtarget Target_574:=[[550.0, 550.0, 93.0],[0,0.924,0.383,0],[0,0,0,0],[9E+09,9E+09,9E+09,9E+09,9E+09,9E+09]];
CONST robtarget Target_575:=[[550.0, 550.0, 93.0],[0,0.924,0.383,0],[0,0,0,0],[9E+09,9E+09,9E+09,9E+09,9E+09,9E+09]];
CONST robtarget Target_576:=[[550.0, 550.0, 93.0],[0,0.924,0.383,0],[0,0,0,0],[9E+09,9E+09,9E+09,9E+09,9E+09,9E+09]];
CONST robtarget Target_577:=[[550.0, 550.0, 93.0],[0,0.924,0.383,0],[0,0,0,0],[9E+09,9E+09,9E+09,9E+09,9E+09,9E+09]];
CONST robtarget Target_578:=[[550.0, 550.0, 93.0],[0,0.924,0.383,0],[0,0,0,0],[9E+09,9E+09,9E+09,9E+09,9E+09,9E+09]];
CONST robtarget Target_579:=[[550.0, 550.0, 93.0],[0,0.924,0.383,0],[0,0,0,0],[9E+09,9E+09,9E+09,9E+09,9E+09,9E+09]];
CONST robtarget Target_580:=[[550.0, 550.0, 93.0],[0,0.924,0.383,0],[0,0,0,0],[9E+09,9E+09,9E+09,9E+09,9E+09,9E+09]];
CONST robtarget Target_581:=[[550.0, 550.0, 93.0],[0,0.924,0.383,0],[0,0,0,0],[9E+09,9E+09,9E+09,9E+09,9E+09,9E+09]];
CONST robtarget Target_582:=[[550.0, 550.0, 93.0],[0,0.924,0.383,0],[0,0,0,0],[9E+09,9E+09,9E+09,9E+09,9E+09,9E+09]];
CONST robtarget Target_583:=[[550.0, 550.0, 93.0],[0,0.924,0.383,0],[0,0,0,0],[9E+09,9E+09,9E+09,9E+09,9E+09,9E+09]];
CONST robtarget Target_584:=[[550.0, 550.0, 93.0],[0,0.924,0.383,0],[0,0,0,0],[9E+09,9E+09,9E+09,9E+09,9E+09,9E+09]];
CONST robtarget Target_585:=[[550.0, 550.0, 93.0],[0,0.924,0.383,0],[0,0,0,0],[9E+09,9E+09,9E+09,9E+09,9E+09,9E+09]];
CONST robtarget Target_586:=[[550.0, 550.0, 93.0],[0,0.924,0.383,0],[0,0,0,0],[9E+09,9E+09,9E+09,9E+09,9E+09,9E+09]];
CONST robtarget Target_587:=[[550.0, 550.0, 93.0],[0,0.924,0.383,0],[0,0,0,0],[9E+09,9E+09,9E+09,9E+09,9E+09,9E+09]];
CONST robtarget Target_588:=[[550.0, 550.0, 93.0],[0,0.924,0.383,0],[0,0,0,0],[9E+09,9E+09,9E+09,9E+09,9E+09,9E+09]];
CONST robtarget Target_589:=[[550.0, 550.0, 93.0],[0,0.924,0.383,0],[0,0,0,0],[9E+09,9E+09,9E+09,9E+09,9E+09,9E+09]];
CONST robtarget Target_590:=[[550.0, 550.0, 93.0],[0,0.924,0.383,0],[0,0,0,0],[9E+09,9E+09,9E+09,9E+09,9E+09,9E+09]];
CONST robtarget Target_591:=[[550.0, 550.0, 93.0],[0,0.924,0.383,0],[0,0,0,0],[9E+09,9E+09,9E+09,9E+09,9E+09,9E+09]];
CONST robtarget Target_592:=[[550.0, 550.0, 93.0],[0,0.924,0.383,0],[0,0,0,0],[9E+09,9E+09,9E+09,9E+09,9E+09,9E+09]];
CONST robtarget Target_593:=[[550.0, 550.0, 93.0],[0,0.924,0.383,0],[0,0,0,0],[9E+09,9E+09,9E+09,9E+09,9E+09,9E+09]];
CONST robtarget Target_594:=[[550.0, 550.0, 93.0],[0,0.924,0.383,0],[0,0,0,0],[9E+09,9E+09,9E+09,9E+09,9E+09,9E+09]];
CONST robtarget Target_595:=[[550.0, 550.0, 93.0],[0,0.924,0.383,0],[0,0,0,0],[9E+09,9E+09,9E+09,9E+09,9E+09,9E+09]];
CONST robtarget Target_596:=[[550.0, 550.0, 93.0],[0,0.924,0.383,0],[0,0,0,0],[9E+09,9E+09,9E+09,9E+09,9E+09,9E+09]];
CONST robtarget Target_597:=[[550.0, 550.0, 93.0],[0,0.924,0.383,0],[0,0,0,0],[9E+09,9E+09,9E+09,9E+09,9E+09,9E+09]];
CONST robtarget Target_598:=[[550.0, 550.0, 93.0],[0,0.924,0.383,0],[0,0,0,0],[9E+09,9E+09,9E+09,9E+09,9E+09,9E+09]];
CONST robtarget Target_599:=[[550.0, 550.0, 93.0],[0,0.924,0.383,0],[0,0,0,0],[9E+09,9E+09,9E+09,9E+09,9E+09,9E+09]];
CONST robtarget Target_600:=[[550.0, 550.0, 93.0],[0,0.924,0.383,0],[0,0,0,0],[9E+09,9E+09,9E+09,9E+09,9E+09,9E+09]];
CONST robtarget Target_601:=[[549.9992308581016, 549.9985270734389, 92.99946467723862],[0,0.924,0.383,0],[0,0,0,0],[9E+09,9E+09,9E+09,9E+09,9E+09,9E+09]];
CONST robtarget Target_602:=[[547.2378427157769, 544.7103976033467, 91.07753853018076],[0,0.924,0.383,0],[0,0,0,0],[9E+09,9E+09,9E+09,9E+09,9E+09,9E+09]];
CONST robtarget Target_603:=[[544.4764545734524, 539.4222681332544, 89.15561238312289],[0,0.924,0.383,0],[0,0,0,0],[9E+09,9E+09,9E+09,9E+09,9E+09,9E+09]];
CONST robtarget Target_604:=[[541.7150664311279, 534.1341386631623, 87.23368623606501],[0,0.924,0.383,0],[0,0,0,0],[9E+09,9E+09,9E+09,9E+09,9E+09,9E+09]];
CONST robtarget Target_605:=[[538.9536782888033, 528.84600919307, 85.31176008900714],[0,0.924,0.383,0],[0,0,0,0],[9E+09,9E+09,9E+09,9E+09,9E+09,9E+09]];
CONST robtarget Target_606:=[[536.1922901464789, 523.5578797229778, 83.38983394194926],[0,0.924,0.383,0],[0,0,0,0],[9E+09,9E+09,9E+09,9E+09,9E+09,9E+09]];
CONST robtarget Target_607:=[[533.4309020041543, 518.2697502528855, 81.46790779489139],[0,0.924,0.383,0],[0,0,0,0],[9E+09,9E+09,9E+09,9E+09,9E+09,9E+09]];
CONST robtarget Target_608:=[[530.6695138618297, 512.9816207827932, 79.54598164783353],[0,0.924,0.383,0],[0,0,0,0],[9E+09,9E+09,9E+09,9E+09,9E+09,9E+09]];
CONST robtarget Target_609:=[[527.9081257195053, 507.6934913127011, 77.62405550077565],[0,0.924,0.383,0],[0,0,0,0],[9E+09,9E+09,9E+09,9E+09,9E+09,9E+09]];
CONST robtarget Target_610:=[[525.1467375771807, 502.40536184260884, 75.70212935371778],[0,0.924,0.383,0],[0,0,0,0],[9E+09,9E+09,9E+09,9E+09,9E+09,9E+09]];
CONST robtarget Target_611:=[[522.3853494348562, 497.11723237251664, 73.7802032066599],[0,0.924,0.383,0],[0,0,0,0],[9E+09,9E+09,9E+09,9E+09,9E+09,9E+09]];
CONST robtarget Target_612:=[[519.6239612925317, 491.82910290242444, 71.85827705960203],[0,0.924,0.383,0],[0,0,0,0],[9E+09,9E+09,9E+09,9E+09,9E+09,9E+09]];
CONST robtarget Target_613:=[[516.8625731502071, 486.5409734323322, 69.93635091254416],[0,0.924,0.383,0],[0,0,0,0],[9E+09,9E+09,9E+09,9E+09,9E+09,9E+09]];
CONST robtarget Target_614:=[[514.1011850078826, 481.2528439622399, 68.01442476548628],[0,0.924,0.383,0],[0,0,0,0],[9E+09,9E+09,9E+09,9E+09,9E+09,9E+09]];
CONST robtarget Target_615:=[[511.33979686555807, 475.9647144921477, 66.09249861842842],[0,0.924,0.383,0],[0,0,0,0],[9E+09,9E+09,9E+09,9E+09,9E+09,9E+09]];
CONST robtarget Target_616:=[[508.57840872323357, 470.6765850220555, 64.17057247137055],[0,0.924,0.383,0],[0,0,0,0],[9E+09,9E+09,9E+09,9E+09,9E+09,9E+09]];
CONST robtarget Target_617:=[[505.817020580909, 465.38845555196326, 62.24864632431268],[0,0.924,0.383,0],[0,0,0,0],[9E+09,9E+09,9E+09,9E+09,9E+09,9E+09]];
CONST robtarget Target_618:=[[503.0556324385845, 460.100326081871, 60.326720177254806],[0,0.924,0.383,0],[0,0,0,0],[9E+09,9E+09,9E+09,9E+09,9E+09,9E+09]];
CONST robtarget Target_619:=[[500.29424429626, 454.8121966117788, 58.40479403019693],[0,0.924,0.383,0],[0,0,0,0],[9E+09,9E+09,9E+09,9E+09,9E+09,9E+09]];
CONST robtarget Target_620:=[[497.5328561539354, 449.5240671416866, 56.48286788313906],[0,0.924,0.383,0],[0,0,0,0],[9E+09,9E+09,9E+09,9E+09,9E+09,9E+09]];
CONST robtarget Target_621:=[[494.77146801161086, 444.23593767159434, 54.56094173608118],[0,0.924,0.383,0],[0,0,0,0],[9E+09,9E+09,9E+09,9E+09,9E+09,9E+09]];
CONST robtarget Target_622:=[[492.0100798692864, 438.94780820150214, 52.639015589023316],[0,0.924,0.383,0],[0,0,0,0],[9E+09,9E+09,9E+09,9E+09,9E+09,9E+09]];
CONST robtarget Target_623:=[[489.24869172696185, 433.6596787314099, 50.71708944196544],[0,0.924,0.383,0],[0,0,0,0],[9E+09,9E+09,9E+09,9E+09,9E+09,9E+09]];
CONST robtarget Target_624:=[[486.4873035846373, 428.3715492613177, 48.79516329490757],[0,0.924,0.383,0],[0,0,0,0],[9E+09,9E+09,9E+09,9E+09,9E+09,9E+09]];
CONST robtarget Target_625:=[[483.7259154423128, 423.0834197912254, 46.8732371478497],[0,0.924,0.383,0],[0,0,0,0],[9E+09,9E+09,9E+09,9E+09,9E+09,9E+09]];
CONST robtarget Target_626:=[[480.9645272999883, 417.79529032113317, 44.951311000791826],[0,0.924,0.383,0],[0,0,0,0],[9E+09,9E+09,9E+09,9E+09,9E+09,9E+09]];
CONST robtarget Target_627:=[[478.2031391576637, 412.50716085104096, 43.02938485373396],[0,0.924,0.383,0],[0,0,0,0],[9E+09,9E+09,9E+09,9E+09,9E+09,9E+09]];
CONST robtarget Target_628:=[[475.4417510153392, 407.21903138094876, 41.107458706676084],[0,0.924,0.383,0],[0,0,0,0],[9E+09,9E+09,9E+09,9E+09,9E+09,9E+09]];
CONST robtarget Target_629:=[[472.6803628730147, 401.9309019108565, 39.18553255961821],[0,0.924,0.383,0],[0,0,0,0],[9E+09,9E+09,9E+09,9E+09,9E+09,9E+09]];
CONST robtarget Target_630:=[[469.91897473069014, 396.64277244076425, 37.263606412560335],[0,0.924,0.383,0],[0,0,0,0],[9E+09,9E+09,9E+09,9E+09,9E+09,9E+09]];
CONST robtarget Target_631:=[[467.15758658836563, 391.35464297067205, 35.341680265502475],[0,0.924,0.383,0],[0,0,0,0],[9E+09,9E+09,9E+09,9E+09,9E+09,9E+09]];
CONST robtarget Target_632:=[[464.39619844604107, 386.06651350057984, 33.4197541184446],[0,0.924,0.383,0],[0,0,0,0],[9E+09,9E+09,9E+09,9E+09,9E+09,9E+09]];
CONST robtarget Target_633:=[[461.63481030371656, 380.7783840304876, 31.497827971386723],[0,0.924,0.383,0],[0,0,0,0],[9E+09,9E+09,9E+09,9E+09,9E+09,9E+09]];
CONST robtarget Target_634:=[[458.873422161392, 375.49025456039533, 29.575901824328852],[0,0.924,0.383,0],[0,0,0,0],[9E+09,9E+09,9E+09,9E+09,9E+09,9E+09]];
CONST robtarget Target_635:=[[456.1120340190675, 370.2021250903031, 27.653975677270978],[0,0.924,0.383,0],[0,0,0,0],[9E+09,9E+09,9E+09,9E+09,9E+09,9E+09]];
CONST robtarget Target_636:=[[453.350645876743, 364.9139956202109, 25.732049530213107],[0,0.924,0.383,0],[0,0,0,0],[9E+09,9E+09,9E+09,9E+09,9E+09,9E+09]];
CONST robtarget Target_637:=[[450.5892577344184, 359.62586615011867, 23.810123383155236],[0,0.924,0.383,0],[0,0,0,0],[9E+09,9E+09,9E+09,9E+09,9E+09,9E+09]];
CONST robtarget Target_638:=[[447.8278695920939, 354.33773668002647, 21.888197236097366],[0,0.924,0.383,0],[0,0,0,0],[9E+09,9E+09,9E+09,9E+09,9E+09,9E+09]];
CONST robtarget Target_639:=[[445.0664814497694, 349.0496072099342, 19.966271089039495],[0,0.924,0.383,0],[0,0,0,0],[9E+09,9E+09,9E+09,9E+09,9E+09,9E+09]];
CONST robtarget Target_640:=[[442.30509330744485, 343.761477739842, 18.04434494198162],[0,0.924,0.383,0],[0,0,0,0],[9E+09,9E+09,9E+09,9E+09,9E+09,9E+09]];
CONST robtarget Target_641:=[[439.54370516512034, 338.47334826974975, 16.12241879492375],[0,0.924,0.383,0],[0,0,0,0],[9E+09,9E+09,9E+09,9E+09,9E+09,9E+09]];
CONST robtarget Target_642:=[[436.78231702279584, 333.18521879965755, 14.200492647865877],[0,0.924,0.383,0],[0,0,0,0],[9E+09,9E+09,9E+09,9E+09,9E+09,9E+09]];
CONST robtarget Target_643:=[[434.0209288804713, 327.8970893295653, 12.278566500808004],[0,0.924,0.383,0],[0,0,0,0],[9E+09,9E+09,9E+09,9E+09,9E+09,9E+09]];
CONST robtarget Target_644:=[[431.2595407381467, 322.6089598594731, 10.356640353750132],[0,0.924,0.383,0],[0,0,0,0],[9E+09,9E+09,9E+09,9E+09,9E+09,9E+09]];
CONST robtarget Target_645:=[[428.4981525958222, 317.32083038938083, 8.434714206692261],[0,0.924,0.383,0],[0,0,0,0],[9E+09,9E+09,9E+09,9E+09,9E+09,9E+09]];
CONST robtarget Target_646:=[[425.7367644534977, 312.03270091928863, 6.5127880596343894],[0,0.924,0.383,0],[0,0,0,0],[9E+09,9E+09,9E+09,9E+09,9E+09,9E+09]];
CONST robtarget Target_647:=[[426.16335837464675, 309.72910178864885, 6.0],[0,0.924,0.383,0],[0,0,0,0],[9E+09,9E+09,9E+09,9E+09,9E+09,9E+09]];
CONST robtarget Target_648:=[[427.7500650988404, 308.5115789874667, 6.0],[0,0.924,0.383,0],[0,0,0,0],[9E+09,9E+09,9E+09,9E+09,9E+09,9E+09]];
CONST robtarget Target_649:=[[429.33677182303416, 307.29405618628454, 6.0],[0,0.924,0.383,0],[0,0,0,0],[9E+09,9E+09,9E+09,9E+09,9E+09,9E+09]];
CONST robtarget Target_650:=[[430.9234785472279, 306.0765333851024, 6.0],[0,0.924,0.383,0],[0,0,0,0],[9E+09,9E+09,9E+09,9E+09,9E+09,9E+09]];
CONST robtarget Target_651:=[[432.5101852714216, 304.8590105839202, 6.0],[0,0.924,0.383,0],[0,0,0,0],[9E+09,9E+09,9E+09,9E+09,9E+09,9E+09]];
CONST robtarget Target_652:=[[434.0968919956153, 303.64148778273807, 6.0],[0,0.924,0.383,0],[0,0,0,0],[9E+09,9E+09,9E+09,9E+09,9E+09,9E+09]];
CONST robtarget Target_653:=[[435.683598719809, 302.4239649815559, 6.0],[0,0.924,0.383,0],[0,0,0,0],[9E+09,9E+09,9E+09,9E+09,9E+09,9E+09]];
CONST robtarget Target_654:=[[437.2703054440027, 301.20644218037376, 6.0],[0,0.924,0.383,0],[0,0,0,0],[9E+09,9E+09,9E+09,9E+09,9E+09,9E+09]];
CONST robtarget Target_655:=[[438.85701216819643, 299.9889193791916, 6.0],[0,0.924,0.383,0],[0,0,0,0],[9E+09,9E+09,9E+09,9E+09,9E+09,9E+09]];
CONST robtarget Target_656:=[[440.2235534219906, 298.55123110760985, 6.0],[0,0.924,0.383,0],[0,0,0,0],[9E+09,9E+09,9E+09,9E+09,9E+09,9E+09]];
CONST robtarget Target_657:=[[441.4410762231727, 296.9645243834161, 6.0],[0,0.924,0.383,0],[0,0,0,0],[9E+09,9E+09,9E+09,9E+09,9E+09,9E+09]];
CONST robtarget Target_658:=[[442.6585990243549, 295.37781765922244, 6.0],[0,0.924,0.383,0],[0,0,0,0],[9E+09,9E+09,9E+09,9E+09,9E+09,9E+09]];
CONST robtarget Target_659:=[[443.87612182553704, 293.7911109350287, 6.0],[0,0.924,0.383,0],[0,0,0,0],[9E+09,9E+09,9E+09,9E+09,9E+09,9E+09]];
CONST robtarget Target_660:=[[445.0936446267192, 292.204404210835, 6.0],[0,0.924,0.383,0],[0,0,0,0],[9E+09,9E+09,9E+09,9E+09,9E+09,9E+09]];
CONST robtarget Target_661:=[[446.31116742790135, 290.6176974866413, 6.0],[0,0.924,0.383,0],[0,0,0,0],[9E+09,9E+09,9E+09,9E+09,9E+09,9E+09]];
CONST robtarget Target_662:=[[447.5286902290835, 289.0309907624476, 6.0],[0,0.924,0.383,0],[0,0,0,0],[9E+09,9E+09,9E+09,9E+09,9E+09,9E+09]];
CONST robtarget Target_663:=[[448.74621303026566, 287.44428403825384, 6.0],[0,0.924,0.383,0],[0,0,0,0],[9E+09,9E+09,9E+09,9E+09,9E+09,9E+09]];
CONST robtarget Target_664:=[[449.9637358314478, 285.85757731406017, 6.0],[0,0.924,0.383,0],[0,0,0,0],[9E+09,9E+09,9E+09,9E+09,9E+09,9E+09]];
CONST robtarget Target_665:=[[450.9734822605287, 284.1509108479461, 6.0],[0,0.924,0.383,0],[0,0,0,0],[9E+09,9E+09,9E+09,9E+09,9E+09,9E+09]];
CONST robtarget Target_666:=[[451.7388491588497, 282.30315179683726, 6.0],[0,0.924,0.383,0],[0,0,0,0],[9E+09,9E+09,9E+09,9E+09,9E+09,9E+09]];
CONST robtarget Target_667:=[[452.50421605717065, 280.45539274572843, 6.0],[0,0.924,0.383,0],[0,0,0,0],[9E+09,9E+09,9E+09,9E+09,9E+09,9E+09]];
CONST robtarget Target_668:=[[453.2695829554916, 278.6076336946196, 6.0],[0,0.924,0.383,0],[0,0,0,0],[9E+09,9E+09,9E+09,9E+09,9E+09,9E+09]];
CONST robtarget Target_669:=[[454.0349498538126, 276.7598746435108, 6.0],[0,0.924,0.383,0],[0,0,0,0],[9E+09,9E+09,9E+09,9E+09,9E+09,9E+09]];
CONST robtarget Target_670:=[[454.8003167521335, 274.91211559240196, 6.0],[0,0.924,0.383,0],[0,0,0,0],[9E+09,9E+09,9E+09,9E+09,9E+09,9E+09]];
CONST robtarget Target_671:=[[455.56568365045445, 273.0643565412932, 6.0],[0,0.924,0.383,0],[0,0,0,0],[9E+09,9E+09,9E+09,9E+09,9E+09,9E+09]];
CONST robtarget Target_672:=[[456.3310505487754, 271.21659749018437, 6.0],[0,0.924,0.383,0],[0,0,0,0],[9E+09,9E+09,9E+09,9E+09,9E+09,9E+09]];
CONST robtarget Target_673:=[[457.0964174470963, 269.36883843907555, 6.0],[0,0.924,0.383,0],[0,0,0,0],[9E+09,9E+09,9E+09,9E+09,9E+09,9E+09]];
CONST robtarget Target_674:=[[457.6990470235555, 267.4774740530681, 6.0],[0,0.924,0.383,0],[0,0,0,0],[9E+09,9E+09,9E+09,9E+09,9E+09,9E+09]];
CONST robtarget Target_675:=[[457.9600993930339, 265.4945843283507, 6.0],[0,0.924,0.383,0],[0,0,0,0],[9E+09,9E+09,9E+09,9E+09,9E+09,9E+09]];
CONST robtarget Target_676:=[[458.22115176251225, 263.5116946036333, 6.0],[0,0.924,0.383,0],[0,0,0,0],[9E+09,9E+09,9E+09,9E+09,9E+09,9E+09]];
CONST robtarget Target_677:=[[458.48220413199056, 261.52880487891593, 6.0],[0,0.924,0.383,0],[0,0,0,0],[9E+09,9E+09,9E+09,9E+09,9E+09,9E+09]];
CONST robtarget Target_678:=[[458.74325650146886, 259.5459151541986, 6.0],[0,0.924,0.383,0],[0,0,0,0],[9E+09,9E+09,9E+09,9E+09,9E+09,9E+09]];
CONST robtarget Target_679:=[[459.0043088709472, 257.56302542948123, 6.0],[0,0.924,0.383,0],[0,0,0,0],[9E+09,9E+09,9E+09,9E+09,9E+09,9E+09]];
CONST robtarget Target_680:=[[459.2653612404256, 255.58013570476385, 6.0],[0,0.924,0.383,0],[0,0,0,0],[9E+09,9E+09,9E+09,9E+09,9E+09,9E+09]];
CONST robtarget Target_681:=[[459.5264136099039, 253.59724598004647, 6.0],[0,0.924,0.383,0],[0,0,0,0],[9E+09,9E+09,9E+09,9E+09,9E+09,9E+09]];
CONST robtarget Target_682:=[[459.7874659793822, 251.61435625532908, 6.0],[0,0.924,0.383,0],[0,0,0,0],[9E+09,9E+09,9E+09,9E+09,9E+09,9E+09]];
CONST robtarget Target_683:=[[459.95148165113943, 249.6314665306117, 6.0],[0,0.924,0.383,0],[0,0,0,0],[9E+09,9E+09,9E+09,9E+09,9E+09,9E+09]];
CONST robtarget Target_684:=[[459.69042928166107, 247.64857680589435, 6.0],[0,0.924,0.383,0],[0,0,0,0],[9E+09,9E+09,9E+09,9E+09,9E+09,9E+09]];
CONST robtarget Target_685:=[[459.42937691218276, 245.66568708117697, 6.0],[0,0.924,0.383,0],[0,0,0,0],[9E+09,9E+09,9E+09,9E+09,9E+09,9E+09]];
CONST robtarget Target_686:=[[459.16832454270445, 243.6827973564596, 6.0],[0,0.924,0.383,0],[0,0,0,0],[9E+09,9E+09,9E+09,9E+09,9E+09,9E+09]];
CONST robtarget Target_687:=[[458.9072721732261, 241.6999076317422, 6.0],[0,0.924,0.383,0],[0,0,0,0],[9E+09,9E+09,9E+09,9E+09,9E+09,9E+09]];
CONST robtarget Target_688:=[[458.6462198037477, 239.71701790702485, 6.0],[0,0.924,0.383,0],[0,0,0,0],[9E+09,9E+09,9E+09,9E+09,9E+09,9E+09]];
CONST robtarget Target_689:=[[458.3851674342694, 237.73412818230747, 6.0],[0,0.924,0.383,0],[0,0,0,0],[9E+09,9E+09,9E+09,9E+09,9E+09,9E+09]];
CONST robtarget Target_690:=[[458.12411506479106, 235.7512384575901, 6.0],[0,0.924,0.383,0],[0,0,0,0],[9E+09,9E+09,9E+09,9E+09,9E+09,9E+09]];
CONST robtarget Target_691:=[[457.8630626953127, 233.7683487328727, 6.0],[0,0.924,0.383,0],[0,0,0,0],[9E+09,9E+09,9E+09,9E+09,9E+09,9E+09]];
CONST robtarget Target_692:=[[457.5772871140512, 231.79208357292782, 6.0],[0,0.924,0.383,0],[0,0,0,0],[9E+09,9E+09,9E+09,9E+09,9E+09,9E+09]];
CONST robtarget Target_693:=[[456.81192021573025, 229.944324521819, 6.0],[0,0.924,0.383,0],[0,0,0,0],[9E+09,9E+09,9E+09,9E+09,9E+09,9E+09]];
CONST robtarget Target_694:=[[456.0465533174093, 228.09656547071017, 6.0],[0,0.924,0.383,0],[0,0,0,0],[9E+09,9E+09,9E+09,9E+09,9E+09,9E+09]];
CONST robtarget Target_695:=[[455.2811864190883, 226.24880641960132, 6.0],[0,0.924,0.383,0],[0,0,0,0],[9E+09,9E+09,9E+09,9E+09,9E+09,9E+09]];
CONST robtarget Target_696:=[[454.51581952076737, 224.40104736849247, 6.0],[0,0.924,0.383,0],[0,0,0,0],[9E+09,9E+09,9E+09,9E+09,9E+09,9E+09]];
CONST robtarget Target_697:=[[453.7504526224464, 222.55328831738365, 6.0],[0,0.924,0.383,0],[0,0,0,0],[9E+09,9E+09,9E+09,9E+09,9E+09,9E+09]];
CONST robtarget Target_698:=[[452.98508572412544, 220.70552926627482, 6.0],[0,0.924,0.383,0],[0,0,0,0],[9E+09,9E+09,9E+09,9E+09,9E+09,9E+09]];
CONST robtarget Target_699:=[[452.2197188258045, 218.85777021516597, 6.0],[0,0.924,0.383,0],[0,0,0,0],[9E+09,9E+09,9E+09,9E+09,9E+09,9E+09]];
CONST robtarget Target_700:=[[451.4543519274836, 217.01001116405712, 6.0],[0,0.924,0.383,0],[0,0,0,0],[9E+09,9E+09,9E+09,9E+09,9E+09,9E+09]];
CONST robtarget Target_701:=[[450.6889850291626, 215.1622521129483, 6.0],[0,0.924,0.383,0],[0,0,0,0],[9E+09,9E+09,9E+09,9E+09,9E+09,9E+09]];
CONST robtarget Target_702:=[[449.5111661334097, 213.55262232873406, 6.0],[0,0.924,0.383,0],[0,0,0,0],[9E+09,9E+09,9E+09,9E+09,9E+09,9E+09]];
CONST robtarget Target_703:=[[448.2936433322275, 211.96591560454033, 6.0],[0,0.924,0.383,0],[0,0,0,0],[9E+09,9E+09,9E+09,9E+09,9E+09,9E+09]];
CONST robtarget Target_704:=[[447.0761205310454, 210.37920888034662, 6.0],[0,0.924,0.383,0],[0,0,0,0],[9E+09,9E+09,9E+09,9E+09,9E+09,9E+09]];
CONST robtarget Target_705:=[[445.85859772986316, 208.79250215615292, 6.0],[0,0.924,0.383,0],[0,0,0,0],[9E+09,9E+09,9E+09,9E+09,9E+09,9E+09]];
CONST robtarget Target_706:=[[444.64107492868106, 207.2057954319592, 6.0],[0,0.924,0.383,0],[0,0,0,0],[9E+09,9E+09,9E+09,9E+09,9E+09,9E+09]];
CONST robtarget Target_707:=[[443.42355212749885, 205.61908870776548, 6.0],[0,0.924,0.383,0],[0,0,0,0],[9E+09,9E+09,9E+09,9E+09,9E+09,9E+09]];
CONST robtarget Target_708:=[[442.20602932631675, 204.03238198357178, 6.0],[0,0.924,0.383,0],[0,0,0,0],[9E+09,9E+09,9E+09,9E+09,9E+09,9E+09]];
