CONST robtarget Target_1:=[[250.0, -175.0, 603.0],[0,0.924,-0.383,0],[0,0,0,0],[9E+09,9E+09,9E+09,9E+09,9E+09,9E+09]];
CONST robtarget Target_2:=[[250.37380411534312, -172.8973518511949, 597.3929382698531],[0,0.924,-0.383,0],[0,0,0,0],[9E+09,9E+09,9E+09,9E+09,9E+09,9E+09]];
CONST robtarget Target_3:=[[250.74760823068627, -170.79470370238977, 591.785876539706],[0,0.924,-0.383,0],[0,0,0,0],[9E+09,9E+09,9E+09,9E+09,9E+09,9E+09]];
CONST robtarget Target_4:=[[251.1214123460294, -168.69205555358462, 586.1788148095591],[0,0.924,-0.383,0],[0,0,0,0],[9E+09,9E+09,9E+09,9E+09,9E+09,9E+09]];
CONST robtarget Target_5:=[[251.49521646137254, -166.58940740477954, 580.571753079412],[0,0.924,-0.383,0],[0,0,0,0],[9E+09,9E+09,9E+09,9E+09,9E+09,9E+09]];
CONST robtarget Target_6:=[[251.86902057671566, -164.48675925597445, 574.9646913492651],[0,0.924,-0.383,0],[0,0,0,0],[9E+09,9E+09,9E+09,9E+09,9E+09,9E+09]];
CONST robtarget Target_7:=[[252.2428246920588, -162.38411110716925, 569.357629619118],[0,0.924,-0.383,0],[0,0,0,0],[9E+09,9E+09,9E+09,9E+09,9E+09,9E+09]];
CONST robtarget Target_8:=[[252.61662880740192, -160.28146295836416, 563.7505678889711],[0,0.924,-0.383,0],[0,0,0,0],[9E+09,9E+09,9E+09,9E+09,9E+09,9E+09]];
CONST robtarget Target_9:=[[252.99043292274507, -158.17881480955907, 558.143506158824],[0,0.924,-0.383,0],[0,0,0,0],[9E+09,9E+09,9E+09,9E+09,9E+09,9E+09]];
CONST robtarget Target_10:=[[253.3642370380882, -156.07616666075393, 552.5364444286771],[0,0.924,-0.383,0],[0,0,0,0],[9E+09,9E+09,9E+09,9E+09,9E+09,9E+09]];
CONST robtarget Target_11:=[[253.7380411534313, -153.97351851194878, 546.9293826985302],[0,0.924,-0.383,0],[0,0,0,0],[9E+09,9E+09,9E+09,9E+09,9E+09,9E+09]];
CONST robtarget Target_12:=[[254.11184526877446, -151.8708703631437, 541.3223209683831],[0,0.924,-0.383,0],[0,0,0,0],[9E+09,9E+09,9E+09,9E+09,9E+09,9E+09]];
CONST robtarget Target_13:=[[254.48564938411758, -149.76822221433855, 535.7152592382362],[0,0.924,-0.383,0],[0,0,0,0],[9E+09,9E+09,9E+09,9E+09,9E+09,9E+09]];
CONST robtarget Target_14:=[[254.85945349946073, -147.6655740655334, 530.1081975080891],[0,0.924,-0.383,0],[0,0,0,0],[9E+09,9E+09,9E+09,9E+09,9E+09,9E+09]];
CONST robtarget Target_15:=[[255.23325761480385, -145.56292591672832, 524.5011357779422],[0,0.924,-0.383,0],[0,0,0,0],[9E+09,9E+09,9E+09,9E+09,9E+09,9E+09]];
CONST robtarget Target_16:=[[255.607061730147, -143.46027776792323, 518.8940740477952],[0,0.924,-0.383,0],[0,0,0,0],[9E+09,9E+09,9E+09,9E+09,9E+09,9E+09]];
CONST robtarget Target_17:=[[255.98086584549011, -141.35762961911803, 513.2870123176482],[0,0.924,-0.383,0],[0,0,0,0],[9E+09,9E+09,9E+09,9E+09,9E+09,9E+09]];
CONST robtarget Target_18:=[[256.35466996083323, -139.25498147031294, 507.6799505875012],[0,0.924,-0.383,0],[0,0,0,0],[9E+09,9E+09,9E+09,9E+09,9E+09,9E+09]];
CONST robtarget Target_19:=[[256.7284740761764, -137.15233332150785, 502.0728888573542],[0,0.924,-0.383,0],[0,0,0,0],[9E+09,9E+09,9E+09,9E+09,9E+09,9E+09]];
CONST robtarget Target_20:=[[257.10227819151953, -135.0496851727027, 496.46582712720726],[0,0.924,-0.383,0],[0,0,0,0],[9E+09,9E+09,9E+09,9E+09,9E+09,9E+09]];
CONST robtarget Target_21:=[[257.4760823068626, -132.94703702389756, 490.8587653970602],[0,0.924,-0.383,0],[0,0,0,0],[9E+09,9E+09,9E+09,9E+09,9E+09,9E+09]];
CONST robtarget Target_22:=[[257.84988642220577, -130.84438887509248, 485.2517036669133],[0,0.924,-0.383,0],[0,0,0,0],[9E+09,9E+09,9E+09,9E+09,9E+09,9E+09]];
CONST robtarget Target_23:=[[258.2236905375489, -128.74174072628733, 479.6446419367662],[0,0.924,-0.383,0],[0,0,0,0],[9E+09,9E+09,9E+09,9E+09,9E+09,9E+09]];
CONST robtarget Target_24:=[[258.59749465289207, -126.63909257748219, 474.0375802066193],[0,0.924,-0.383,0],[0,0,0,0],[9E+09,9E+09,9E+09,9E+09,9E+09,9E+09]];
CONST robtarget Target_25:=[[258.97129876823516, -124.5364444286771, 468.43051847647223],[0,0.924,-0.383,0],[0,0,0,0],[9E+09,9E+09,9E+09,9E+09,9E+09,9E+09]];
CONST robtarget Target_26:=[[259.3451028835783, -122.43379627987201, 462.8234567463253],[0,0.924,-0.383,0],[0,0,0,0],[9E+09,9E+09,9E+09,9E+09,9E+09,9E+09]];
CONST robtarget Target_27:=[[259.71890699892145, -120.33114813106681, 457.2163950161783],[0,0.924,-0.383,0],[0,0,0,0],[9E+09,9E+09,9E+09,9E+09,9E+09,9E+09]];
CONST robtarget Target_28:=[[260.09271111426455, -118.22849998226172, 451.6093332860313],[0,0.924,-0.383,0],[0,0,0,0],[9E+09,9E+09,9E+09,9E+09,9E+09,9E+09]];
CONST robtarget Target_29:=[[260.4665152296077, -116.12585183345664, 446.0022715558843],[0,0.924,-0.383,0],[0,0,0,0],[9E+09,9E+09,9E+09,9E+09,9E+09,9E+09]];
CONST robtarget Target_30:=[[260.84031934495084, -114.02320368465149, 440.39520982573737],[0,0.924,-0.383,0],[0,0,0,0],[9E+09,9E+09,9E+09,9E+09,9E+09,9E+09]];
CONST robtarget Target_31:=[[261.214123460294, -111.92055553584635, 434.7881480955903],[0,0.924,-0.383,0],[0,0,0,0],[9E+09,9E+09,9E+09,9E+09,9E+09,9E+09]];
CONST robtarget Target_32:=[[261.5879275756371, -109.81790738704126, 429.1810863654434],[0,0.924,-0.383,0],[0,0,0,0],[9E+09,9E+09,9E+09,9E+09,9E+09,9E+09]];
CONST robtarget Target_33:=[[261.96173169098023, -107.71525923823617, 423.5740246352964],[0,0.924,-0.383,0],[0,0,0,0],[9E+09,9E+09,9E+09,9E+09,9E+09,9E+09]];
CONST robtarget Target_34:=[[262.3355358063234, -105.61261108943103, 417.9669629051494],[0,0.924,-0.383,0],[0,0,0,0],[9E+09,9E+09,9E+09,9E+09,9E+09,9E+09]];
CONST robtarget Target_35:=[[262.70933992166647, -103.50996294062588, 412.35990117500245],[0,0.924,-0.383,0],[0,0,0,0],[9E+09,9E+09,9E+09,9E+09,9E+09,9E+09]];
CONST robtarget Target_36:=[[263.0831440370096, -101.4073147918208, 406.7528394448554],[0,0.924,-0.383,0],[0,0,0,0],[9E+09,9E+09,9E+09,9E+09,9E+09,9E+09]];
CONST robtarget Target_37:=[[263.45694815235277, -99.30466664301571, 401.14577771470846],[0,0.924,-0.383,0],[0,0,0,0],[9E+09,9E+09,9E+09,9E+09,9E+09,9E+09]];
CONST robtarget Target_38:=[[263.8307522676959, -97.2020184942105, 395.5387159845614],[0,0.924,-0.383,0],[0,0,0,0],[9E+09,9E+09,9E+09,9E+09,9E+09,9E+09]];
CONST robtarget Target_39:=[[264.204556383039, -95.09937034540542, 389.93165425441447],[0,0.924,-0.383,0],[0,0,0,0],[9E+09,9E+09,9E+09,9E+09,9E+09,9E+09]];
CONST robtarget Target_40:=[[264.57836049838215, -92.99672219660033, 384.3245925242675],[0,0.924,-0.383,0],[0,0,0,0],[9E+09,9E+09,9E+09,9E+09,9E+09,9E+09]];
CONST robtarget Target_41:=[[264.9521646137253, -90.89407404779519, 378.7175307941205],[0,0.924,-0.383,0],[0,0,0,0],[9E+09,9E+09,9E+09,9E+09,9E+09,9E+09]];
CONST robtarget Target_42:=[[265.32596872906845, -88.79142589899004, 373.1104690639735],[0,0.924,-0.383,0],[0,0,0,0],[9E+09,9E+09,9E+09,9E+09,9E+09,9E+09]];
CONST robtarget Target_43:=[[265.69977284441154, -86.68877775018495, 367.5034073338265],[0,0.924,-0.383,0],[0,0,0,0],[9E+09,9E+09,9E+09,9E+09,9E+09,9E+09]];
CONST robtarget Target_44:=[[266.0735769597547, -84.58612960137981, 361.8963456036795],[0,0.924,-0.383,0],[0,0,0,0],[9E+09,9E+09,9E+09,9E+09,9E+09,9E+09]];
CONST robtarget Target_45:=[[266.44738107509784, -82.48348145257467, 356.28928387353255],[0,0.924,-0.383,0],[0,0,0,0],[9E+09,9E+09,9E+09,9E+09,9E+09,9E+09]];
CONST robtarget Target_46:=[[266.82118519044093, -80.38083330376958, 350.6822221433855],[0,0.924,-0.383,0],[0,0,0,0],[9E+09,9E+09,9E+09,9E+09,9E+09,9E+09]];
CONST robtarget Target_47:=[[267.1949893057841, -78.27818515496449, 345.07516041323856],[0,0.924,-0.383,0],[0,0,0,0],[9E+09,9E+09,9E+09,9E+09,9E+09,9E+09]];
CONST robtarget Target_48:=[[267.5687934211272, -76.17553700615935, 339.4680986830915],[0,0.924,-0.383,0],[0,0,0,0],[9E+09,9E+09,9E+09,9E+09,9E+09,9E+09]];
CONST robtarget Target_49:=[[267.9425975364703, -74.0728888573542, 333.8610369529446],[0,0.924,-0.383,0],[0,0,0,0],[9E+09,9E+09,9E+09,9E+09,9E+09,9E+09]];
CONST robtarget Target_50:=[[268.31640165181346, -71.97024070854911, 328.2539752227976],[0,0.924,-0.383,0],[0,0,0,0],[9E+09,9E+09,9E+09,9E+09,9E+09,9E+09]];
CONST robtarget Target_51:=[[268.6902057671566, -69.86759255974397, 322.6469134926506],[0,0.924,-0.383,0],[0,0,0,0],[9E+09,9E+09,9E+09,9E+09,9E+09,9E+09]];
CONST robtarget Target_52:=[[269.06400988249976, -67.76494441093882, 317.0398517625036],[0,0.924,-0.383,0],[0,0,0,0],[9E+09,9E+09,9E+09,9E+09,9E+09,9E+09]];
CONST robtarget Target_53:=[[269.43781399784285, -65.66229626213374, 311.4327900323566],[0,0.924,-0.383,0],[0,0,0,0],[9E+09,9E+09,9E+09,9E+09,9E+09,9E+09]];
CONST robtarget Target_54:=[[269.811618113186, -63.55964811332859, 305.8257283022096],[0,0.924,-0.383,0],[0,0,0,0],[9E+09,9E+09,9E+09,9E+09,9E+09,9E+09]];
CONST robtarget Target_55:=[[270.18542222852915, -61.456999964523504, 300.21866657206266],[0,0.924,-0.383,0],[0,0,0,0],[9E+09,9E+09,9E+09,9E+09,9E+09,9E+09]];
CONST robtarget Target_56:=[[270.5592263438723, -59.35435181571836, 294.61160484191566],[0,0.924,-0.383,0],[0,0,0,0],[9E+09,9E+09,9E+09,9E+09,9E+09,9E+09]];
CONST robtarget Target_57:=[[270.9330304592154, -57.25170366691327, 289.00454311176867],[0,0.924,-0.383,0],[0,0,0,0],[9E+09,9E+09,9E+09,9E+09,9E+09,9E+09]];
CONST robtarget Target_58:=[[271.30683457455854, -55.14905551810813, 283.3974813816217],[0,0.924,-0.383,0],[0,0,0,0],[9E+09,9E+09,9E+09,9E+09,9E+09,9E+09]];
CONST robtarget Target_59:=[[271.6806386899017, -53.04640736930298, 277.7904196514747],[0,0.924,-0.383,0],[0,0,0,0],[9E+09,9E+09,9E+09,9E+09,9E+09,9E+09]];
CONST robtarget Target_60:=[[272.0544428052448, -50.943759220497896, 272.1833579213277],[0,0.924,-0.383,0],[0,0,0,0],[9E+09,9E+09,9E+09,9E+09,9E+09,9E+09]];
CONST robtarget Target_61:=[[272.4282469205879, -48.84111107169275, 266.5762961911807],[0,0.924,-0.383,0],[0,0,0,0],[9E+09,9E+09,9E+09,9E+09,9E+09,9E+09]];
CONST robtarget Target_62:=[[272.8020510359311, -46.73846292288766, 260.9692344610337],[0,0.924,-0.383,0],[0,0,0,0],[9E+09,9E+09,9E+09,9E+09,9E+09,9E+09]];
CONST robtarget Target_63:=[[273.1758551512742, -44.63581477408252, 255.36217273088673],[0,0.924,-0.383,0],[0,0,0,0],[9E+09,9E+09,9E+09,9E+09,9E+09,9E+09]];
CONST robtarget Target_64:=[[273.5496592666173, -42.53316662527743, 249.75511100073973],[0,0.924,-0.383,0],[0,0,0,0],[9E+09,9E+09,9E+09,9E+09,9E+09,9E+09]];
CONST robtarget Target_65:=[[273.92346338196046, -40.43051847647229, 244.14804927059274],[0,0.924,-0.383,0],[0,0,0,0],[9E+09,9E+09,9E+09,9E+09,9E+09,9E+09]];
CONST robtarget Target_66:=[[274.2972674973036, -38.32787032766714, 238.54098754044577],[0,0.924,-0.383,0],[0,0,0,0],[9E+09,9E+09,9E+09,9E+09,9E+09,9E+09]];
CONST robtarget Target_67:=[[274.67107161264676, -36.225222178862055, 232.93392581029877],[0,0.924,-0.383,0],[0,0,0,0],[9E+09,9E+09,9E+09,9E+09,9E+09,9E+09]];
CONST robtarget Target_68:=[[275.04487572798985, -34.12257403005691, 227.32686408015178],[0,0.924,-0.383,0],[0,0,0,0],[9E+09,9E+09,9E+09,9E+09,9E+09,9E+09]];
CONST robtarget Target_69:=[[275.418679843333, -32.019925881251766, 221.71980235000478],[0,0.924,-0.383,0],[0,0,0,0],[9E+09,9E+09,9E+09,9E+09,9E+09,9E+09]];
CONST robtarget Target_70:=[[275.79248395867614, -29.917277732446678, 216.1127406198578],[0,0.924,-0.383,0],[0,0,0,0],[9E+09,9E+09,9E+09,9E+09,9E+09,9E+09]];
CONST robtarget Target_71:=[[276.16628807401923, -27.814629583641533, 210.50567888971082],[0,0.924,-0.383,0],[0,0,0,0],[9E+09,9E+09,9E+09,9E+09,9E+09,9E+09]];
CONST robtarget Target_72:=[[276.5400921893624, -25.711981434836446, 204.89861715956383],[0,0.924,-0.383,0],[0,0,0,0],[9E+09,9E+09,9E+09,9E+09,9E+09,9E+09]];
CONST robtarget Target_73:=[[276.91389630470553, -23.6093332860313, 199.29155542941683],[0,0.924,-0.383,0],[0,0,0,0],[9E+09,9E+09,9E+09,9E+09,9E+09,9E+09]];
CONST robtarget Target_74:=[[277.2877004200486, -21.506685137226214, 193.68449369926984],[0,0.924,-0.383,0],[0,0,0,0],[9E+09,9E+09,9E+09,9E+09,9E+09,9E+09]];
CONST robtarget Target_75:=[[277.66150453539177, -19.40403698842107, 188.07743196912284],[0,0.924,-0.383,0],[0,0,0,0],[9E+09,9E+09,9E+09,9E+09,9E+09,9E+09]];
CONST robtarget Target_76:=[[278.0353086507349, -17.301388839615925, 182.47037023897587],[0,0.924,-0.383,0],[0,0,0,0],[9E+09,9E+09,9E+09,9E+09,9E+09,9E+09]];
CONST robtarget Target_77:=[[278.40911276607807, -15.198740690810837, 176.86330850882888],[0,0.924,-0.383,0],[0,0,0,0],[9E+09,9E+09,9E+09,9E+09,9E+09,9E+09]];
CONST robtarget Target_78:=[[278.78291688142116, -13.096092542005692, 171.25624677868188],[0,0.924,-0.383,0],[0,0,0,0],[9E+09,9E+09,9E+09,9E+09,9E+09,9E+09]];
CONST robtarget Target_79:=[[279.1567209967643, -10.993444393200605, 165.6491850485349],[0,0.924,-0.383,0],[0,0,0,0],[9E+09,9E+09,9E+09,9E+09,9E+09,9E+09]];
CONST robtarget Target_80:=[[279.53052511210745, -8.89079624439546, 160.04212331838795],[0,0.924,-0.383,0],[0,0,0,0],[9E+09,9E+09,9E+09,9E+09,9E+09,9E+09]];
CONST robtarget Target_81:=[[279.9043292274506, -6.788148095590373, 154.43506158824096],[0,0.924,-0.383,0],[0,0,0,0],[9E+09,9E+09,9E+09,9E+09,9E+09,9E+09]];
CONST robtarget Target_82:=[[280.2781333427937, -4.685499946785228, 148.82799985809393],[0,0.924,-0.383,0],[0,0,0,0],[9E+09,9E+09,9E+09,9E+09,9E+09,9E+09]];
CONST robtarget Target_83:=[[280.65193745813684, -2.582851797980112, 143.22093812794697],[0,0.924,-0.383,0],[0,0,0,0],[9E+09,9E+09,9E+09,9E+09,9E+09,9E+09]];
CONST robtarget Target_84:=[[281.02574157348, -0.4802036491749959, 137.61387639779997],[0,0.924,-0.383,0],[0,0,0,0],[9E+09,9E+09,9E+09,9E+09,9E+09,9E+09]];
CONST robtarget Target_85:=[[281.3995456888231, 1.6224444996301486, 132.00681466765298],[0,0.924,-0.383,0],[0,0,0,0],[9E+09,9E+09,9E+09,9E+09,9E+09,9E+09]];
CONST robtarget Target_86:=[[281.77334980416623, 3.7250926484352647, 126.39975293750598],[0,0.924,-0.383,0],[0,0,0,0],[9E+09,9E+09,9E+09,9E+09,9E+09,9E+09]];
CONST robtarget Target_87:=[[282.1471539195094, 5.827740797240381, 120.79269120735901],[0,0.924,-0.383,0],[0,0,0,0],[9E+09,9E+09,9E+09,9E+09,9E+09,9E+09]];
CONST robtarget Target_88:=[[282.5209580348525, 7.930388946045497, 115.18562947721202],[0,0.924,-0.383,0],[0,0,0,0],[9E+09,9E+09,9E+09,9E+09,9E+09,9E+09]];
CONST robtarget Target_89:=[[282.8947621501956, 10.033037094850613, 109.57856774706504],[0,0.924,-0.383,0],[0,0,0,0],[9E+09,9E+09,9E+09,9E+09,9E+09,9E+09]];
CONST robtarget Target_90:=[[283.26856626553877, 12.135685243655729, 103.97150601691804],[0,0.924,-0.383,0],[0,0,0,0],[9E+09,9E+09,9E+09,9E+09,9E+09,9E+09]];
CONST robtarget Target_91:=[[283.6423703808819, 14.238333392460845, 98.36444428677106],[0,0.924,-0.383,0],[0,0,0,0],[9E+09,9E+09,9E+09,9E+09,9E+09,9E+09]];
CONST robtarget Target_92:=[[284.01617449622506, 16.34098154126599, 92.75738255662407],[0,0.924,-0.383,0],[0,0,0,0],[9E+09,9E+09,9E+09,9E+09,9E+09,9E+09]];
CONST robtarget Target_93:=[[284.38997861156815, 18.443629690071106, 87.15032082647707],[0,0.924,-0.383,0],[0,0,0,0],[9E+09,9E+09,9E+09,9E+09,9E+09,9E+09]];
CONST robtarget Target_94:=[[284.7637827269113, 20.54627783887622, 81.54325909633009],[0,0.924,-0.383,0],[0,0,0,0],[9E+09,9E+09,9E+09,9E+09,9E+09,9E+09]];
CONST robtarget Target_95:=[[285.13758684225445, 22.648925987681338, 75.9361973661831],[0,0.924,-0.383,0],[0,0,0,0],[9E+09,9E+09,9E+09,9E+09,9E+09,9E+09]];
CONST robtarget Target_96:=[[285.51139095759754, 24.751574136486454, 70.32913563603611],[0,0.924,-0.383,0],[0,0,0,0],[9E+09,9E+09,9E+09,9E+09,9E+09,9E+09]];
CONST robtarget Target_97:=[[285.8851950729407, 26.85422228529157, 64.72207390588912],[0,0.924,-0.383,0],[0,0,0,0],[9E+09,9E+09,9E+09,9E+09,9E+09,9E+09]];
CONST robtarget Target_98:=[[286.25899918828384, 28.956870434096686, 59.11501217574213],[0,0.924,-0.383,0],[0,0,0,0],[9E+09,9E+09,9E+09,9E+09,9E+09,9E+09]];
CONST robtarget Target_99:=[[286.63280330362693, 31.05951858290183, 53.50795044559515],[0,0.924,-0.383,0],[0,0,0,0],[9E+09,9E+09,9E+09,9E+09,9E+09,9E+09]];
CONST robtarget Target_100:=[[287.0066074189701, 33.16216673170695, 47.90088871544816],[0,0.924,-0.383,0],[0,0,0,0],[9E+09,9E+09,9E+09,9E+09,9E+09,9E+09]];
CONST robtarget Target_101:=[[287.3804115343132, 35.26481488051206, 42.293826985301166],[0,0.924,-0.383,0],[0,0,0,0],[9E+09,9E+09,9E+09,9E+09,9E+09,9E+09]];
CONST robtarget Target_102:=[[287.7542156496564, 37.36746302931718, 36.68676525515418],[0,0.924,-0.383,0],[0,0,0,0],[9E+09,9E+09,9E+09,9E+09,9E+09,9E+09]];
CONST robtarget Target_103:=[[288.12801976499946, 39.470111178122295, 31.07970352500719],[0,0.924,-0.383,0],[0,0,0,0],[9E+09,9E+09,9E+09,9E+09,9E+09,9E+09]];
CONST robtarget Target_104:=[[288.5018238803426, 41.57275932692744, 25.472641794860202],[0,0.924,-0.383,0],[0,0,0,0],[9E+09,9E+09,9E+09,9E+09,9E+09,9E+09]];
CONST robtarget Target_105:=[[288.87562799568576, 43.675407475732555, 19.865580064713214],[0,0.924,-0.383,0],[0,0,0,0],[9E+09,9E+09,9E+09,9E+09,9E+09,9E+09]];
CONST robtarget Target_106:=[[289.2494321110289, 45.77805562453767, 14.258518334566228],[0,0.924,-0.383,0],[0,0,0,0],[9E+09,9E+09,9E+09,9E+09,9E+09,9E+09]];
CONST robtarget Target_107:=[[289.623236226372, 47.88070377334279, 8.651456604419238],[0,0.924,-0.383,0],[0,0,0,0],[9E+09,9E+09,9E+09,9E+09,9E+09,9E+09]];
CONST robtarget Target_108:=[[289.99704034171515, 49.983351922147904, 3.0443948742722498],[0,0.924,-0.383,0],[0,0,0,0],[9E+09,9E+09,9E+09,9E+09,9E+09,9E+09]];
CONST robtarget Target_109:=[[288.01583534350385, 50.0, 3.0],[0,0.924,-0.383,0],[0,0,0,0],[9E+09,9E+09,9E+09,9E+09,9E+09,9E+09]];
CONST robtarget Target_110:=[[286.01583534350385, 50.0, 3.0],[0,0.924,-0.383,0],[0,0,0,0],[9E+09,9E+09,9E+09,9E+09,9E+09,9E+09]];
CONST robtarget Target_111:=[[284.01583534350385, 50.0, 3.0],[0,0.924,-0.383,0],[0,0,0,0],[9E+09,9E+09,9E+09,9E+09,9E+09,9E+09]];
CONST robtarget Target_112:=[[282.01583534350385, 50.0, 3.0],[0,0.924,-0.383,0],[0,0,0,0],[9E+09,9E+09,9E+09,9E+09,9E+09,9E+09]];
CONST robtarget Target_113:=[[280.01583534350385, 50.0, 3.0],[0,0.924,-0.383,0],[0,0,0,0],[9E+09,9E+09,9E+09,9E+09,9E+09,9E+09]];
CONST robtarget Target_114:=[[278.01583534350385, 50.0, 3.0],[0,0.924,-0.383,0],[0,0,0,0],[9E+09,9E+09,9E+09,9E+09,9E+09,9E+09]];
CONST robtarget Target_115:=[[276.01583534350385, 50.0, 3.0],[0,0.924,-0.383,0],[0,0,0,0],[9E+09,9E+09,9E+09,9E+09,9E+09,9E+09]];
CONST robtarget Target_116:=[[274.01583534350385, 50.0, 3.0],[0,0.924,-0.383,0],[0,0,0,0],[9E+09,9E+09,9E+09,9E+09,9E+09,9E+09]];
CONST robtarget Target_117:=[[272.01583534350385, 50.0, 3.0],[0,0.924,-0.383,0],[0,0,0,0],[9E+09,9E+09,9E+09,9E+09,9E+09,9E+09]];
CONST robtarget Target_118:=[[270.01583534350385, 50.0, 3.0],[0,0.924,-0.383,0],[0,0,0,0],[9E+09,9E+09,9E+09,9E+09,9E+09,9E+09]];
CONST robtarget Target_119:=[[268.01583534350385, 50.0, 3.0],[0,0.924,-0.383,0],[0,0,0,0],[9E+09,9E+09,9E+09,9E+09,9E+09,9E+09]];
CONST robtarget Target_120:=[[266.0158353435039, 50.0, 3.0],[0,0.924,-0.383,0],[0,0,0,0],[9E+09,9E+09,9E+09,9E+09,9E+09,9E+09]];
CONST robtarget Target_121:=[[264.0158353435039, 50.0, 3.0],[0,0.924,-0.383,0],[0,0,0,0],[9E+09,9E+09,9E+09,9E+09,9E+09,9E+09]];
CONST robtarget Target_122:=[[262.0158353435039, 50.0, 3.0],[0,0.924,-0.383,0],[0,0,0,0],[9E+09,9E+09,9E+09,9E+09,9E+09,9E+09]];
CONST robtarget Target_123:=[[260.01583534350385, 50.0, 3.0],[0,0.924,-0.383,0],[0,0,0,0],[9E+09,9E+09,9E+09,9E+09,9E+09,9E+09]];
CONST robtarget Target_124:=[[258.01583534350385, 50.0, 3.0],[0,0.924,-0.383,0],[0,0,0,0],[9E+09,9E+09,9E+09,9E+09,9E+09,9E+09]];
CONST robtarget Target_125:=[[256.0158353435039, 50.0, 3.0],[0,0.924,-0.383,0],[0,0,0,0],[9E+09,9E+09,9E+09,9E+09,9E+09,9E+09]];
CONST robtarget Target_126:=[[254.01583534350388, 50.0, 3.0],[0,0.924,-0.383,0],[0,0,0,0],[9E+09,9E+09,9E+09,9E+09,9E+09,9E+09]];
CONST robtarget Target_127:=[[252.01583534350388, 50.0, 3.0],[0,0.924,-0.383,0],[0,0,0,0],[9E+09,9E+09,9E+09,9E+09,9E+09,9E+09]];
CONST robtarget Target_128:=[[250.01583534350388, 50.0, 3.0],[0,0.924,-0.383,0],[0,0,0,0],[9E+09,9E+09,9E+09,9E+09,9E+09,9E+09]];
CONST robtarget Target_129:=[[248.01583534350388, 50.0, 3.0],[0,0.924,-0.383,0],[0,0,0,0],[9E+09,9E+09,9E+09,9E+09,9E+09,9E+09]];
CONST robtarget Target_130:=[[246.01583534350388, 50.0, 3.0],[0,0.924,-0.383,0],[0,0,0,0],[9E+09,9E+09,9E+09,9E+09,9E+09,9E+09]];
CONST robtarget Target_131:=[[244.01583534350388, 50.0, 3.0],[0,0.924,-0.383,0],[0,0,0,0],[9E+09,9E+09,9E+09,9E+09,9E+09,9E+09]];
CONST robtarget Target_132:=[[242.01583534350388, 50.0, 3.0],[0,0.924,-0.383,0],[0,0,0,0],[9E+09,9E+09,9E+09,9E+09,9E+09,9E+09]];
CONST robtarget Target_133:=[[240.01583534350388, 50.0, 3.0],[0,0.924,-0.383,0],[0,0,0,0],[9E+09,9E+09,9E+09,9E+09,9E+09,9E+09]];
CONST robtarget Target_134:=[[238.01583534350388, 50.0, 3.0],[0,0.924,-0.383,0],[0,0,0,0],[9E+09,9E+09,9E+09,9E+09,9E+09,9E+09]];
CONST robtarget Target_135:=[[236.01583534350388, 50.0, 3.0],[0,0.924,-0.383,0],[0,0,0,0],[9E+09,9E+09,9E+09,9E+09,9E+09,9E+09]];
CONST robtarget Target_136:=[[234.01583534350388, 50.0, 3.0],[0,0.924,-0.383,0],[0,0,0,0],[9E+09,9E+09,9E+09,9E+09,9E+09,9E+09]];
CONST robtarget Target_137:=[[232.01583534350388, 50.0, 3.0],[0,0.924,-0.383,0],[0,0,0,0],[9E+09,9E+09,9E+09,9E+09,9E+09,9E+09]];
CONST robtarget Target_138:=[[230.01583534350388, 50.0, 3.0],[0,0.924,-0.383,0],[0,0,0,0],[9E+09,9E+09,9E+09,9E+09,9E+09,9E+09]];
CONST robtarget Target_139:=[[228.01583534350388, 50.0, 3.0],[0,0.924,-0.383,0],[0,0,0,0],[9E+09,9E+09,9E+09,9E+09,9E+09,9E+09]];
CONST robtarget Target_140:=[[226.01583534350388, 50.0, 3.0],[0,0.924,-0.383,0],[0,0,0,0],[9E+09,9E+09,9E+09,9E+09,9E+09,9E+09]];
CONST robtarget Target_141:=[[224.01583534350388, 50.0, 3.0],[0,0.924,-0.383,0],[0,0,0,0],[9E+09,9E+09,9E+09,9E+09,9E+09,9E+09]];
CONST robtarget Target_142:=[[222.01583534350388, 50.0, 3.0],[0,0.924,-0.383,0],[0,0,0,0],[9E+09,9E+09,9E+09,9E+09,9E+09,9E+09]];
CONST robtarget Target_143:=[[220.01583534350388, 50.0, 3.0],[0,0.924,-0.383,0],[0,0,0,0],[9E+09,9E+09,9E+09,9E+09,9E+09,9E+09]];
CONST robtarget Target_144:=[[218.01583534350388, 50.0, 3.0],[0,0.924,-0.383,0],[0,0,0,0],[9E+09,9E+09,9E+09,9E+09,9E+09,9E+09]];
CONST robtarget Target_145:=[[216.01583534350388, 50.0, 3.0],[0,0.924,-0.383,0],[0,0,0,0],[9E+09,9E+09,9E+09,9E+09,9E+09,9E+09]];
CONST robtarget Target_146:=[[214.01583534350388, 50.0, 3.0],[0,0.924,-0.383,0],[0,0,0,0],[9E+09,9E+09,9E+09,9E+09,9E+09,9E+09]];
CONST robtarget Target_147:=[[212.01583534350388, 50.0, 3.0],[0,0.924,-0.383,0],[0,0,0,0],[9E+09,9E+09,9E+09,9E+09,9E+09,9E+09]];
CONST robtarget Target_148:=[[210.01583534350388, 50.0, 3.0],[0,0.924,-0.383,0],[0,0,0,0],[9E+09,9E+09,9E+09,9E+09,9E+09,9E+09]];
CONST robtarget Target_149:=[[209.99999999999997, 51.98416465649609, 3.0],[0,0.924,-0.383,0],[0,0,0,0],[9E+09,9E+09,9E+09,9E+09,9E+09,9E+09]];
CONST robtarget Target_150:=[[209.99999999999997, 53.98416465649609, 3.0],[0,0.924,-0.383,0],[0,0,0,0],[9E+09,9E+09,9E+09,9E+09,9E+09,9E+09]];
CONST robtarget Target_151:=[[209.99999999999997, 55.98416465649609, 3.0],[0,0.924,-0.383,0],[0,0,0,0],[9E+09,9E+09,9E+09,9E+09,9E+09,9E+09]];
CONST robtarget Target_152:=[[209.99999999999997, 57.98416465649609, 3.0],[0,0.924,-0.383,0],[0,0,0,0],[9E+09,9E+09,9E+09,9E+09,9E+09,9E+09]];
CONST robtarget Target_153:=[[209.99999999999997, 59.98416465649609, 3.0],[0,0.924,-0.383,0],[0,0,0,0],[9E+09,9E+09,9E+09,9E+09,9E+09,9E+09]];
CONST robtarget Target_154:=[[209.99999999999997, 61.98416465649609, 3.0],[0,0.924,-0.383,0],[0,0,0,0],[9E+09,9E+09,9E+09,9E+09,9E+09,9E+09]];
CONST robtarget Target_155:=[[209.99999999999997, 63.98416465649609, 3.0],[0,0.924,-0.383,0],[0,0,0,0],[9E+09,9E+09,9E+09,9E+09,9E+09,9E+09]];
CONST robtarget Target_156:=[[209.99999999999997, 65.98416465649609, 3.0],[0,0.924,-0.383,0],[0,0,0,0],[9E+09,9E+09,9E+09,9E+09,9E+09,9E+09]];
CONST robtarget Target_157:=[[209.99999999999997, 67.98416465649609, 3.0],[0,0.924,-0.383,0],[0,0,0,0],[9E+09,9E+09,9E+09,9E+09,9E+09,9E+09]];
CONST robtarget Target_158:=[[209.99999999999997, 69.98416465649609, 3.0],[0,0.924,-0.383,0],[0,0,0,0],[9E+09,9E+09,9E+09,9E+09,9E+09,9E+09]];
CONST robtarget Target_159:=[[209.99999999999997, 71.98416465649609, 3.0],[0,0.924,-0.383,0],[0,0,0,0],[9E+09,9E+09,9E+09,9E+09,9E+09,9E+09]];
CONST robtarget Target_160:=[[209.99999999999997, 73.98416465649609, 3.0],[0,0.924,-0.383,0],[0,0,0,0],[9E+09,9E+09,9E+09,9E+09,9E+09,9E+09]];
CONST robtarget Target_161:=[[209.99999999999997, 75.98416465649609, 3.0],[0,0.924,-0.383,0],[0,0,0,0],[9E+09,9E+09,9E+09,9E+09,9E+09,9E+09]];
CONST robtarget Target_162:=[[209.99999999999997, 77.98416465649609, 3.0],[0,0.924,-0.383,0],[0,0,0,0],[9E+09,9E+09,9E+09,9E+09,9E+09,9E+09]];
CONST robtarget Target_163:=[[209.99999999999997, 79.98416465649609, 3.0],[0,0.924,-0.383,0],[0,0,0,0],[9E+09,9E+09,9E+09,9E+09,9E+09,9E+09]];
CONST robtarget Target_164:=[[209.99999999999997, 81.98416465649609, 3.0],[0,0.924,-0.383,0],[0,0,0,0],[9E+09,9E+09,9E+09,9E+09,9E+09,9E+09]];
CONST robtarget Target_165:=[[209.99999999999997, 83.98416465649609, 3.0],[0,0.924,-0.383,0],[0,0,0,0],[9E+09,9E+09,9E+09,9E+09,9E+09,9E+09]];
CONST robtarget Target_166:=[[209.99999999999997, 85.98416465649609, 3.0],[0,0.924,-0.383,0],[0,0,0,0],[9E+09,9E+09,9E+09,9E+09,9E+09,9E+09]];
CONST robtarget Target_167:=[[209.99999999999997, 87.98416465649609, 3.0],[0,0.924,-0.383,0],[0,0,0,0],[9E+09,9E+09,9E+09,9E+09,9E+09,9E+09]];
CONST robtarget Target_168:=[[209.99999999999997, 89.98416465649609, 3.0],[0,0.924,-0.383,0],[0,0,0,0],[9E+09,9E+09,9E+09,9E+09,9E+09,9E+09]];
CONST robtarget Target_169:=[[209.99999999999997, 91.98416465649609, 3.0],[0,0.924,-0.383,0],[0,0,0,0],[9E+09,9E+09,9E+09,9E+09,9E+09,9E+09]];
CONST robtarget Target_170:=[[209.99999999999997, 93.98416465649609, 3.0],[0,0.924,-0.383,0],[0,0,0,0],[9E+09,9E+09,9E+09,9E+09,9E+09,9E+09]];
CONST robtarget Target_171:=[[209.99999999999997, 95.98416465649609, 3.0],[0,0.924,-0.383,0],[0,0,0,0],[9E+09,9E+09,9E+09,9E+09,9E+09,9E+09]];
CONST robtarget Target_172:=[[209.99999999999997, 97.98416465649609, 3.0],[0,0.924,-0.383,0],[0,0,0,0],[9E+09,9E+09,9E+09,9E+09,9E+09,9E+09]];
CONST robtarget Target_173:=[[209.99999999999997, 99.98416465649609, 3.0],[0,0.924,-0.383,0],[0,0,0,0],[9E+09,9E+09,9E+09,9E+09,9E+09,9E+09]];
CONST robtarget Target_174:=[[208.0158353435039, 100.0, 3.0],[0,0.924,-0.383,0],[0,0,0,0],[9E+09,9E+09,9E+09,9E+09,9E+09,9E+09]];
CONST robtarget Target_175:=[[206.0158353435039, 100.0, 3.0],[0,0.924,-0.383,0],[0,0,0,0],[9E+09,9E+09,9E+09,9E+09,9E+09,9E+09]];
CONST robtarget Target_176:=[[204.0158353435039, 100.0, 3.0],[0,0.924,-0.383,0],[0,0,0,0],[9E+09,9E+09,9E+09,9E+09,9E+09,9E+09]];
CONST robtarget Target_177:=[[202.0158353435039, 100.0, 3.0],[0,0.924,-0.383,0],[0,0,0,0],[9E+09,9E+09,9E+09,9E+09,9E+09,9E+09]];
CONST robtarget Target_178:=[[200.0158353435039, 100.0, 3.0],[0,0.924,-0.383,0],[0,0,0,0],[9E+09,9E+09,9E+09,9E+09,9E+09,9E+09]];
CONST robtarget Target_179:=[[198.0158353435039, 100.0, 3.0],[0,0.924,-0.383,0],[0,0,0,0],[9E+09,9E+09,9E+09,9E+09,9E+09,9E+09]];
CONST robtarget Target_180:=[[196.0158353435039, 100.0, 3.0],[0,0.924,-0.383,0],[0,0,0,0],[9E+09,9E+09,9E+09,9E+09,9E+09,9E+09]];
CONST robtarget Target_181:=[[194.0158353435039, 100.0, 3.0],[0,0.924,-0.383,0],[0,0,0,0],[9E+09,9E+09,9E+09,9E+09,9E+09,9E+09]];
CONST robtarget Target_182:=[[192.0158353435039, 100.0, 3.0],[0,0.924,-0.383,0],[0,0,0,0],[9E+09,9E+09,9E+09,9E+09,9E+09,9E+09]];
CONST robtarget Target_183:=[[190.0158353435039, 100.0, 3.0],[0,0.924,-0.383,0],[0,0,0,0],[9E+09,9E+09,9E+09,9E+09,9E+09,9E+09]];
CONST robtarget Target_184:=[[188.0158353435039, 100.0, 3.0],[0,0.924,-0.383,0],[0,0,0,0],[9E+09,9E+09,9E+09,9E+09,9E+09,9E+09]];
CONST robtarget Target_185:=[[186.0158353435039, 100.0, 3.0],[0,0.924,-0.383,0],[0,0,0,0],[9E+09,9E+09,9E+09,9E+09,9E+09,9E+09]];
CONST robtarget Target_186:=[[184.0158353435039, 100.0, 3.0],[0,0.924,-0.383,0],[0,0,0,0],[9E+09,9E+09,9E+09,9E+09,9E+09,9E+09]];
CONST robtarget Target_187:=[[182.0158353435039, 100.0, 3.0],[0,0.924,-0.383,0],[0,0,0,0],[9E+09,9E+09,9E+09,9E+09,9E+09,9E+09]];
CONST robtarget Target_188:=[[180.0158353435039, 100.0, 3.0],[0,0.924,-0.383,0],[0,0,0,0],[9E+09,9E+09,9E+09,9E+09,9E+09,9E+09]];
CONST robtarget Target_189:=[[178.0158353435039, 100.0, 3.0],[0,0.924,-0.383,0],[0,0,0,0],[9E+09,9E+09,9E+09,9E+09,9E+09,9E+09]];
CONST robtarget Target_190:=[[176.0158353435039, 100.0, 3.0],[0,0.924,-0.383,0],[0,0,0,0],[9E+09,9E+09,9E+09,9E+09,9E+09,9E+09]];
CONST robtarget Target_191:=[[174.0158353435039, 100.0, 3.0],[0,0.924,-0.383,0],[0,0,0,0],[9E+09,9E+09,9E+09,9E+09,9E+09,9E+09]];
CONST robtarget Target_192:=[[172.0158353435039, 100.0, 3.0],[0,0.924,-0.383,0],[0,0,0,0],[9E+09,9E+09,9E+09,9E+09,9E+09,9E+09]];
CONST robtarget Target_193:=[[170.0158353435039, 100.0, 3.0],[0,0.924,-0.383,0],[0,0,0,0],[9E+09,9E+09,9E+09,9E+09,9E+09,9E+09]];
CONST robtarget Target_194:=[[168.0158353435039, 100.00000000000003, 3.0],[0,0.924,-0.383,0],[0,0,0,0],[9E+09,9E+09,9E+09,9E+09,9E+09,9E+09]];
CONST robtarget Target_195:=[[166.0158353435039, 100.00000000000003, 3.0],[0,0.924,-0.383,0],[0,0,0,0],[9E+09,9E+09,9E+09,9E+09,9E+09,9E+09]];
CONST robtarget Target_196:=[[164.0158353435039, 100.00000000000003, 3.0],[0,0.924,-0.383,0],[0,0,0,0],[9E+09,9E+09,9E+09,9E+09,9E+09,9E+09]];
CONST robtarget Target_197:=[[162.0158353435039, 100.00000000000003, 3.0],[0,0.924,-0.383,0],[0,0,0,0],[9E+09,9E+09,9E+09,9E+09,9E+09,9E+09]];
CONST robtarget Target_198:=[[160.0158353435039, 100.00000000000003, 3.0],[0,0.924,-0.383,0],[0,0,0,0],[9E+09,9E+09,9E+09,9E+09,9E+09,9E+09]];
CONST robtarget Target_199:=[[158.0158353435039, 100.00000000000003, 3.0],[0,0.924,-0.383,0],[0,0,0,0],[9E+09,9E+09,9E+09,9E+09,9E+09,9E+09]];
CONST robtarget Target_200:=[[156.0158353435039, 100.00000000000003, 3.0],[0,0.924,-0.383,0],[0,0,0,0],[9E+09,9E+09,9E+09,9E+09,9E+09,9E+09]];
CONST robtarget Target_201:=[[154.0158353435039, 100.00000000000003, 3.0],[0,0.924,-0.383,0],[0,0,0,0],[9E+09,9E+09,9E+09,9E+09,9E+09,9E+09]];
CONST robtarget Target_202:=[[152.0158353435039, 100.00000000000003, 3.0],[0,0.924,-0.383,0],[0,0,0,0],[9E+09,9E+09,9E+09,9E+09,9E+09,9E+09]];
CONST robtarget Target_203:=[[150.0158353435039, 100.00000000000003, 3.0],[0,0.924,-0.383,0],[0,0,0,0],[9E+09,9E+09,9E+09,9E+09,9E+09,9E+09]];
CONST robtarget Target_204:=[[148.0158353435039, 100.00000000000003, 3.0],[0,0.924,-0.383,0],[0,0,0,0],[9E+09,9E+09,9E+09,9E+09,9E+09,9E+09]];
CONST robtarget Target_205:=[[146.0158353435039, 100.00000000000003, 3.0],[0,0.924,-0.383,0],[0,0,0,0],[9E+09,9E+09,9E+09,9E+09,9E+09,9E+09]];
CONST robtarget Target_206:=[[144.0158353435039, 100.00000000000003, 3.0],[0,0.924,-0.383,0],[0,0,0,0],[9E+09,9E+09,9E+09,9E+09,9E+09,9E+09]];
CONST robtarget Target_207:=[[142.0158353435039, 100.00000000000003, 3.0],[0,0.924,-0.383,0],[0,0,0,0],[9E+09,9E+09,9E+09,9E+09,9E+09,9E+09]];
CONST robtarget Target_208:=[[140.0158353435039, 100.00000000000003, 3.0],[0,0.924,-0.383,0],[0,0,0,0],[9E+09,9E+09,9E+09,9E+09,9E+09,9E+09]];
CONST robtarget Target_209:=[[138.0158353435039, 100.00000000000003, 3.0],[0,0.924,-0.383,0],[0,0,0,0],[9E+09,9E+09,9E+09,9E+09,9E+09,9E+09]];
CONST robtarget Target_210:=[[136.0158353435039, 100.00000000000003, 3.0],[0,0.924,-0.383,0],[0,0,0,0],[9E+09,9E+09,9E+09,9E+09,9E+09,9E+09]];
CONST robtarget Target_211:=[[134.0158353435039, 100.00000000000003, 3.0],[0,0.924,-0.383,0],[0,0,0,0],[9E+09,9E+09,9E+09,9E+09,9E+09,9E+09]];
CONST robtarget Target_212:=[[132.0158353435039, 100.00000000000003, 3.0],[0,0.924,-0.383,0],[0,0,0,0],[9E+09,9E+09,9E+09,9E+09,9E+09,9E+09]];
CONST robtarget Target_213:=[[130.0158353435039, 100.00000000000003, 3.0],[0,0.924,-0.383,0],[0,0,0,0],[9E+09,9E+09,9E+09,9E+09,9E+09,9E+09]];
CONST robtarget Target_214:=[[130.0, 98.01583534350394, 3.0],[0,0.924,-0.383,0],[0,0,0,0],[9E+09,9E+09,9E+09,9E+09,9E+09,9E+09]];
CONST robtarget Target_215:=[[130.0, 96.01583534350394, 3.0],[0,0.924,-0.383,0],[0,0,0,0],[9E+09,9E+09,9E+09,9E+09,9E+09,9E+09]];
CONST robtarget Target_216:=[[130.0, 94.01583534350394, 3.0],[0,0.924,-0.383,0],[0,0,0,0],[9E+09,9E+09,9E+09,9E+09,9E+09,9E+09]];
CONST robtarget Target_217:=[[130.0, 92.01583534350394, 3.0],[0,0.924,-0.383,0],[0,0,0,0],[9E+09,9E+09,9E+09,9E+09,9E+09,9E+09]];
CONST robtarget Target_218:=[[130.0, 90.01583534350394, 3.0],[0,0.924,-0.383,0],[0,0,0,0],[9E+09,9E+09,9E+09,9E+09,9E+09,9E+09]];
CONST robtarget Target_219:=[[130.0, 88.01583534350394, 3.0],[0,0.924,-0.383,0],[0,0,0,0],[9E+09,9E+09,9E+09,9E+09,9E+09,9E+09]];
CONST robtarget Target_220:=[[130.0, 86.01583534350394, 3.0],[0,0.924,-0.383,0],[0,0,0,0],[9E+09,9E+09,9E+09,9E+09,9E+09,9E+09]];
CONST robtarget Target_221:=[[130.0, 84.01583534350394, 3.0],[0,0.924,-0.383,0],[0,0,0,0],[9E+09,9E+09,9E+09,9E+09,9E+09,9E+09]];
CONST robtarget Target_222:=[[130.0, 82.01583534350394, 3.0],[0,0.924,-0.383,0],[0,0,0,0],[9E+09,9E+09,9E+09,9E+09,9E+09,9E+09]];
CONST robtarget Target_223:=[[130.0, 80.01583534350394, 3.0],[0,0.924,-0.383,0],[0,0,0,0],[9E+09,9E+09,9E+09,9E+09,9E+09,9E+09]];
CONST robtarget Target_224:=[[130.0, 78.01583534350394, 3.0],[0,0.924,-0.383,0],[0,0,0,0],[9E+09,9E+09,9E+09,9E+09,9E+09,9E+09]];
CONST robtarget Target_225:=[[130.0, 76.01583534350394, 3.0],[0,0.924,-0.383,0],[0,0,0,0],[9E+09,9E+09,9E+09,9E+09,9E+09,9E+09]];
CONST robtarget Target_226:=[[129.99999999999997, 74.01583534350394, 3.0],[0,0.924,-0.383,0],[0,0,0,0],[9E+09,9E+09,9E+09,9E+09,9E+09,9E+09]];
CONST robtarget Target_227:=[[129.99999999999997, 72.01583534350394, 3.0],[0,0.924,-0.383,0],[0,0,0,0],[9E+09,9E+09,9E+09,9E+09,9E+09,9E+09]];
CONST robtarget Target_228:=[[129.99999999999997, 70.01583534350394, 3.0],[0,0.924,-0.383,0],[0,0,0,0],[9E+09,9E+09,9E+09,9E+09,9E+09,9E+09]];
CONST robtarget Target_229:=[[129.99999999999997, 68.01583534350394, 3.0],[0,0.924,-0.383,0],[0,0,0,0],[9E+09,9E+09,9E+09,9E+09,9E+09,9E+09]];
CONST robtarget Target_230:=[[129.99999999999997, 66.01583534350394, 3.0],[0,0.924,-0.383,0],[0,0,0,0],[9E+09,9E+09,9E+09,9E+09,9E+09,9E+09]];
CONST robtarget Target_231:=[[129.99999999999997, 64.01583534350394, 3.0],[0,0.924,-0.383,0],[0,0,0,0],[9E+09,9E+09,9E+09,9E+09,9E+09,9E+09]];
CONST robtarget Target_232:=[[129.99999999999997, 62.01583534350394, 3.0],[0,0.924,-0.383,0],[0,0,0,0],[9E+09,9E+09,9E+09,9E+09,9E+09,9E+09]];
CONST robtarget Target_233:=[[129.99999999999997, 60.01583534350394, 3.0],[0,0.924,-0.383,0],[0,0,0,0],[9E+09,9E+09,9E+09,9E+09,9E+09,9E+09]];
CONST robtarget Target_234:=[[129.99999999999997, 58.01583534350394, 3.0],[0,0.924,-0.383,0],[0,0,0,0],[9E+09,9E+09,9E+09,9E+09,9E+09,9E+09]];
CONST robtarget Target_235:=[[129.99999999999997, 56.01583534350394, 3.0],[0,0.924,-0.383,0],[0,0,0,0],[9E+09,9E+09,9E+09,9E+09,9E+09,9E+09]];
CONST robtarget Target_236:=[[129.99999999999997, 54.01583534350394, 3.0],[0,0.924,-0.383,0],[0,0,0,0],[9E+09,9E+09,9E+09,9E+09,9E+09,9E+09]];
CONST robtarget Target_237:=[[129.99999999999997, 52.01583534350394, 3.0],[0,0.924,-0.383,0],[0,0,0,0],[9E+09,9E+09,9E+09,9E+09,9E+09,9E+09]];
CONST robtarget Target_238:=[[129.99999999999997, 50.01583534350394, 3.0],[0,0.924,-0.383,0],[0,0,0,0],[9E+09,9E+09,9E+09,9E+09,9E+09,9E+09]];
CONST robtarget Target_239:=[[128.01583534350388, 50.00000000000003, 3.0],[0,0.924,-0.383,0],[0,0,0,0],[9E+09,9E+09,9E+09,9E+09,9E+09,9E+09]];
CONST robtarget Target_240:=[[126.01583534350388, 50.00000000000003, 3.0],[0,0.924,-0.383,0],[0,0,0,0],[9E+09,9E+09,9E+09,9E+09,9E+09,9E+09]];
CONST robtarget Target_241:=[[124.01583534350388, 50.00000000000003, 3.0],[0,0.924,-0.383,0],[0,0,0,0],[9E+09,9E+09,9E+09,9E+09,9E+09,9E+09]];
CONST robtarget Target_242:=[[122.01583534350388, 50.00000000000003, 3.0],[0,0.924,-0.383,0],[0,0,0,0],[9E+09,9E+09,9E+09,9E+09,9E+09,9E+09]];
CONST robtarget Target_243:=[[120.01583534350388, 50.00000000000003, 3.0],[0,0.924,-0.383,0],[0,0,0,0],[9E+09,9E+09,9E+09,9E+09,9E+09,9E+09]];
CONST robtarget Target_244:=[[118.01583534350388, 50.00000000000003, 3.0],[0,0.924,-0.383,0],[0,0,0,0],[9E+09,9E+09,9E+09,9E+09,9E+09,9E+09]];
CONST robtarget Target_245:=[[116.01583534350388, 50.00000000000003, 3.0],[0,0.924,-0.383,0],[0,0,0,0],[9E+09,9E+09,9E+09,9E+09,9E+09,9E+09]];
CONST robtarget Target_246:=[[114.01583534350388, 50.00000000000003, 3.0],[0,0.924,-0.383,0],[0,0,0,0],[9E+09,9E+09,9E+09,9E+09,9E+09,9E+09]];
CONST robtarget Target_247:=[[112.01583534350388, 50.00000000000003, 3.0],[0,0.924,-0.383,0],[0,0,0,0],[9E+09,9E+09,9E+09,9E+09,9E+09,9E+09]];
CONST robtarget Target_248:=[[110.01583534350388, 50.00000000000003, 3.0],[0,0.924,-0.383,0],[0,0,0,0],[9E+09,9E+09,9E+09,9E+09,9E+09,9E+09]];
CONST robtarget Target_249:=[[108.01583534350388, 50.00000000000003, 3.0],[0,0.924,-0.383,0],[0,0,0,0],[9E+09,9E+09,9E+09,9E+09,9E+09,9E+09]];
CONST robtarget Target_250:=[[106.01583534350388, 50.00000000000003, 3.0],[0,0.924,-0.383,0],[0,0,0,0],[9E+09,9E+09,9E+09,9E+09,9E+09,9E+09]];
CONST robtarget Target_251:=[[104.01583534350388, 50.00000000000003, 3.0],[0,0.924,-0.383,0],[0,0,0,0],[9E+09,9E+09,9E+09,9E+09,9E+09,9E+09]];
CONST robtarget Target_252:=[[102.01583534350388, 50.00000000000003, 3.0],[0,0.924,-0.383,0],[0,0,0,0],[9E+09,9E+09,9E+09,9E+09,9E+09,9E+09]];
CONST robtarget Target_253:=[[100.01583534350388, 50.00000000000003, 3.0],[0,0.924,-0.383,0],[0,0,0,0],[9E+09,9E+09,9E+09,9E+09,9E+09,9E+09]];
CONST robtarget Target_254:=[[98.01583534350388, 50.00000000000003, 3.0],[0,0.924,-0.383,0],[0,0,0,0],[9E+09,9E+09,9E+09,9E+09,9E+09,9E+09]];
CONST robtarget Target_255:=[[96.01583534350388, 50.00000000000003, 3.0],[0,0.924,-0.383,0],[0,0,0,0],[9E+09,9E+09,9E+09,9E+09,9E+09,9E+09]];
CONST robtarget Target_256:=[[94.01583534350388, 50.00000000000003, 3.0],[0,0.924,-0.383,0],[0,0,0,0],[9E+09,9E+09,9E+09,9E+09,9E+09,9E+09]];
CONST robtarget Target_257:=[[92.01583534350388, 50.00000000000003, 3.0],[0,0.924,-0.383,0],[0,0,0,0],[9E+09,9E+09,9E+09,9E+09,9E+09,9E+09]];
CONST robtarget Target_258:=[[90.01583534350388, 50.00000000000003, 3.0],[0,0.924,-0.383,0],[0,0,0,0],[9E+09,9E+09,9E+09,9E+09,9E+09,9E+09]];
CONST robtarget Target_259:=[[88.01583534350388, 50.00000000000003, 3.0],[0,0.924,-0.383,0],[0,0,0,0],[9E+09,9E+09,9E+09,9E+09,9E+09,9E+09]];
CONST robtarget Target_260:=[[86.01583534350388, 50.00000000000003, 3.0],[0,0.924,-0.383,0],[0,0,0,0],[9E+09,9E+09,9E+09,9E+09,9E+09,9E+09]];
CONST robtarget Target_261:=[[84.01583534350388, 50.00000000000003, 3.0],[0,0.924,-0.383,0],[0,0,0,0],[9E+09,9E+09,9E+09,9E+09,9E+09,9E+09]];
CONST robtarget Target_262:=[[82.01583534350388, 50.00000000000003, 3.0],[0,0.924,-0.383,0],[0,0,0,0],[9E+09,9E+09,9E+09,9E+09,9E+09,9E+09]];
CONST robtarget Target_263:=[[80.01583534350388, 50.00000000000003, 3.0],[0,0.924,-0.383,0],[0,0,0,0],[9E+09,9E+09,9E+09,9E+09,9E+09,9E+09]];
CONST robtarget Target_264:=[[78.01583534350388, 50.00000000000003, 3.0],[0,0.924,-0.383,0],[0,0,0,0],[9E+09,9E+09,9E+09,9E+09,9E+09,9E+09]];
CONST robtarget Target_265:=[[76.01583534350388, 50.00000000000003, 3.0],[0,0.924,-0.383,0],[0,0,0,0],[9E+09,9E+09,9E+09,9E+09,9E+09,9E+09]];
CONST robtarget Target_266:=[[74.01583534350388, 50.00000000000003, 3.0],[0,0.924,-0.383,0],[0,0,0,0],[9E+09,9E+09,9E+09,9E+09,9E+09,9E+09]];
CONST robtarget Target_267:=[[72.01583534350388, 50.00000000000003, 3.0],[0,0.924,-0.383,0],[0,0,0,0],[9E+09,9E+09,9E+09,9E+09,9E+09,9E+09]];
CONST robtarget Target_268:=[[70.01583534350388, 50.00000000000003, 3.0],[0,0.924,-0.383,0],[0,0,0,0],[9E+09,9E+09,9E+09,9E+09,9E+09,9E+09]];
CONST robtarget Target_269:=[[68.01583534350388, 50.00000000000003, 3.0],[0,0.924,-0.383,0],[0,0,0,0],[9E+09,9E+09,9E+09,9E+09,9E+09,9E+09]];
CONST robtarget Target_270:=[[66.01583534350388, 50.00000000000003, 3.0],[0,0.924,-0.383,0],[0,0,0,0],[9E+09,9E+09,9E+09,9E+09,9E+09,9E+09]];
CONST robtarget Target_271:=[[64.01583534350388, 50.00000000000003, 3.0],[0,0.924,-0.383,0],[0,0,0,0],[9E+09,9E+09,9E+09,9E+09,9E+09,9E+09]];
CONST robtarget Target_272:=[[62.01583534350388, 50.00000000000003, 3.0],[0,0.924,-0.383,0],[0,0,0,0],[9E+09,9E+09,9E+09,9E+09,9E+09,9E+09]];
CONST robtarget Target_273:=[[60.01583534350388, 50.00000000000003, 3.0],[0,0.924,-0.383,0],[0,0,0,0],[9E+09,9E+09,9E+09,9E+09,9E+09,9E+09]];
CONST robtarget Target_274:=[[58.01583534350388, 50.00000000000003, 3.0],[0,0.924,-0.383,0],[0,0,0,0],[9E+09,9E+09,9E+09,9E+09,9E+09,9E+09]];
CONST robtarget Target_275:=[[56.01583534350388, 50.00000000000003, 3.0],[0,0.924,-0.383,0],[0,0,0,0],[9E+09,9E+09,9E+09,9E+09,9E+09,9E+09]];
CONST robtarget Target_276:=[[54.01583534350388, 50.00000000000003, 3.0],[0,0.924,-0.383,0],[0,0,0,0],[9E+09,9E+09,9E+09,9E+09,9E+09,9E+09]];
CONST robtarget Target_277:=[[52.01583534350388, 50.00000000000003, 3.0],[0,0.924,-0.383,0],[0,0,0,0],[9E+09,9E+09,9E+09,9E+09,9E+09,9E+09]];
CONST robtarget Target_278:=[[50.01583534350388, 50.00000000000003, 3.0],[0,0.924,-0.383,0],[0,0,0,0],[9E+09,9E+09,9E+09,9E+09,9E+09,9E+09]];
CONST robtarget Target_279:=[[49.99999999999997, 51.98416465649612, 3.0],[0,0.924,-0.383,0],[0,0,0,0],[9E+09,9E+09,9E+09,9E+09,9E+09,9E+09]];
CONST robtarget Target_280:=[[49.99999999999997, 53.98416465649612, 3.0],[0,0.924,-0.383,0],[0,0,0,0],[9E+09,9E+09,9E+09,9E+09,9E+09,9E+09]];
CONST robtarget Target_281:=[[49.99999999999997, 55.98416465649612, 3.0],[0,0.924,-0.383,0],[0,0,0,0],[9E+09,9E+09,9E+09,9E+09,9E+09,9E+09]];
CONST robtarget Target_282:=[[49.99999999999997, 57.98416465649612, 3.0],[0,0.924,-0.383,0],[0,0,0,0],[9E+09,9E+09,9E+09,9E+09,9E+09,9E+09]];
CONST robtarget Target_283:=[[49.99999999999997, 59.98416465649612, 3.0],[0,0.924,-0.383,0],[0,0,0,0],[9E+09,9E+09,9E+09,9E+09,9E+09,9E+09]];
CONST robtarget Target_284:=[[49.99999999999997, 61.98416465649612, 3.0],[0,0.924,-0.383,0],[0,0,0,0],[9E+09,9E+09,9E+09,9E+09,9E+09,9E+09]];
CONST robtarget Target_285:=[[49.99999999999997, 63.98416465649612, 3.0],[0,0.924,-0.383,0],[0,0,0,0],[9E+09,9E+09,9E+09,9E+09,9E+09,9E+09]];
CONST robtarget Target_286:=[[49.99999999999997, 65.98416465649612, 3.0],[0,0.924,-0.383,0],[0,0,0,0],[9E+09,9E+09,9E+09,9E+09,9E+09,9E+09]];
CONST robtarget Target_287:=[[49.99999999999997, 67.98416465649612, 3.0],[0,0.924,-0.383,0],[0,0,0,0],[9E+09,9E+09,9E+09,9E+09,9E+09,9E+09]];
CONST robtarget Target_288:=[[49.99999999999997, 69.98416465649612, 3.0],[0,0.924,-0.383,0],[0,0,0,0],[9E+09,9E+09,9E+09,9E+09,9E+09,9E+09]];
CONST robtarget Target_289:=[[49.99999999999997, 71.98416465649612, 3.0],[0,0.924,-0.383,0],[0,0,0,0],[9E+09,9E+09,9E+09,9E+09,9E+09,9E+09]];
CONST robtarget Target_290:=[[49.99999999999997, 73.98416465649612, 3.0],[0,0.924,-0.383,0],[0,0,0,0],[9E+09,9E+09,9E+09,9E+09,9E+09,9E+09]];
CONST robtarget Target_291:=[[49.99999999999997, 75.98416465649612, 3.0],[0,0.924,-0.383,0],[0,0,0,0],[9E+09,9E+09,9E+09,9E+09,9E+09,9E+09]];
CONST robtarget Target_292:=[[49.99999999999997, 77.98416465649612, 3.0],[0,0.924,-0.383,0],[0,0,0,0],[9E+09,9E+09,9E+09,9E+09,9E+09,9E+09]];
CONST robtarget Target_293:=[[49.99999999999997, 79.98416465649612, 3.0],[0,0.924,-0.383,0],[0,0,0,0],[9E+09,9E+09,9E+09,9E+09,9E+09,9E+09]];
CONST robtarget Target_294:=[[49.99999999999997, 81.98416465649612, 3.0],[0,0.924,-0.383,0],[0,0,0,0],[9E+09,9E+09,9E+09,9E+09,9E+09,9E+09]];
CONST robtarget Target_295:=[[49.99999999999997, 83.98416465649612, 3.0],[0,0.924,-0.383,0],[0,0,0,0],[9E+09,9E+09,9E+09,9E+09,9E+09,9E+09]];
CONST robtarget Target_296:=[[49.99999999999997, 85.98416465649612, 3.0],[0,0.924,-0.383,0],[0,0,0,0],[9E+09,9E+09,9E+09,9E+09,9E+09,9E+09]];
CONST robtarget Target_297:=[[49.99999999999997, 87.98416465649612, 3.0],[0,0.924,-0.383,0],[0,0,0,0],[9E+09,9E+09,9E+09,9E+09,9E+09,9E+09]];
CONST robtarget Target_298:=[[49.99999999999997, 89.98416465649612, 3.0],[0,0.924,-0.383,0],[0,0,0,0],[9E+09,9E+09,9E+09,9E+09,9E+09,9E+09]];
CONST robtarget Target_299:=[[49.99999999999997, 91.98416465649612, 3.0],[0,0.924,-0.383,0],[0,0,0,0],[9E+09,9E+09,9E+09,9E+09,9E+09,9E+09]];
CONST robtarget Target_300:=[[49.99999999999997, 93.98416465649612, 3.0],[0,0.924,-0.383,0],[0,0,0,0],[9E+09,9E+09,9E+09,9E+09,9E+09,9E+09]];
CONST robtarget Target_301:=[[49.99999999999997, 95.98416465649612, 3.0],[0,0.924,-0.383,0],[0,0,0,0],[9E+09,9E+09,9E+09,9E+09,9E+09,9E+09]];
CONST robtarget Target_302:=[[49.99999999999997, 97.98416465649612, 3.0],[0,0.924,-0.383,0],[0,0,0,0],[9E+09,9E+09,9E+09,9E+09,9E+09,9E+09]];
CONST robtarget Target_303:=[[49.99999999999997, 99.98416465649612, 3.0],[0,0.924,-0.383,0],[0,0,0,0],[9E+09,9E+09,9E+09,9E+09,9E+09,9E+09]];
CONST robtarget Target_304:=[[49.99999999999997, 101.98416465649612, 3.0],[0,0.924,-0.383,0],[0,0,0,0],[9E+09,9E+09,9E+09,9E+09,9E+09,9E+09]];
CONST robtarget Target_305:=[[49.99999999999997, 103.98416465649612, 3.0],[0,0.924,-0.383,0],[0,0,0,0],[9E+09,9E+09,9E+09,9E+09,9E+09,9E+09]];
CONST robtarget Target_306:=[[49.99999999999997, 105.98416465649612, 3.0],[0,0.924,-0.383,0],[0,0,0,0],[9E+09,9E+09,9E+09,9E+09,9E+09,9E+09]];
CONST robtarget Target_307:=[[49.99999999999997, 107.98416465649612, 3.0],[0,0.924,-0.383,0],[0,0,0,0],[9E+09,9E+09,9E+09,9E+09,9E+09,9E+09]];
CONST robtarget Target_308:=[[49.99999999999997, 109.98416465649612, 3.0],[0,0.924,-0.383,0],[0,0,0,0],[9E+09,9E+09,9E+09,9E+09,9E+09,9E+09]];
CONST robtarget Target_309:=[[49.99999999999997, 111.98416465649612, 3.0],[0,0.924,-0.383,0],[0,0,0,0],[9E+09,9E+09,9E+09,9E+09,9E+09,9E+09]];
CONST robtarget Target_310:=[[49.99999999999997, 113.98416465649612, 3.0],[0,0.924,-0.383,0],[0,0,0,0],[9E+09,9E+09,9E+09,9E+09,9E+09,9E+09]];
CONST robtarget Target_311:=[[49.99999999999997, 115.98416465649612, 3.0],[0,0.924,-0.383,0],[0,0,0,0],[9E+09,9E+09,9E+09,9E+09,9E+09,9E+09]];
CONST robtarget Target_312:=[[49.99999999999997, 117.98416465649612, 3.0],[0,0.924,-0.383,0],[0,0,0,0],[9E+09,9E+09,9E+09,9E+09,9E+09,9E+09]];
CONST robtarget Target_313:=[[49.99999999999997, 119.98416465649612, 3.0],[0,0.924,-0.383,0],[0,0,0,0],[9E+09,9E+09,9E+09,9E+09,9E+09,9E+09]];
CONST robtarget Target_314:=[[49.99999999999997, 121.98416465649612, 3.0],[0,0.924,-0.383,0],[0,0,0,0],[9E+09,9E+09,9E+09,9E+09,9E+09,9E+09]];
CONST robtarget Target_315:=[[49.99999999999997, 123.98416465649612, 3.0],[0,0.924,-0.383,0],[0,0,0,0],[9E+09,9E+09,9E+09,9E+09,9E+09,9E+09]];
CONST robtarget Target_316:=[[49.99999999999997, 125.98416465649612, 3.0],[0,0.924,-0.383,0],[0,0,0,0],[9E+09,9E+09,9E+09,9E+09,9E+09,9E+09]];
CONST robtarget Target_317:=[[49.99999999999997, 127.98416465649612, 3.0],[0,0.924,-0.383,0],[0,0,0,0],[9E+09,9E+09,9E+09,9E+09,9E+09,9E+09]];
CONST robtarget Target_318:=[[49.99999999999997, 129.98416465649612, 3.0],[0,0.924,-0.383,0],[0,0,0,0],[9E+09,9E+09,9E+09,9E+09,9E+09,9E+09]];
CONST robtarget Target_319:=[[51.98416465649606, 130.00000000000003, 3.0],[0,0.924,-0.383,0],[0,0,0,0],[9E+09,9E+09,9E+09,9E+09,9E+09,9E+09]];
CONST robtarget Target_320:=[[53.98416465649606, 130.00000000000003, 3.0],[0,0.924,-0.383,0],[0,0,0,0],[9E+09,9E+09,9E+09,9E+09,9E+09,9E+09]];
CONST robtarget Target_321:=[[55.98416465649606, 130.00000000000003, 3.0],[0,0.924,-0.383,0],[0,0,0,0],[9E+09,9E+09,9E+09,9E+09,9E+09,9E+09]];
CONST robtarget Target_322:=[[57.98416465649606, 130.00000000000003, 3.0],[0,0.924,-0.383,0],[0,0,0,0],[9E+09,9E+09,9E+09,9E+09,9E+09,9E+09]];
CONST robtarget Target_323:=[[59.98416465649606, 130.00000000000003, 3.0],[0,0.924,-0.383,0],[0,0,0,0],[9E+09,9E+09,9E+09,9E+09,9E+09,9E+09]];
CONST robtarget Target_324:=[[61.98416465649606, 130.00000000000003, 3.0],[0,0.924,-0.383,0],[0,0,0,0],[9E+09,9E+09,9E+09,9E+09,9E+09,9E+09]];
CONST robtarget Target_325:=[[63.98416465649606, 130.00000000000003, 3.0],[0,0.924,-0.383,0],[0,0,0,0],[9E+09,9E+09,9E+09,9E+09,9E+09,9E+09]];
CONST robtarget Target_326:=[[65.98416465649606, 130.00000000000003, 3.0],[0,0.924,-0.383,0],[0,0,0,0],[9E+09,9E+09,9E+09,9E+09,9E+09,9E+09]];
CONST robtarget Target_327:=[[67.98416465649606, 130.00000000000003, 3.0],[0,0.924,-0.383,0],[0,0,0,0],[9E+09,9E+09,9E+09,9E+09,9E+09,9E+09]];
CONST robtarget Target_328:=[[69.98416465649606, 130.00000000000003, 3.0],[0,0.924,-0.383,0],[0,0,0,0],[9E+09,9E+09,9E+09,9E+09,9E+09,9E+09]];
CONST robtarget Target_329:=[[71.98416465649606, 130.00000000000003, 3.0],[0,0.924,-0.383,0],[0,0,0,0],[9E+09,9E+09,9E+09,9E+09,9E+09,9E+09]];
CONST robtarget Target_330:=[[73.98416465649606, 130.00000000000003, 3.0],[0,0.924,-0.383,0],[0,0,0,0],[9E+09,9E+09,9E+09,9E+09,9E+09,9E+09]];
CONST robtarget Target_331:=[[75.98416465649606, 130.0, 3.0],[0,0.924,-0.383,0],[0,0,0,0],[9E+09,9E+09,9E+09,9E+09,9E+09,9E+09]];
CONST robtarget Target_332:=[[77.98416465649606, 130.0, 3.0],[0,0.924,-0.383,0],[0,0,0,0],[9E+09,9E+09,9E+09,9E+09,9E+09,9E+09]];
CONST robtarget Target_333:=[[79.98416465649606, 130.0, 3.0],[0,0.924,-0.383,0],[0,0,0,0],[9E+09,9E+09,9E+09,9E+09,9E+09,9E+09]];
CONST robtarget Target_334:=[[81.98416465649606, 130.0, 3.0],[0,0.924,-0.383,0],[0,0,0,0],[9E+09,9E+09,9E+09,9E+09,9E+09,9E+09]];
CONST robtarget Target_335:=[[83.98416465649606, 130.0, 3.0],[0,0.924,-0.383,0],[0,0,0,0],[9E+09,9E+09,9E+09,9E+09,9E+09,9E+09]];
CONST robtarget Target_336:=[[85.98416465649606, 130.0, 3.0],[0,0.924,-0.383,0],[0,0,0,0],[9E+09,9E+09,9E+09,9E+09,9E+09,9E+09]];
CONST robtarget Target_337:=[[87.98416465649606, 130.0, 3.0],[0,0.924,-0.383,0],[0,0,0,0],[9E+09,9E+09,9E+09,9E+09,9E+09,9E+09]];
CONST robtarget Target_338:=[[89.98416465649606, 130.0, 3.0],[0,0.924,-0.383,0],[0,0,0,0],[9E+09,9E+09,9E+09,9E+09,9E+09,9E+09]];
CONST robtarget Target_339:=[[91.98416465649606, 130.0, 3.0],[0,0.924,-0.383,0],[0,0,0,0],[9E+09,9E+09,9E+09,9E+09,9E+09,9E+09]];
CONST robtarget Target_340:=[[93.98416465649606, 130.0, 3.0],[0,0.924,-0.383,0],[0,0,0,0],[9E+09,9E+09,9E+09,9E+09,9E+09,9E+09]];
CONST robtarget Target_341:=[[95.98416465649606, 130.0, 3.0],[0,0.924,-0.383,0],[0,0,0,0],[9E+09,9E+09,9E+09,9E+09,9E+09,9E+09]];
CONST robtarget Target_342:=[[97.98416465649606, 130.0, 3.0],[0,0.924,-0.383,0],[0,0,0,0],[9E+09,9E+09,9E+09,9E+09,9E+09,9E+09]];
CONST robtarget Target_343:=[[99.98416465649606, 130.0, 3.0],[0,0.924,-0.383,0],[0,0,0,0],[9E+09,9E+09,9E+09,9E+09,9E+09,9E+09]];
CONST robtarget Target_344:=[[99.99999999999997, 131.98416465649612, 3.0],[0,0.924,-0.383,0],[0,0,0,0],[9E+09,9E+09,9E+09,9E+09,9E+09,9E+09]];
CONST robtarget Target_345:=[[99.99999999999997, 133.98416465649612, 3.0],[0,0.924,-0.383,0],[0,0,0,0],[9E+09,9E+09,9E+09,9E+09,9E+09,9E+09]];
CONST robtarget Target_346:=[[99.99999999999997, 135.98416465649612, 3.0],[0,0.924,-0.383,0],[0,0,0,0],[9E+09,9E+09,9E+09,9E+09,9E+09,9E+09]];
CONST robtarget Target_347:=[[99.99999999999997, 137.98416465649612, 3.0],[0,0.924,-0.383,0],[0,0,0,0],[9E+09,9E+09,9E+09,9E+09,9E+09,9E+09]];
CONST robtarget Target_348:=[[99.99999999999997, 139.98416465649612, 3.0],[0,0.924,-0.383,0],[0,0,0,0],[9E+09,9E+09,9E+09,9E+09,9E+09,9E+09]];
CONST robtarget Target_349:=[[99.99999999999997, 141.98416465649612, 3.0],[0,0.924,-0.383,0],[0,0,0,0],[9E+09,9E+09,9E+09,9E+09,9E+09,9E+09]];
CONST robtarget Target_350:=[[99.99999999999997, 143.98416465649612, 3.0],[0,0.924,-0.383,0],[0,0,0,0],[9E+09,9E+09,9E+09,9E+09,9E+09,9E+09]];
CONST robtarget Target_351:=[[99.99999999999997, 145.98416465649612, 3.0],[0,0.924,-0.383,0],[0,0,0,0],[9E+09,9E+09,9E+09,9E+09,9E+09,9E+09]];
CONST robtarget Target_352:=[[99.99999999999997, 147.98416465649612, 3.0],[0,0.924,-0.383,0],[0,0,0,0],[9E+09,9E+09,9E+09,9E+09,9E+09,9E+09]];
CONST robtarget Target_353:=[[99.99999999999997, 149.98416465649612, 3.0],[0,0.924,-0.383,0],[0,0,0,0],[9E+09,9E+09,9E+09,9E+09,9E+09,9E+09]];
CONST robtarget Target_354:=[[99.99999999999997, 151.98416465649612, 3.0],[0,0.924,-0.383,0],[0,0,0,0],[9E+09,9E+09,9E+09,9E+09,9E+09,9E+09]];
CONST robtarget Target_355:=[[99.99999999999997, 153.98416465649612, 3.0],[0,0.924,-0.383,0],[0,0,0,0],[9E+09,9E+09,9E+09,9E+09,9E+09,9E+09]];
CONST robtarget Target_356:=[[99.99999999999997, 155.98416465649612, 3.0],[0,0.924,-0.383,0],[0,0,0,0],[9E+09,9E+09,9E+09,9E+09,9E+09,9E+09]];
CONST robtarget Target_357:=[[99.99999999999997, 157.98416465649612, 3.0],[0,0.924,-0.383,0],[0,0,0,0],[9E+09,9E+09,9E+09,9E+09,9E+09,9E+09]];
CONST robtarget Target_358:=[[99.99999999999997, 159.98416465649612, 3.0],[0,0.924,-0.383,0],[0,0,0,0],[9E+09,9E+09,9E+09,9E+09,9E+09,9E+09]];
CONST robtarget Target_359:=[[99.99999999999997, 161.98416465649612, 3.0],[0,0.924,-0.383,0],[0,0,0,0],[9E+09,9E+09,9E+09,9E+09,9E+09,9E+09]];
CONST robtarget Target_360:=[[99.99999999999997, 163.98416465649612, 3.0],[0,0.924,-0.383,0],[0,0,0,0],[9E+09,9E+09,9E+09,9E+09,9E+09,9E+09]];
CONST robtarget Target_361:=[[99.99999999999997, 165.98416465649612, 3.0],[0,0.924,-0.383,0],[0,0,0,0],[9E+09,9E+09,9E+09,9E+09,9E+09,9E+09]];
CONST robtarget Target_362:=[[99.99999999999997, 167.98416465649612, 3.0],[0,0.924,-0.383,0],[0,0,0,0],[9E+09,9E+09,9E+09,9E+09,9E+09,9E+09]];
CONST robtarget Target_363:=[[99.99999999999997, 169.98416465649612, 3.0],[0,0.924,-0.383,0],[0,0,0,0],[9E+09,9E+09,9E+09,9E+09,9E+09,9E+09]];
CONST robtarget Target_364:=[[100.0, 171.98416465649612, 3.0],[0,0.924,-0.383,0],[0,0,0,0],[9E+09,9E+09,9E+09,9E+09,9E+09,9E+09]];
CONST robtarget Target_365:=[[100.0, 173.98416465649612, 3.0],[0,0.924,-0.383,0],[0,0,0,0],[9E+09,9E+09,9E+09,9E+09,9E+09,9E+09]];
CONST robtarget Target_366:=[[100.0, 175.98416465649612, 3.0],[0,0.924,-0.383,0],[0,0,0,0],[9E+09,9E+09,9E+09,9E+09,9E+09,9E+09]];
CONST robtarget Target_367:=[[100.0, 177.98416465649612, 3.0],[0,0.924,-0.383,0],[0,0,0,0],[9E+09,9E+09,9E+09,9E+09,9E+09,9E+09]];
CONST robtarget Target_368:=[[100.0, 179.98416465649612, 3.0],[0,0.924,-0.383,0],[0,0,0,0],[9E+09,9E+09,9E+09,9E+09,9E+09,9E+09]];
CONST robtarget Target_369:=[[100.0, 181.98416465649612, 3.0],[0,0.924,-0.383,0],[0,0,0,0],[9E+09,9E+09,9E+09,9E+09,9E+09,9E+09]];
CONST robtarget Target_370:=[[100.0, 183.98416465649612, 3.0],[0,0.924,-0.383,0],[0,0,0,0],[9E+09,9E+09,9E+09,9E+09,9E+09,9E+09]];
CONST robtarget Target_371:=[[100.0, 185.98416465649612, 3.0],[0,0.924,-0.383,0],[0,0,0,0],[9E+09,9E+09,9E+09,9E+09,9E+09,9E+09]];
CONST robtarget Target_372:=[[100.0, 187.98416465649612, 3.0],[0,0.924,-0.383,0],[0,0,0,0],[9E+09,9E+09,9E+09,9E+09,9E+09,9E+09]];
CONST robtarget Target_373:=[[100.0, 189.98416465649612, 3.0],[0,0.924,-0.383,0],[0,0,0,0],[9E+09,9E+09,9E+09,9E+09,9E+09,9E+09]];
CONST robtarget Target_374:=[[100.0, 191.98416465649612, 3.0],[0,0.924,-0.383,0],[0,0,0,0],[9E+09,9E+09,9E+09,9E+09,9E+09,9E+09]];
CONST robtarget Target_375:=[[100.0, 193.98416465649612, 3.0],[0,0.924,-0.383,0],[0,0,0,0],[9E+09,9E+09,9E+09,9E+09,9E+09,9E+09]];
CONST robtarget Target_376:=[[100.0, 195.98416465649612, 3.0],[0,0.924,-0.383,0],[0,0,0,0],[9E+09,9E+09,9E+09,9E+09,9E+09,9E+09]];
CONST robtarget Target_377:=[[100.0, 197.98416465649612, 3.0],[0,0.924,-0.383,0],[0,0,0,0],[9E+09,9E+09,9E+09,9E+09,9E+09,9E+09]];
CONST robtarget Target_378:=[[100.0, 199.98416465649612, 3.0],[0,0.924,-0.383,0],[0,0,0,0],[9E+09,9E+09,9E+09,9E+09,9E+09,9E+09]];
CONST robtarget Target_379:=[[100.0, 201.98416465649612, 3.0],[0,0.924,-0.383,0],[0,0,0,0],[9E+09,9E+09,9E+09,9E+09,9E+09,9E+09]];
CONST robtarget Target_380:=[[100.0, 203.98416465649612, 3.0],[0,0.924,-0.383,0],[0,0,0,0],[9E+09,9E+09,9E+09,9E+09,9E+09,9E+09]];
CONST robtarget Target_381:=[[100.0, 205.98416465649612, 3.0],[0,0.924,-0.383,0],[0,0,0,0],[9E+09,9E+09,9E+09,9E+09,9E+09,9E+09]];
CONST robtarget Target_382:=[[100.0, 207.98416465649612, 3.0],[0,0.924,-0.383,0],[0,0,0,0],[9E+09,9E+09,9E+09,9E+09,9E+09,9E+09]];
CONST robtarget Target_383:=[[100.0, 209.98416465649612, 3.0],[0,0.924,-0.383,0],[0,0,0,0],[9E+09,9E+09,9E+09,9E+09,9E+09,9E+09]];
CONST robtarget Target_384:=[[98.01583534350391, 210.00000000000003, 3.0],[0,0.924,-0.383,0],[0,0,0,0],[9E+09,9E+09,9E+09,9E+09,9E+09,9E+09]];
CONST robtarget Target_385:=[[96.01583534350391, 210.00000000000003, 3.0],[0,0.924,-0.383,0],[0,0,0,0],[9E+09,9E+09,9E+09,9E+09,9E+09,9E+09]];
CONST robtarget Target_386:=[[94.01583534350391, 210.00000000000003, 3.0],[0,0.924,-0.383,0],[0,0,0,0],[9E+09,9E+09,9E+09,9E+09,9E+09,9E+09]];
CONST robtarget Target_387:=[[92.01583534350391, 210.00000000000003, 3.0],[0,0.924,-0.383,0],[0,0,0,0],[9E+09,9E+09,9E+09,9E+09,9E+09,9E+09]];
CONST robtarget Target_388:=[[90.01583534350391, 210.00000000000003, 3.0],[0,0.924,-0.383,0],[0,0,0,0],[9E+09,9E+09,9E+09,9E+09,9E+09,9E+09]];
CONST robtarget Target_389:=[[88.01583534350391, 210.00000000000003, 3.0],[0,0.924,-0.383,0],[0,0,0,0],[9E+09,9E+09,9E+09,9E+09,9E+09,9E+09]];
CONST robtarget Target_390:=[[86.01583534350391, 210.00000000000003, 3.0],[0,0.924,-0.383,0],[0,0,0,0],[9E+09,9E+09,9E+09,9E+09,9E+09,9E+09]];
CONST robtarget Target_391:=[[84.01583534350391, 210.00000000000003, 3.0],[0,0.924,-0.383,0],[0,0,0,0],[9E+09,9E+09,9E+09,9E+09,9E+09,9E+09]];
CONST robtarget Target_392:=[[82.01583534350391, 210.00000000000003, 3.0],[0,0.924,-0.383,0],[0,0,0,0],[9E+09,9E+09,9E+09,9E+09,9E+09,9E+09]];
CONST robtarget Target_393:=[[80.01583534350391, 210.00000000000003, 3.0],[0,0.924,-0.383,0],[0,0,0,0],[9E+09,9E+09,9E+09,9E+09,9E+09,9E+09]];
CONST robtarget Target_394:=[[78.01583534350391, 210.00000000000003, 3.0],[0,0.924,-0.383,0],[0,0,0,0],[9E+09,9E+09,9E+09,9E+09,9E+09,9E+09]];
CONST robtarget Target_395:=[[76.01583534350391, 210.00000000000003, 3.0],[0,0.924,-0.383,0],[0,0,0,0],[9E+09,9E+09,9E+09,9E+09,9E+09,9E+09]];
CONST robtarget Target_396:=[[74.01583534350391, 210.00000000000003, 3.0],[0,0.924,-0.383,0],[0,0,0,0],[9E+09,9E+09,9E+09,9E+09,9E+09,9E+09]];
CONST robtarget Target_397:=[[72.01583534350391, 210.00000000000003, 3.0],[0,0.924,-0.383,0],[0,0,0,0],[9E+09,9E+09,9E+09,9E+09,9E+09,9E+09]];
CONST robtarget Target_398:=[[70.01583534350391, 210.00000000000003, 3.0],[0,0.924,-0.383,0],[0,0,0,0],[9E+09,9E+09,9E+09,9E+09,9E+09,9E+09]];
CONST robtarget Target_399:=[[68.01583534350391, 210.00000000000003, 3.0],[0,0.924,-0.383,0],[0,0,0,0],[9E+09,9E+09,9E+09,9E+09,9E+09,9E+09]];
CONST robtarget Target_400:=[[66.01583534350391, 210.00000000000003, 3.0],[0,0.924,-0.383,0],[0,0,0,0],[9E+09,9E+09,9E+09,9E+09,9E+09,9E+09]];
CONST robtarget Target_401:=[[64.01583534350391, 210.00000000000003, 3.0],[0,0.924,-0.383,0],[0,0,0,0],[9E+09,9E+09,9E+09,9E+09,9E+09,9E+09]];
CONST robtarget Target_402:=[[62.01583534350391, 210.00000000000003, 3.0],[0,0.924,-0.383,0],[0,0,0,0],[9E+09,9E+09,9E+09,9E+09,9E+09,9E+09]];
CONST robtarget Target_403:=[[60.01583534350391, 210.00000000000003, 3.0],[0,0.924,-0.383,0],[0,0,0,0],[9E+09,9E+09,9E+09,9E+09,9E+09,9E+09]];
CONST robtarget Target_404:=[[58.01583534350391, 210.00000000000003, 3.0],[0,0.924,-0.383,0],[0,0,0,0],[9E+09,9E+09,9E+09,9E+09,9E+09,9E+09]];
CONST robtarget Target_405:=[[56.01583534350391, 210.00000000000003, 3.0],[0,0.924,-0.383,0],[0,0,0,0],[9E+09,9E+09,9E+09,9E+09,9E+09,9E+09]];
CONST robtarget Target_406:=[[54.01583534350391, 210.00000000000003, 3.0],[0,0.924,-0.383,0],[0,0,0,0],[9E+09,9E+09,9E+09,9E+09,9E+09,9E+09]];
CONST robtarget Target_407:=[[52.01583534350391, 210.00000000000003, 3.0],[0,0.924,-0.383,0],[0,0,0,0],[9E+09,9E+09,9E+09,9E+09,9E+09,9E+09]];
CONST robtarget Target_408:=[[50.01583534350391, 210.00000000000003, 3.0],[0,0.924,-0.383,0],[0,0,0,0],[9E+09,9E+09,9E+09,9E+09,9E+09,9E+09]];
CONST robtarget Target_409:=[[250.0, -175.0, 603.0],[0,0.924,-0.383,0],[0,0,0,0],[9E+09,9E+09,9E+09,9E+09,9E+09,9E+09]];
CONST robtarget Target_410:=[[250.0, -175.0, 603.0],[0,0.924,-0.383,0],[0,0,0,0],[9E+09,9E+09,9E+09,9E+09,9E+09,9E+09]];
CONST robtarget Target_411:=[[250.0, -175.0, 603.0],[0,0.924,-0.383,0],[0,0,0,0],[9E+09,9E+09,9E+09,9E+09,9E+09,9E+09]];
CONST robtarget Target_412:=[[250.0, -175.0, 603.0],[0,0.924,-0.383,0],[0,0,0,0],[9E+09,9E+09,9E+09,9E+09,9E+09,9E+09]];
CONST robtarget Target_413:=[[250.0, -175.0, 603.0],[0,0.924,-0.383,0],[0,0,0,0],[9E+09,9E+09,9E+09,9E+09,9E+09,9E+09]];
CONST robtarget Target_414:=[[250.0, -175.0, 603.0],[0,0.924,-0.383,0],[0,0,0,0],[9E+09,9E+09,9E+09,9E+09,9E+09,9E+09]];
CONST robtarget Target_415:=[[250.0, -175.0, 603.0],[0,0.924,-0.383,0],[0,0,0,0],[9E+09,9E+09,9E+09,9E+09,9E+09,9E+09]];
CONST robtarget Target_416:=[[250.0, -175.0, 603.0],[0,0.924,-0.383,0],[0,0,0,0],[9E+09,9E+09,9E+09,9E+09,9E+09,9E+09]];
CONST robtarget Target_417:=[[250.0, -175.0, 603.0],[0,0.924,-0.383,0],[0,0,0,0],[9E+09,9E+09,9E+09,9E+09,9E+09,9E+09]];
CONST robtarget Target_418:=[[250.0, -175.0, 603.0],[0,0.924,-0.383,0],[0,0,0,0],[9E+09,9E+09,9E+09,9E+09,9E+09,9E+09]];
CONST robtarget Target_419:=[[250.0, -175.0, 603.0],[0,0.924,-0.383,0],[0,0,0,0],[9E+09,9E+09,9E+09,9E+09,9E+09,9E+09]];
CONST robtarget Target_420:=[[250.0, -175.0, 603.0],[0,0.924,-0.383,0],[0,0,0,0],[9E+09,9E+09,9E+09,9E+09,9E+09,9E+09]];
CONST robtarget Target_421:=[[250.0, -175.0, 603.0],[0,0.924,-0.383,0],[0,0,0,0],[9E+09,9E+09,9E+09,9E+09,9E+09,9E+09]];
CONST robtarget Target_422:=[[250.0, -175.0, 603.0],[0,0.924,-0.383,0],[0,0,0,0],[9E+09,9E+09,9E+09,9E+09,9E+09,9E+09]];
CONST robtarget Target_423:=[[250.0, -175.0, 603.0],[0,0.924,-0.383,0],[0,0,0,0],[9E+09,9E+09,9E+09,9E+09,9E+09,9E+09]];
CONST robtarget Target_424:=[[250.0, -175.0, 603.0],[0,0.924,-0.383,0],[0,0,0,0],[9E+09,9E+09,9E+09,9E+09,9E+09,9E+09]];
CONST robtarget Target_425:=[[250.0, -175.0, 603.0],[0,0.924,-0.383,0],[0,0,0,0],[9E+09,9E+09,9E+09,9E+09,9E+09,9E+09]];
CONST robtarget Target_426:=[[250.0, -175.0, 603.0],[0,0.924,-0.383,0],[0,0,0,0],[9E+09,9E+09,9E+09,9E+09,9E+09,9E+09]];
CONST robtarget Target_427:=[[250.0, -175.0, 603.0],[0,0.924,-0.383,0],[0,0,0,0],[9E+09,9E+09,9E+09,9E+09,9E+09,9E+09]];
CONST robtarget Target_428:=[[250.0, -175.0, 603.0],[0,0.924,-0.383,0],[0,0,0,0],[9E+09,9E+09,9E+09,9E+09,9E+09,9E+09]];
CONST robtarget Target_429:=[[250.0, -175.0, 603.0],[0,0.924,-0.383,0],[0,0,0,0],[9E+09,9E+09,9E+09,9E+09,9E+09,9E+09]];
CONST robtarget Target_430:=[[250.0, -175.0, 603.0],[0,0.924,-0.383,0],[0,0,0,0],[9E+09,9E+09,9E+09,9E+09,9E+09,9E+09]];
CONST robtarget Target_431:=[[250.0, -175.0, 603.0],[0,0.924,-0.383,0],[0,0,0,0],[9E+09,9E+09,9E+09,9E+09,9E+09,9E+09]];
CONST robtarget Target_432:=[[250.0, -175.0, 603.0],[0,0.924,-0.383,0],[0,0,0,0],[9E+09,9E+09,9E+09,9E+09,9E+09,9E+09]];
CONST robtarget Target_433:=[[250.0, -175.0, 603.0],[0,0.924,-0.383,0],[0,0,0,0],[9E+09,9E+09,9E+09,9E+09,9E+09,9E+09]];
CONST robtarget Target_434:=[[250.0, -175.0, 603.0],[0,0.924,-0.383,0],[0,0,0,0],[9E+09,9E+09,9E+09,9E+09,9E+09,9E+09]];
CONST robtarget Target_435:=[[250.0, -175.0, 603.0],[0,0.924,-0.383,0],[0,0,0,0],[9E+09,9E+09,9E+09,9E+09,9E+09,9E+09]];
CONST robtarget Target_436:=[[250.0, -175.0, 603.0],[0,0.924,-0.383,0],[0,0,0,0],[9E+09,9E+09,9E+09,9E+09,9E+09,9E+09]];
CONST robtarget Target_437:=[[250.0, -175.0, 603.0],[0,0.924,-0.383,0],[0,0,0,0],[9E+09,9E+09,9E+09,9E+09,9E+09,9E+09]];
CONST robtarget Target_438:=[[250.0, -175.0, 603.0],[0,0.924,-0.383,0],[0,0,0,0],[9E+09,9E+09,9E+09,9E+09,9E+09,9E+09]];
CONST robtarget Target_439:=[[250.0, -175.0, 603.0],[0,0.924,-0.383,0],[0,0,0,0],[9E+09,9E+09,9E+09,9E+09,9E+09,9E+09]];
CONST robtarget Target_440:=[[250.0, -175.0, 603.0],[0,0.924,-0.383,0],[0,0,0,0],[9E+09,9E+09,9E+09,9E+09,9E+09,9E+09]];
CONST robtarget Target_441:=[[250.0, -175.0, 603.0],[0,0.924,-0.383,0],[0,0,0,0],[9E+09,9E+09,9E+09,9E+09,9E+09,9E+09]];
CONST robtarget Target_442:=[[250.0, -175.0, 603.0],[0,0.924,-0.383,0],[0,0,0,0],[9E+09,9E+09,9E+09,9E+09,9E+09,9E+09]];
CONST robtarget Target_443:=[[250.0, -175.0, 603.0],[0,0.924,-0.383,0],[0,0,0,0],[9E+09,9E+09,9E+09,9E+09,9E+09,9E+09]];
CONST robtarget Target_444:=[[250.0, -175.0, 603.0],[0,0.924,-0.383,0],[0,0,0,0],[9E+09,9E+09,9E+09,9E+09,9E+09,9E+09]];
CONST robtarget Target_445:=[[250.0, -175.0, 603.0],[0,0.924,-0.383,0],[0,0,0,0],[9E+09,9E+09,9E+09,9E+09,9E+09,9E+09]];
CONST robtarget Target_446:=[[250.0, -175.0, 603.0],[0,0.924,-0.383,0],[0,0,0,0],[9E+09,9E+09,9E+09,9E+09,9E+09,9E+09]];
CONST robtarget Target_447:=[[250.0, -175.0, 603.0],[0,0.924,-0.383,0],[0,0,0,0],[9E+09,9E+09,9E+09,9E+09,9E+09,9E+09]];
CONST robtarget Target_448:=[[250.0, -175.0, 603.0],[0,0.924,-0.383,0],[0,0,0,0],[9E+09,9E+09,9E+09,9E+09,9E+09,9E+09]];
CONST robtarget Target_449:=[[250.0, -175.0, 603.0],[0,0.924,-0.383,0],[0,0,0,0],[9E+09,9E+09,9E+09,9E+09,9E+09,9E+09]];
CONST robtarget Target_450:=[[250.0, -175.0, 603.0],[0,0.924,-0.383,0],[0,0,0,0],[9E+09,9E+09,9E+09,9E+09,9E+09,9E+09]];
CONST robtarget Target_451:=[[250.0, -175.0, 603.0],[0,0.924,-0.383,0],[0,0,0,0],[9E+09,9E+09,9E+09,9E+09,9E+09,9E+09]];
CONST robtarget Target_452:=[[250.0, -175.0, 603.0],[0,0.924,-0.383,0],[0,0,0,0],[9E+09,9E+09,9E+09,9E+09,9E+09,9E+09]];
CONST robtarget Target_453:=[[250.0, -175.0, 603.0],[0,0.924,-0.383,0],[0,0,0,0],[9E+09,9E+09,9E+09,9E+09,9E+09,9E+09]];
CONST robtarget Target_454:=[[250.0, -175.0, 603.0],[0,0.924,-0.383,0],[0,0,0,0],[9E+09,9E+09,9E+09,9E+09,9E+09,9E+09]];
CONST robtarget Target_455:=[[250.0, -175.0, 603.0],[0,0.924,-0.383,0],[0,0,0,0],[9E+09,9E+09,9E+09,9E+09,9E+09,9E+09]];
CONST robtarget Target_456:=[[250.0, -175.0, 603.0],[0,0.924,-0.383,0],[0,0,0,0],[9E+09,9E+09,9E+09,9E+09,9E+09,9E+09]];
CONST robtarget Target_457:=[[250.0, -175.0, 603.0],[0,0.924,-0.383,0],[0,0,0,0],[9E+09,9E+09,9E+09,9E+09,9E+09,9E+09]];
CONST robtarget Target_458:=[[250.0, -175.0, 603.0],[0,0.924,-0.383,0],[0,0,0,0],[9E+09,9E+09,9E+09,9E+09,9E+09,9E+09]];
CONST robtarget Target_459:=[[250.0, -175.0, 603.0],[0,0.924,-0.383,0],[0,0,0,0],[9E+09,9E+09,9E+09,9E+09,9E+09,9E+09]];
CONST robtarget Target_460:=[[250.0, -175.0, 603.0],[0,0.924,-0.383,0],[0,0,0,0],[9E+09,9E+09,9E+09,9E+09,9E+09,9E+09]];
CONST robtarget Target_461:=[[250.0, -175.0, 603.0],[0,0.924,-0.383,0],[0,0,0,0],[9E+09,9E+09,9E+09,9E+09,9E+09,9E+09]];
CONST robtarget Target_462:=[[250.0, -175.0, 603.0],[0,0.924,-0.383,0],[0,0,0,0],[9E+09,9E+09,9E+09,9E+09,9E+09,9E+09]];
CONST robtarget Target_463:=[[250.0, -175.0, 603.0],[0,0.924,-0.383,0],[0,0,0,0],[9E+09,9E+09,9E+09,9E+09,9E+09,9E+09]];
CONST robtarget Target_464:=[[250.0, -175.0, 603.0],[0,0.924,-0.383,0],[0,0,0,0],[9E+09,9E+09,9E+09,9E+09,9E+09,9E+09]];
CONST robtarget Target_465:=[[250.0, -175.0, 603.0],[0,0.924,-0.383,0],[0,0,0,0],[9E+09,9E+09,9E+09,9E+09,9E+09,9E+09]];
CONST robtarget Target_466:=[[250.0, -175.0, 603.0],[0,0.924,-0.383,0],[0,0,0,0],[9E+09,9E+09,9E+09,9E+09,9E+09,9E+09]];
CONST robtarget Target_467:=[[250.0, -175.0, 603.0],[0,0.924,-0.383,0],[0,0,0,0],[9E+09,9E+09,9E+09,9E+09,9E+09,9E+09]];
CONST robtarget Target_468:=[[250.0, -175.0, 603.0],[0,0.924,-0.383,0],[0,0,0,0],[9E+09,9E+09,9E+09,9E+09,9E+09,9E+09]];
CONST robtarget Target_469:=[[250.0, -175.0, 603.0],[0,0.924,-0.383,0],[0,0,0,0],[9E+09,9E+09,9E+09,9E+09,9E+09,9E+09]];
CONST robtarget Target_470:=[[250.0, -175.0, 603.0],[0,0.924,-0.383,0],[0,0,0,0],[9E+09,9E+09,9E+09,9E+09,9E+09,9E+09]];
CONST robtarget Target_471:=[[250.0, -175.0, 603.0],[0,0.924,-0.383,0],[0,0,0,0],[9E+09,9E+09,9E+09,9E+09,9E+09,9E+09]];
CONST robtarget Target_472:=[[250.0, -175.0, 603.0],[0,0.924,-0.383,0],[0,0,0,0],[9E+09,9E+09,9E+09,9E+09,9E+09,9E+09]];
CONST robtarget Target_473:=[[250.0, -175.0, 603.0],[0,0.924,-0.383,0],[0,0,0,0],[9E+09,9E+09,9E+09,9E+09,9E+09,9E+09]];
CONST robtarget Target_474:=[[250.0, -175.0, 603.0],[0,0.924,-0.383,0],[0,0,0,0],[9E+09,9E+09,9E+09,9E+09,9E+09,9E+09]];
CONST robtarget Target_475:=[[250.0, -175.0, 603.0],[0,0.924,-0.383,0],[0,0,0,0],[9E+09,9E+09,9E+09,9E+09,9E+09,9E+09]];
CONST robtarget Target_476:=[[250.0, -175.0, 603.0],[0,0.924,-0.383,0],[0,0,0,0],[9E+09,9E+09,9E+09,9E+09,9E+09,9E+09]];
CONST robtarget Target_477:=[[250.0, -175.0, 603.0],[0,0.924,-0.383,0],[0,0,0,0],[9E+09,9E+09,9E+09,9E+09,9E+09,9E+09]];
CONST robtarget Target_478:=[[250.0, -175.0, 603.0],[0,0.924,-0.383,0],[0,0,0,0],[9E+09,9E+09,9E+09,9E+09,9E+09,9E+09]];
CONST robtarget Target_479:=[[250.0, -175.0, 603.0],[0,0.924,-0.383,0],[0,0,0,0],[9E+09,9E+09,9E+09,9E+09,9E+09,9E+09]];
CONST robtarget Target_480:=[[250.0, -175.0, 603.0],[0,0.924,-0.383,0],[0,0,0,0],[9E+09,9E+09,9E+09,9E+09,9E+09,9E+09]];
CONST robtarget Target_481:=[[250.0, -175.0, 603.0],[0,0.924,-0.383,0],[0,0,0,0],[9E+09,9E+09,9E+09,9E+09,9E+09,9E+09]];
CONST robtarget Target_482:=[[250.0, -175.0, 603.0],[0,0.924,-0.383,0],[0,0,0,0],[9E+09,9E+09,9E+09,9E+09,9E+09,9E+09]];
CONST robtarget Target_483:=[[250.0, -175.0, 603.0],[0,0.924,-0.383,0],[0,0,0,0],[9E+09,9E+09,9E+09,9E+09,9E+09,9E+09]];
CONST robtarget Target_484:=[[250.0, -175.0, 603.0],[0,0.924,-0.383,0],[0,0,0,0],[9E+09,9E+09,9E+09,9E+09,9E+09,9E+09]];
CONST robtarget Target_485:=[[250.0, -175.0, 603.0],[0,0.924,-0.383,0],[0,0,0,0],[9E+09,9E+09,9E+09,9E+09,9E+09,9E+09]];
CONST robtarget Target_486:=[[250.0, -175.0, 603.0],[0,0.924,-0.383,0],[0,0,0,0],[9E+09,9E+09,9E+09,9E+09,9E+09,9E+09]];
CONST robtarget Target_487:=[[250.0, -175.0, 603.0],[0,0.924,-0.383,0],[0,0,0,0],[9E+09,9E+09,9E+09,9E+09,9E+09,9E+09]];
CONST robtarget Target_488:=[[250.0, -175.0, 603.0],[0,0.924,-0.383,0],[0,0,0,0],[9E+09,9E+09,9E+09,9E+09,9E+09,9E+09]];
CONST robtarget Target_489:=[[250.0, -175.0, 603.0],[0,0.924,-0.383,0],[0,0,0,0],[9E+09,9E+09,9E+09,9E+09,9E+09,9E+09]];
CONST robtarget Target_490:=[[250.0, -175.0, 603.0],[0,0.924,-0.383,0],[0,0,0,0],[9E+09,9E+09,9E+09,9E+09,9E+09,9E+09]];
CONST robtarget Target_491:=[[250.0, -175.0, 603.0],[0,0.924,-0.383,0],[0,0,0,0],[9E+09,9E+09,9E+09,9E+09,9E+09,9E+09]];
CONST robtarget Target_492:=[[250.0, -175.0, 603.0],[0,0.924,-0.383,0],[0,0,0,0],[9E+09,9E+09,9E+09,9E+09,9E+09,9E+09]];
CONST robtarget Target_493:=[[250.0, -175.0, 603.0],[0,0.924,-0.383,0],[0,0,0,0],[9E+09,9E+09,9E+09,9E+09,9E+09,9E+09]];
CONST robtarget Target_494:=[[250.0, -175.0, 603.0],[0,0.924,-0.383,0],[0,0,0,0],[9E+09,9E+09,9E+09,9E+09,9E+09,9E+09]];
CONST robtarget Target_495:=[[250.0, -175.0, 603.0],[0,0.924,-0.383,0],[0,0,0,0],[9E+09,9E+09,9E+09,9E+09,9E+09,9E+09]];
CONST robtarget Target_496:=[[250.0, -175.0, 603.0],[0,0.924,-0.383,0],[0,0,0,0],[9E+09,9E+09,9E+09,9E+09,9E+09,9E+09]];
CONST robtarget Target_497:=[[250.0, -175.0, 603.0],[0,0.924,-0.383,0],[0,0,0,0],[9E+09,9E+09,9E+09,9E+09,9E+09,9E+09]];
CONST robtarget Target_498:=[[250.0, -175.0, 603.0],[0,0.924,-0.383,0],[0,0,0,0],[9E+09,9E+09,9E+09,9E+09,9E+09,9E+09]];
CONST robtarget Target_499:=[[250.0, -175.0, 603.0],[0,0.924,-0.383,0],[0,0,0,0],[9E+09,9E+09,9E+09,9E+09,9E+09,9E+09]];
CONST robtarget Target_500:=[[250.0, -175.0, 603.0],[0,0.924,-0.383,0],[0,0,0,0],[9E+09,9E+09,9E+09,9E+09,9E+09,9E+09]];
CONST robtarget Target_501:=[[250.0, -175.0, 603.0],[0,0.924,-0.383,0],[0,0,0,0],[9E+09,9E+09,9E+09,9E+09,9E+09,9E+09]];
CONST robtarget Target_502:=[[250.0, -175.0, 603.0],[0,0.924,-0.383,0],[0,0,0,0],[9E+09,9E+09,9E+09,9E+09,9E+09,9E+09]];
CONST robtarget Target_503:=[[250.0, -175.0, 603.0],[0,0.924,-0.383,0],[0,0,0,0],[9E+09,9E+09,9E+09,9E+09,9E+09,9E+09]];
CONST robtarget Target_504:=[[250.0, -175.0, 603.0],[0,0.924,-0.383,0],[0,0,0,0],[9E+09,9E+09,9E+09,9E+09,9E+09,9E+09]];
CONST robtarget Target_505:=[[250.0, -175.0, 603.0],[0,0.924,-0.383,0],[0,0,0,0],[9E+09,9E+09,9E+09,9E+09,9E+09,9E+09]];
CONST robtarget Target_506:=[[250.0, -175.0, 603.0],[0,0.924,-0.383,0],[0,0,0,0],[9E+09,9E+09,9E+09,9E+09,9E+09,9E+09]];
CONST robtarget Target_507:=[[250.0, -175.0, 603.0],[0,0.924,-0.383,0],[0,0,0,0],[9E+09,9E+09,9E+09,9E+09,9E+09,9E+09]];
CONST robtarget Target_508:=[[250.0, -175.0, 603.0],[0,0.924,-0.383,0],[0,0,0,0],[9E+09,9E+09,9E+09,9E+09,9E+09,9E+09]];
CONST robtarget Target_509:=[[250.0, -175.0, 603.0],[0,0.924,-0.383,0],[0,0,0,0],[9E+09,9E+09,9E+09,9E+09,9E+09,9E+09]];
CONST robtarget Target_510:=[[250.0, -175.0, 603.0],[0,0.924,-0.383,0],[0,0,0,0],[9E+09,9E+09,9E+09,9E+09,9E+09,9E+09]];
CONST robtarget Target_511:=[[250.0, -175.0, 603.0],[0,0.924,-0.383,0],[0,0,0,0],[9E+09,9E+09,9E+09,9E+09,9E+09,9E+09]];
CONST robtarget Target_512:=[[250.0, -175.0, 603.0],[0,0.924,-0.383,0],[0,0,0,0],[9E+09,9E+09,9E+09,9E+09,9E+09,9E+09]];
CONST robtarget Target_513:=[[250.0, -175.0, 603.0],[0,0.924,-0.383,0],[0,0,0,0],[9E+09,9E+09,9E+09,9E+09,9E+09,9E+09]];
CONST robtarget Target_514:=[[250.0, -175.0, 603.0],[0,0.924,-0.383,0],[0,0,0,0],[9E+09,9E+09,9E+09,9E+09,9E+09,9E+09]];
CONST robtarget Target_515:=[[250.0, -175.0, 603.0],[0,0.924,-0.383,0],[0,0,0,0],[9E+09,9E+09,9E+09,9E+09,9E+09,9E+09]];
CONST robtarget Target_516:=[[250.0, -175.0, 603.0],[0,0.924,-0.383,0],[0,0,0,0],[9E+09,9E+09,9E+09,9E+09,9E+09,9E+09]];
CONST robtarget Target_517:=[[250.0, -175.0, 603.0],[0,0.924,-0.383,0],[0,0,0,0],[9E+09,9E+09,9E+09,9E+09,9E+09,9E+09]];
CONST robtarget Target_518:=[[250.0, -175.0, 603.0],[0,0.924,-0.383,0],[0,0,0,0],[9E+09,9E+09,9E+09,9E+09,9E+09,9E+09]];
CONST robtarget Target_519:=[[250.0, -175.0, 603.0],[0,0.924,-0.383,0],[0,0,0,0],[9E+09,9E+09,9E+09,9E+09,9E+09,9E+09]];
CONST robtarget Target_520:=[[250.0, -175.0, 603.0],[0,0.924,-0.383,0],[0,0,0,0],[9E+09,9E+09,9E+09,9E+09,9E+09,9E+09]];
CONST robtarget Target_521:=[[250.0, -175.0, 603.0],[0,0.924,-0.383,0],[0,0,0,0],[9E+09,9E+09,9E+09,9E+09,9E+09,9E+09]];
CONST robtarget Target_522:=[[250.0, -175.0, 603.0],[0,0.924,-0.383,0],[0,0,0,0],[9E+09,9E+09,9E+09,9E+09,9E+09,9E+09]];
CONST robtarget Target_523:=[[250.0, -175.0, 603.0],[0,0.924,-0.383,0],[0,0,0,0],[9E+09,9E+09,9E+09,9E+09,9E+09,9E+09]];
CONST robtarget Target_524:=[[250.0, -175.0, 603.0],[0,0.924,-0.383,0],[0,0,0,0],[9E+09,9E+09,9E+09,9E+09,9E+09,9E+09]];
CONST robtarget Target_525:=[[250.0, -175.0, 603.0],[0,0.924,-0.383,0],[0,0,0,0],[9E+09,9E+09,9E+09,9E+09,9E+09,9E+09]];
CONST robtarget Target_526:=[[250.0, -175.0, 603.0],[0,0.924,-0.383,0],[0,0,0,0],[9E+09,9E+09,9E+09,9E+09,9E+09,9E+09]];
CONST robtarget Target_527:=[[250.0, -175.0, 603.0],[0,0.924,-0.383,0],[0,0,0,0],[9E+09,9E+09,9E+09,9E+09,9E+09,9E+09]];
CONST robtarget Target_528:=[[250.0, -175.0, 603.0],[0,0.924,-0.383,0],[0,0,0,0],[9E+09,9E+09,9E+09,9E+09,9E+09,9E+09]];
CONST robtarget Target_529:=[[250.0, -175.0, 603.0],[0,0.924,-0.383,0],[0,0,0,0],[9E+09,9E+09,9E+09,9E+09,9E+09,9E+09]];
CONST robtarget Target_530:=[[250.0, -175.0, 603.0],[0,0.924,-0.383,0],[0,0,0,0],[9E+09,9E+09,9E+09,9E+09,9E+09,9E+09]];
CONST robtarget Target_531:=[[250.0, -175.0, 603.0],[0,0.924,-0.383,0],[0,0,0,0],[9E+09,9E+09,9E+09,9E+09,9E+09,9E+09]];
CONST robtarget Target_532:=[[250.0, -175.0, 603.0],[0,0.924,-0.383,0],[0,0,0,0],[9E+09,9E+09,9E+09,9E+09,9E+09,9E+09]];
CONST robtarget Target_533:=[[250.0, -175.0, 603.0],[0,0.924,-0.383,0],[0,0,0,0],[9E+09,9E+09,9E+09,9E+09,9E+09,9E+09]];
CONST robtarget Target_534:=[[250.0, -175.0, 603.0],[0,0.924,-0.383,0],[0,0,0,0],[9E+09,9E+09,9E+09,9E+09,9E+09,9E+09]];
CONST robtarget Target_535:=[[250.0, -175.0, 603.0],[0,0.924,-0.383,0],[0,0,0,0],[9E+09,9E+09,9E+09,9E+09,9E+09,9E+09]];
CONST robtarget Target_536:=[[250.0, -175.0, 603.0],[0,0.924,-0.383,0],[0,0,0,0],[9E+09,9E+09,9E+09,9E+09,9E+09,9E+09]];
CONST robtarget Target_537:=[[250.0, -175.0, 603.0],[0,0.924,-0.383,0],[0,0,0,0],[9E+09,9E+09,9E+09,9E+09,9E+09,9E+09]];
CONST robtarget Target_538:=[[250.0, -175.0, 603.0],[0,0.924,-0.383,0],[0,0,0,0],[9E+09,9E+09,9E+09,9E+09,9E+09,9E+09]];
CONST robtarget Target_539:=[[250.0, -175.0, 603.0],[0,0.924,-0.383,0],[0,0,0,0],[9E+09,9E+09,9E+09,9E+09,9E+09,9E+09]];
CONST robtarget Target_540:=[[250.0, -175.0, 603.0],[0,0.924,-0.383,0],[0,0,0,0],[9E+09,9E+09,9E+09,9E+09,9E+09,9E+09]];
CONST robtarget Target_541:=[[250.0, -175.0, 603.0],[0,0.924,-0.383,0],[0,0,0,0],[9E+09,9E+09,9E+09,9E+09,9E+09,9E+09]];
CONST robtarget Target_542:=[[250.0, -175.0, 603.0],[0,0.924,-0.383,0],[0,0,0,0],[9E+09,9E+09,9E+09,9E+09,9E+09,9E+09]];
CONST robtarget Target_543:=[[250.0, -175.0, 603.0],[0,0.924,-0.383,0],[0,0,0,0],[9E+09,9E+09,9E+09,9E+09,9E+09,9E+09]];
CONST robtarget Target_544:=[[250.0, -175.0, 603.0],[0,0.924,-0.383,0],[0,0,0,0],[9E+09,9E+09,9E+09,9E+09,9E+09,9E+09]];
CONST robtarget Target_545:=[[250.0, -175.0, 603.0],[0,0.924,-0.383,0],[0,0,0,0],[9E+09,9E+09,9E+09,9E+09,9E+09,9E+09]];
CONST robtarget Target_546:=[[250.0, -175.0, 603.0],[0,0.924,-0.383,0],[0,0,0,0],[9E+09,9E+09,9E+09,9E+09,9E+09,9E+09]];
CONST robtarget Target_547:=[[250.0, -175.0, 603.0],[0,0.924,-0.383,0],[0,0,0,0],[9E+09,9E+09,9E+09,9E+09,9E+09,9E+09]];
CONST robtarget Target_548:=[[250.0, -175.0, 603.0],[0,0.924,-0.383,0],[0,0,0,0],[9E+09,9E+09,9E+09,9E+09,9E+09,9E+09]];
CONST robtarget Target_549:=[[250.0, -175.0, 603.0],[0,0.924,-0.383,0],[0,0,0,0],[9E+09,9E+09,9E+09,9E+09,9E+09,9E+09]];
CONST robtarget Target_550:=[[250.0, -175.0, 603.0],[0,0.924,-0.383,0],[0,0,0,0],[9E+09,9E+09,9E+09,9E+09,9E+09,9E+09]];
CONST robtarget Target_551:=[[250.0, -175.0, 603.0],[0,0.924,-0.383,0],[0,0,0,0],[9E+09,9E+09,9E+09,9E+09,9E+09,9E+09]];
CONST robtarget Target_552:=[[250.0, -175.0, 603.0],[0,0.924,-0.383,0],[0,0,0,0],[9E+09,9E+09,9E+09,9E+09,9E+09,9E+09]];
CONST robtarget Target_553:=[[250.0, -175.0, 603.0],[0,0.924,-0.383,0],[0,0,0,0],[9E+09,9E+09,9E+09,9E+09,9E+09,9E+09]];
CONST robtarget Target_554:=[[250.0, -175.0, 603.0],[0,0.924,-0.383,0],[0,0,0,0],[9E+09,9E+09,9E+09,9E+09,9E+09,9E+09]];
CONST robtarget Target_555:=[[250.0, -175.0, 603.0],[0,0.924,-0.383,0],[0,0,0,0],[9E+09,9E+09,9E+09,9E+09,9E+09,9E+09]];
CONST robtarget Target_556:=[[250.0, -175.0, 603.0],[0,0.924,-0.383,0],[0,0,0,0],[9E+09,9E+09,9E+09,9E+09,9E+09,9E+09]];
CONST robtarget Target_557:=[[250.0, -175.0, 603.0],[0,0.924,-0.383,0],[0,0,0,0],[9E+09,9E+09,9E+09,9E+09,9E+09,9E+09]];
CONST robtarget Target_558:=[[250.0, -175.0, 603.0],[0,0.924,-0.383,0],[0,0,0,0],[9E+09,9E+09,9E+09,9E+09,9E+09,9E+09]];
CONST robtarget Target_559:=[[250.0, -175.0, 603.0],[0,0.924,-0.383,0],[0,0,0,0],[9E+09,9E+09,9E+09,9E+09,9E+09,9E+09]];
CONST robtarget Target_560:=[[250.0, -175.0, 603.0],[0,0.924,-0.383,0],[0,0,0,0],[9E+09,9E+09,9E+09,9E+09,9E+09,9E+09]];
CONST robtarget Target_561:=[[250.0, -175.0, 603.0],[0,0.924,-0.383,0],[0,0,0,0],[9E+09,9E+09,9E+09,9E+09,9E+09,9E+09]];
CONST robtarget Target_562:=[[250.0, -175.0, 603.0],[0,0.924,-0.383,0],[0,0,0,0],[9E+09,9E+09,9E+09,9E+09,9E+09,9E+09]];
CONST robtarget Target_563:=[[250.0, -175.0, 603.0],[0,0.924,-0.383,0],[0,0,0,0],[9E+09,9E+09,9E+09,9E+09,9E+09,9E+09]];
CONST robtarget Target_564:=[[250.0, -175.0, 603.0],[0,0.924,-0.383,0],[0,0,0,0],[9E+09,9E+09,9E+09,9E+09,9E+09,9E+09]];
CONST robtarget Target_565:=[[250.0, -175.0, 603.0],[0,0.924,-0.383,0],[0,0,0,0],[9E+09,9E+09,9E+09,9E+09,9E+09,9E+09]];
CONST robtarget Target_566:=[[250.0, -175.0, 603.0],[0,0.924,-0.383,0],[0,0,0,0],[9E+09,9E+09,9E+09,9E+09,9E+09,9E+09]];
CONST robtarget Target_567:=[[250.0, -175.0, 603.0],[0,0.924,-0.383,0],[0,0,0,0],[9E+09,9E+09,9E+09,9E+09,9E+09,9E+09]];
CONST robtarget Target_568:=[[250.0, -175.0, 603.0],[0,0.924,-0.383,0],[0,0,0,0],[9E+09,9E+09,9E+09,9E+09,9E+09,9E+09]];
CONST robtarget Target_569:=[[250.0, -175.0, 603.0],[0,0.924,-0.383,0],[0,0,0,0],[9E+09,9E+09,9E+09,9E+09,9E+09,9E+09]];
CONST robtarget Target_570:=[[250.0, -175.0, 603.0],[0,0.924,-0.383,0],[0,0,0,0],[9E+09,9E+09,9E+09,9E+09,9E+09,9E+09]];
CONST robtarget Target_571:=[[250.0, -175.0, 603.0],[0,0.924,-0.383,0],[0,0,0,0],[9E+09,9E+09,9E+09,9E+09,9E+09,9E+09]];
CONST robtarget Target_572:=[[250.0, -175.0, 603.0],[0,0.924,-0.383,0],[0,0,0,0],[9E+09,9E+09,9E+09,9E+09,9E+09,9E+09]];
CONST robtarget Target_573:=[[250.0, -175.0, 603.0],[0,0.924,-0.383,0],[0,0,0,0],[9E+09,9E+09,9E+09,9E+09,9E+09,9E+09]];
CONST robtarget Target_574:=[[250.0, -175.0, 603.0],[0,0.924,-0.383,0],[0,0,0,0],[9E+09,9E+09,9E+09,9E+09,9E+09,9E+09]];
CONST robtarget Target_575:=[[250.0, -175.0, 603.0],[0,0.924,-0.383,0],[0,0,0,0],[9E+09,9E+09,9E+09,9E+09,9E+09,9E+09]];
CONST robtarget Target_576:=[[250.0, -175.0, 603.0],[0,0.924,-0.383,0],[0,0,0,0],[9E+09,9E+09,9E+09,9E+09,9E+09,9E+09]];
CONST robtarget Target_577:=[[250.0, -175.0, 603.0],[0,0.924,-0.383,0],[0,0,0,0],[9E+09,9E+09,9E+09,9E+09,9E+09,9E+09]];
CONST robtarget Target_578:=[[250.0, -175.0, 603.0],[0,0.924,-0.383,0],[0,0,0,0],[9E+09,9E+09,9E+09,9E+09,9E+09,9E+09]];
CONST robtarget Target_579:=[[250.0, -175.0, 603.0],[0,0.924,-0.383,0],[0,0,0,0],[9E+09,9E+09,9E+09,9E+09,9E+09,9E+09]];
CONST robtarget Target_580:=[[250.0, -175.0, 603.0],[0,0.924,-0.383,0],[0,0,0,0],[9E+09,9E+09,9E+09,9E+09,9E+09,9E+09]];
CONST robtarget Target_581:=[[250.0, -175.0, 603.0],[0,0.924,-0.383,0],[0,0,0,0],[9E+09,9E+09,9E+09,9E+09,9E+09,9E+09]];
CONST robtarget Target_582:=[[250.0, -175.0, 603.0],[0,0.924,-0.383,0],[0,0,0,0],[9E+09,9E+09,9E+09,9E+09,9E+09,9E+09]];
CONST robtarget Target_583:=[[250.0, -175.0, 603.0],[0,0.924,-0.383,0],[0,0,0,0],[9E+09,9E+09,9E+09,9E+09,9E+09,9E+09]];
CONST robtarget Target_584:=[[250.0, -175.0, 603.0],[0,0.924,-0.383,0],[0,0,0,0],[9E+09,9E+09,9E+09,9E+09,9E+09,9E+09]];
CONST robtarget Target_585:=[[250.0, -175.0, 603.0],[0,0.924,-0.383,0],[0,0,0,0],[9E+09,9E+09,9E+09,9E+09,9E+09,9E+09]];
CONST robtarget Target_586:=[[250.0, -175.0, 603.0],[0,0.924,-0.383,0],[0,0,0,0],[9E+09,9E+09,9E+09,9E+09,9E+09,9E+09]];
CONST robtarget Target_587:=[[250.0, -175.0, 603.0],[0,0.924,-0.383,0],[0,0,0,0],[9E+09,9E+09,9E+09,9E+09,9E+09,9E+09]];
CONST robtarget Target_588:=[[250.0, -175.0, 603.0],[0,0.924,-0.383,0],[0,0,0,0],[9E+09,9E+09,9E+09,9E+09,9E+09,9E+09]];
CONST robtarget Target_589:=[[250.0, -175.0, 603.0],[0,0.924,-0.383,0],[0,0,0,0],[9E+09,9E+09,9E+09,9E+09,9E+09,9E+09]];
CONST robtarget Target_590:=[[250.0, -175.0, 603.0],[0,0.924,-0.383,0],[0,0,0,0],[9E+09,9E+09,9E+09,9E+09,9E+09,9E+09]];
CONST robtarget Target_591:=[[250.0, -175.0, 603.0],[0,0.924,-0.383,0],[0,0,0,0],[9E+09,9E+09,9E+09,9E+09,9E+09,9E+09]];
CONST robtarget Target_592:=[[250.0, -175.0, 603.0],[0,0.924,-0.383,0],[0,0,0,0],[9E+09,9E+09,9E+09,9E+09,9E+09,9E+09]];
CONST robtarget Target_593:=[[250.0, -175.0, 603.0],[0,0.924,-0.383,0],[0,0,0,0],[9E+09,9E+09,9E+09,9E+09,9E+09,9E+09]];
CONST robtarget Target_594:=[[250.0, -175.0, 603.0],[0,0.924,-0.383,0],[0,0,0,0],[9E+09,9E+09,9E+09,9E+09,9E+09,9E+09]];
CONST robtarget Target_595:=[[250.0, -175.0, 603.0],[0,0.924,-0.383,0],[0,0,0,0],[9E+09,9E+09,9E+09,9E+09,9E+09,9E+09]];
CONST robtarget Target_596:=[[250.0, -175.0, 603.0],[0,0.924,-0.383,0],[0,0,0,0],[9E+09,9E+09,9E+09,9E+09,9E+09,9E+09]];
CONST robtarget Target_597:=[[250.0, -175.0, 603.0],[0,0.924,-0.383,0],[0,0,0,0],[9E+09,9E+09,9E+09,9E+09,9E+09,9E+09]];
CONST robtarget Target_598:=[[250.0, -175.0, 603.0],[0,0.924,-0.383,0],[0,0,0,0],[9E+09,9E+09,9E+09,9E+09,9E+09,9E+09]];
CONST robtarget Target_599:=[[250.0, -175.0, 603.0],[0,0.924,-0.383,0],[0,0,0,0],[9E+09,9E+09,9E+09,9E+09,9E+09,9E+09]];
CONST robtarget Target_600:=[[250.0, -175.0, 603.0],[0,0.924,-0.383,0],[0,0,0,0],[9E+09,9E+09,9E+09,9E+09,9E+09,9E+09]];
CONST robtarget Target_601:=[[250.0, -175.0, 603.0],[0,0.924,-0.383,0],[0,0,0,0],[9E+09,9E+09,9E+09,9E+09,9E+09,9E+09]];
CONST robtarget Target_602:=[[250.0, -175.0, 603.0],[0,0.924,-0.383,0],[0,0,0,0],[9E+09,9E+09,9E+09,9E+09,9E+09,9E+09]];
CONST robtarget Target_603:=[[250.0, -175.0, 603.0],[0,0.924,-0.383,0],[0,0,0,0],[9E+09,9E+09,9E+09,9E+09,9E+09,9E+09]];
CONST robtarget Target_604:=[[250.0, -175.0, 603.0],[0,0.924,-0.383,0],[0,0,0,0],[9E+09,9E+09,9E+09,9E+09,9E+09,9E+09]];
CONST robtarget Target_605:=[[250.0, -175.0, 603.0],[0,0.924,-0.383,0],[0,0,0,0],[9E+09,9E+09,9E+09,9E+09,9E+09,9E+09]];
CONST robtarget Target_606:=[[250.0, -175.0, 603.0],[0,0.924,-0.383,0],[0,0,0,0],[9E+09,9E+09,9E+09,9E+09,9E+09,9E+09]];
CONST robtarget Target_607:=[[250.0, -175.0, 603.0],[0,0.924,-0.383,0],[0,0,0,0],[9E+09,9E+09,9E+09,9E+09,9E+09,9E+09]];
CONST robtarget Target_608:=[[250.0, -175.0, 603.0],[0,0.924,-0.383,0],[0,0,0,0],[9E+09,9E+09,9E+09,9E+09,9E+09,9E+09]];
CONST robtarget Target_609:=[[250.0, -175.0, 603.0],[0,0.924,-0.383,0],[0,0,0,0],[9E+09,9E+09,9E+09,9E+09,9E+09,9E+09]];
CONST robtarget Target_610:=[[250.0, -175.0, 603.0],[0,0.924,-0.383,0],[0,0,0,0],[9E+09,9E+09,9E+09,9E+09,9E+09,9E+09]];
CONST robtarget Target_611:=[[250.0, -175.0, 603.0],[0,0.924,-0.383,0],[0,0,0,0],[9E+09,9E+09,9E+09,9E+09,9E+09,9E+09]];
CONST robtarget Target_612:=[[250.0, -175.0, 603.0],[0,0.924,-0.383,0],[0,0,0,0],[9E+09,9E+09,9E+09,9E+09,9E+09,9E+09]];
CONST robtarget Target_613:=[[250.0, -175.0, 603.0],[0,0.924,-0.383,0],[0,0,0,0],[9E+09,9E+09,9E+09,9E+09,9E+09,9E+09]];
CONST robtarget Target_614:=[[250.0, -175.0, 603.0],[0,0.924,-0.383,0],[0,0,0,0],[9E+09,9E+09,9E+09,9E+09,9E+09,9E+09]];
CONST robtarget Target_615:=[[250.0, -175.0, 603.0],[0,0.924,-0.383,0],[0,0,0,0],[9E+09,9E+09,9E+09,9E+09,9E+09,9E+09]];
CONST robtarget Target_616:=[[250.0, -175.0, 603.0],[0,0.924,-0.383,0],[0,0,0,0],[9E+09,9E+09,9E+09,9E+09,9E+09,9E+09]];
CONST robtarget Target_617:=[[250.0, -175.0, 603.0],[0,0.924,-0.383,0],[0,0,0,0],[9E+09,9E+09,9E+09,9E+09,9E+09,9E+09]];
CONST robtarget Target_618:=[[250.0, -175.0, 603.0],[0,0.924,-0.383,0],[0,0,0,0],[9E+09,9E+09,9E+09,9E+09,9E+09,9E+09]];
CONST robtarget Target_619:=[[250.0, -175.0, 603.0],[0,0.924,-0.383,0],[0,0,0,0],[9E+09,9E+09,9E+09,9E+09,9E+09,9E+09]];
CONST robtarget Target_620:=[[250.0, -175.0, 603.0],[0,0.924,-0.383,0],[0,0,0,0],[9E+09,9E+09,9E+09,9E+09,9E+09,9E+09]];
CONST robtarget Target_621:=[[250.0, -175.0, 603.0],[0,0.924,-0.383,0],[0,0,0,0],[9E+09,9E+09,9E+09,9E+09,9E+09,9E+09]];
CONST robtarget Target_622:=[[250.0, -175.0, 603.0],[0,0.924,-0.383,0],[0,0,0,0],[9E+09,9E+09,9E+09,9E+09,9E+09,9E+09]];
CONST robtarget Target_623:=[[250.0, -175.0, 603.0],[0,0.924,-0.383,0],[0,0,0,0],[9E+09,9E+09,9E+09,9E+09,9E+09,9E+09]];
CONST robtarget Target_624:=[[250.0, -175.0, 603.0],[0,0.924,-0.383,0],[0,0,0,0],[9E+09,9E+09,9E+09,9E+09,9E+09,9E+09]];
CONST robtarget Target_625:=[[250.0, -175.0, 603.0],[0,0.924,-0.383,0],[0,0,0,0],[9E+09,9E+09,9E+09,9E+09,9E+09,9E+09]];
CONST robtarget Target_626:=[[250.0, -175.0, 603.0],[0,0.924,-0.383,0],[0,0,0,0],[9E+09,9E+09,9E+09,9E+09,9E+09,9E+09]];
CONST robtarget Target_627:=[[250.0, -175.0, 603.0],[0,0.924,-0.383,0],[0,0,0,0],[9E+09,9E+09,9E+09,9E+09,9E+09,9E+09]];
CONST robtarget Target_628:=[[250.0, -175.0, 603.0],[0,0.924,-0.383,0],[0,0,0,0],[9E+09,9E+09,9E+09,9E+09,9E+09,9E+09]];
CONST robtarget Target_629:=[[250.0, -175.0, 603.0],[0,0.924,-0.383,0],[0,0,0,0],[9E+09,9E+09,9E+09,9E+09,9E+09,9E+09]];
CONST robtarget Target_630:=[[250.0, -175.0, 603.0],[0,0.924,-0.383,0],[0,0,0,0],[9E+09,9E+09,9E+09,9E+09,9E+09,9E+09]];
CONST robtarget Target_631:=[[250.0, -175.0, 603.0],[0,0.924,-0.383,0],[0,0,0,0],[9E+09,9E+09,9E+09,9E+09,9E+09,9E+09]];
CONST robtarget Target_632:=[[250.0, -175.0, 603.0],[0,0.924,-0.383,0],[0,0,0,0],[9E+09,9E+09,9E+09,9E+09,9E+09,9E+09]];
CONST robtarget Target_633:=[[250.0, -175.0, 603.0],[0,0.924,-0.383,0],[0,0,0,0],[9E+09,9E+09,9E+09,9E+09,9E+09,9E+09]];
CONST robtarget Target_634:=[[250.0, -175.0, 603.0],[0,0.924,-0.383,0],[0,0,0,0],[9E+09,9E+09,9E+09,9E+09,9E+09,9E+09]];
CONST robtarget Target_635:=[[250.0, -175.0, 603.0],[0,0.924,-0.383,0],[0,0,0,0],[9E+09,9E+09,9E+09,9E+09,9E+09,9E+09]];
CONST robtarget Target_636:=[[250.0, -175.0, 603.0],[0,0.924,-0.383,0],[0,0,0,0],[9E+09,9E+09,9E+09,9E+09,9E+09,9E+09]];
CONST robtarget Target_637:=[[250.0, -175.0, 603.0],[0,0.924,-0.383,0],[0,0,0,0],[9E+09,9E+09,9E+09,9E+09,9E+09,9E+09]];
CONST robtarget Target_638:=[[250.0, -175.0, 603.0],[0,0.924,-0.383,0],[0,0,0,0],[9E+09,9E+09,9E+09,9E+09,9E+09,9E+09]];
CONST robtarget Target_639:=[[250.0, -175.0, 603.0],[0,0.924,-0.383,0],[0,0,0,0],[9E+09,9E+09,9E+09,9E+09,9E+09,9E+09]];
CONST robtarget Target_640:=[[250.0, -175.0, 603.0],[0,0.924,-0.383,0],[0,0,0,0],[9E+09,9E+09,9E+09,9E+09,9E+09,9E+09]];
CONST robtarget Target_641:=[[250.0, -175.0, 603.0],[0,0.924,-0.383,0],[0,0,0,0],[9E+09,9E+09,9E+09,9E+09,9E+09,9E+09]];
CONST robtarget Target_642:=[[250.0, -175.0, 603.0],[0,0.924,-0.383,0],[0,0,0,0],[9E+09,9E+09,9E+09,9E+09,9E+09,9E+09]];
CONST robtarget Target_643:=[[250.0, -175.0, 603.0],[0,0.924,-0.383,0],[0,0,0,0],[9E+09,9E+09,9E+09,9E+09,9E+09,9E+09]];
CONST robtarget Target_644:=[[250.0, -175.0, 603.0],[0,0.924,-0.383,0],[0,0,0,0],[9E+09,9E+09,9E+09,9E+09,9E+09,9E+09]];
CONST robtarget Target_645:=[[250.0, -175.0, 603.0],[0,0.924,-0.383,0],[0,0,0,0],[9E+09,9E+09,9E+09,9E+09,9E+09,9E+09]];
CONST robtarget Target_646:=[[250.0, -175.0, 603.0],[0,0.924,-0.383,0],[0,0,0,0],[9E+09,9E+09,9E+09,9E+09,9E+09,9E+09]];
CONST robtarget Target_647:=[[250.0, -175.0, 603.0],[0,0.924,-0.383,0],[0,0,0,0],[9E+09,9E+09,9E+09,9E+09,9E+09,9E+09]];
CONST robtarget Target_648:=[[250.0, -175.0, 603.0],[0,0.924,-0.383,0],[0,0,0,0],[9E+09,9E+09,9E+09,9E+09,9E+09,9E+09]];
CONST robtarget Target_649:=[[250.0, -175.0, 603.0],[0,0.924,-0.383,0],[0,0,0,0],[9E+09,9E+09,9E+09,9E+09,9E+09,9E+09]];
CONST robtarget Target_650:=[[250.0, -175.0, 603.0],[0,0.924,-0.383,0],[0,0,0,0],[9E+09,9E+09,9E+09,9E+09,9E+09,9E+09]];
CONST robtarget Target_651:=[[250.0, -175.0, 603.0],[0,0.924,-0.383,0],[0,0,0,0],[9E+09,9E+09,9E+09,9E+09,9E+09,9E+09]];
CONST robtarget Target_652:=[[250.0, -175.0, 603.0],[0,0.924,-0.383,0],[0,0,0,0],[9E+09,9E+09,9E+09,9E+09,9E+09,9E+09]];
CONST robtarget Target_653:=[[250.0, -175.0, 603.0],[0,0.924,-0.383,0],[0,0,0,0],[9E+09,9E+09,9E+09,9E+09,9E+09,9E+09]];
CONST robtarget Target_654:=[[250.0, -175.0, 603.0],[0,0.924,-0.383,0],[0,0,0,0],[9E+09,9E+09,9E+09,9E+09,9E+09,9E+09]];
CONST robtarget Target_655:=[[250.0, -175.0, 603.0],[0,0.924,-0.383,0],[0,0,0,0],[9E+09,9E+09,9E+09,9E+09,9E+09,9E+09]];
CONST robtarget Target_656:=[[250.0, -175.0, 603.0],[0,0.924,-0.383,0],[0,0,0,0],[9E+09,9E+09,9E+09,9E+09,9E+09,9E+09]];
CONST robtarget Target_657:=[[250.0, -175.0, 603.0],[0,0.924,-0.383,0],[0,0,0,0],[9E+09,9E+09,9E+09,9E+09,9E+09,9E+09]];
CONST robtarget Target_658:=[[250.0, -175.0, 603.0],[0,0.924,-0.383,0],[0,0,0,0],[9E+09,9E+09,9E+09,9E+09,9E+09,9E+09]];
CONST robtarget Target_659:=[[250.0, -175.0, 603.0],[0,0.924,-0.383,0],[0,0,0,0],[9E+09,9E+09,9E+09,9E+09,9E+09,9E+09]];
CONST robtarget Target_660:=[[250.0, -175.0, 603.0],[0,0.924,-0.383,0],[0,0,0,0],[9E+09,9E+09,9E+09,9E+09,9E+09,9E+09]];
CONST robtarget Target_661:=[[250.0, -175.0, 603.0],[0,0.924,-0.383,0],[0,0,0,0],[9E+09,9E+09,9E+09,9E+09,9E+09,9E+09]];
CONST robtarget Target_662:=[[250.0, -175.0, 603.0],[0,0.924,-0.383,0],[0,0,0,0],[9E+09,9E+09,9E+09,9E+09,9E+09,9E+09]];
CONST robtarget Target_663:=[[250.0, -175.0, 603.0],[0,0.924,-0.383,0],[0,0,0,0],[9E+09,9E+09,9E+09,9E+09,9E+09,9E+09]];
CONST robtarget Target_664:=[[250.0, -175.0, 603.0],[0,0.924,-0.383,0],[0,0,0,0],[9E+09,9E+09,9E+09,9E+09,9E+09,9E+09]];
CONST robtarget Target_665:=[[250.0, -175.0, 603.0],[0,0.924,-0.383,0],[0,0,0,0],[9E+09,9E+09,9E+09,9E+09,9E+09,9E+09]];
CONST robtarget Target_666:=[[250.0, -175.0, 603.0],[0,0.924,-0.383,0],[0,0,0,0],[9E+09,9E+09,9E+09,9E+09,9E+09,9E+09]];
CONST robtarget Target_667:=[[250.0, -175.0, 603.0],[0,0.924,-0.383,0],[0,0,0,0],[9E+09,9E+09,9E+09,9E+09,9E+09,9E+09]];
CONST robtarget Target_668:=[[250.0, -175.0, 603.0],[0,0.924,-0.383,0],[0,0,0,0],[9E+09,9E+09,9E+09,9E+09,9E+09,9E+09]];
CONST robtarget Target_669:=[[250.0, -175.0, 603.0],[0,0.924,-0.383,0],[0,0,0,0],[9E+09,9E+09,9E+09,9E+09,9E+09,9E+09]];
CONST robtarget Target_670:=[[250.0, -175.0, 603.0],[0,0.924,-0.383,0],[0,0,0,0],[9E+09,9E+09,9E+09,9E+09,9E+09,9E+09]];
CONST robtarget Target_671:=[[250.0, -175.0, 603.0],[0,0.924,-0.383,0],[0,0,0,0],[9E+09,9E+09,9E+09,9E+09,9E+09,9E+09]];
CONST robtarget Target_672:=[[250.0, -175.0, 603.0],[0,0.924,-0.383,0],[0,0,0,0],[9E+09,9E+09,9E+09,9E+09,9E+09,9E+09]];
CONST robtarget Target_673:=[[250.0, -175.0, 603.0],[0,0.924,-0.383,0],[0,0,0,0],[9E+09,9E+09,9E+09,9E+09,9E+09,9E+09]];
CONST robtarget Target_674:=[[250.0, -175.0, 603.0],[0,0.924,-0.383,0],[0,0,0,0],[9E+09,9E+09,9E+09,9E+09,9E+09,9E+09]];
CONST robtarget Target_675:=[[250.0, -175.0, 603.0],[0,0.924,-0.383,0],[0,0,0,0],[9E+09,9E+09,9E+09,9E+09,9E+09,9E+09]];
CONST robtarget Target_676:=[[250.0, -175.0, 603.0],[0,0.924,-0.383,0],[0,0,0,0],[9E+09,9E+09,9E+09,9E+09,9E+09,9E+09]];
CONST robtarget Target_677:=[[250.0, -175.0, 603.0],[0,0.924,-0.383,0],[0,0,0,0],[9E+09,9E+09,9E+09,9E+09,9E+09,9E+09]];
CONST robtarget Target_678:=[[250.0, -175.0, 603.0],[0,0.924,-0.383,0],[0,0,0,0],[9E+09,9E+09,9E+09,9E+09,9E+09,9E+09]];
CONST robtarget Target_679:=[[250.0, -175.0, 603.0],[0,0.924,-0.383,0],[0,0,0,0],[9E+09,9E+09,9E+09,9E+09,9E+09,9E+09]];
CONST robtarget Target_680:=[[250.0, -175.0, 603.0],[0,0.924,-0.383,0],[0,0,0,0],[9E+09,9E+09,9E+09,9E+09,9E+09,9E+09]];
CONST robtarget Target_681:=[[250.0, -175.0, 603.0],[0,0.924,-0.383,0],[0,0,0,0],[9E+09,9E+09,9E+09,9E+09,9E+09,9E+09]];
CONST robtarget Target_682:=[[250.0, -175.0, 603.0],[0,0.924,-0.383,0],[0,0,0,0],[9E+09,9E+09,9E+09,9E+09,9E+09,9E+09]];
CONST robtarget Target_683:=[[250.0, -175.0, 603.0],[0,0.924,-0.383,0],[0,0,0,0],[9E+09,9E+09,9E+09,9E+09,9E+09,9E+09]];
CONST robtarget Target_684:=[[250.0, -175.0, 603.0],[0,0.924,-0.383,0],[0,0,0,0],[9E+09,9E+09,9E+09,9E+09,9E+09,9E+09]];
CONST robtarget Target_685:=[[250.0, -175.0, 603.0],[0,0.924,-0.383,0],[0,0,0,0],[9E+09,9E+09,9E+09,9E+09,9E+09,9E+09]];
CONST robtarget Target_686:=[[250.0, -175.0, 603.0],[0,0.924,-0.383,0],[0,0,0,0],[9E+09,9E+09,9E+09,9E+09,9E+09,9E+09]];
CONST robtarget Target_687:=[[250.0, -175.0, 603.0],[0,0.924,-0.383,0],[0,0,0,0],[9E+09,9E+09,9E+09,9E+09,9E+09,9E+09]];
CONST robtarget Target_688:=[[250.0, -175.0, 603.0],[0,0.924,-0.383,0],[0,0,0,0],[9E+09,9E+09,9E+09,9E+09,9E+09,9E+09]];
CONST robtarget Target_689:=[[250.0, -175.0, 603.0],[0,0.924,-0.383,0],[0,0,0,0],[9E+09,9E+09,9E+09,9E+09,9E+09,9E+09]];
CONST robtarget Target_690:=[[250.0, -175.0, 603.0],[0,0.924,-0.383,0],[0,0,0,0],[9E+09,9E+09,9E+09,9E+09,9E+09,9E+09]];
CONST robtarget Target_691:=[[250.0, -175.0, 603.0],[0,0.924,-0.383,0],[0,0,0,0],[9E+09,9E+09,9E+09,9E+09,9E+09,9E+09]];
CONST robtarget Target_692:=[[250.0, -175.0, 603.0],[0,0.924,-0.383,0],[0,0,0,0],[9E+09,9E+09,9E+09,9E+09,9E+09,9E+09]];
CONST robtarget Target_693:=[[250.0, -175.0, 603.0],[0,0.924,-0.383,0],[0,0,0,0],[9E+09,9E+09,9E+09,9E+09,9E+09,9E+09]];
CONST robtarget Target_694:=[[250.0, -175.0, 603.0],[0,0.924,-0.383,0],[0,0,0,0],[9E+09,9E+09,9E+09,9E+09,9E+09,9E+09]];
CONST robtarget Target_695:=[[250.0, -175.0, 603.0],[0,0.924,-0.383,0],[0,0,0,0],[9E+09,9E+09,9E+09,9E+09,9E+09,9E+09]];
CONST robtarget Target_696:=[[250.0, -175.0, 603.0],[0,0.924,-0.383,0],[0,0,0,0],[9E+09,9E+09,9E+09,9E+09,9E+09,9E+09]];
CONST robtarget Target_697:=[[250.0, -175.0, 603.0],[0,0.924,-0.383,0],[0,0,0,0],[9E+09,9E+09,9E+09,9E+09,9E+09,9E+09]];
CONST robtarget Target_698:=[[250.0, -175.0, 603.0],[0,0.924,-0.383,0],[0,0,0,0],[9E+09,9E+09,9E+09,9E+09,9E+09,9E+09]];
CONST robtarget Target_699:=[[250.0, -175.0, 603.0],[0,0.924,-0.383,0],[0,0,0,0],[9E+09,9E+09,9E+09,9E+09,9E+09,9E+09]];
CONST robtarget Target_700:=[[250.0, -175.0, 603.0],[0,0.924,-0.383,0],[0,0,0,0],[9E+09,9E+09,9E+09,9E+09,9E+09,9E+09]];
CONST robtarget Target_701:=[[250.0, -175.0, 603.0],[0,0.924,-0.383,0],[0,0,0,0],[9E+09,9E+09,9E+09,9E+09,9E+09,9E+09]];
CONST robtarget Target_702:=[[250.0, -175.0, 603.0],[0,0.924,-0.383,0],[0,0,0,0],[9E+09,9E+09,9E+09,9E+09,9E+09,9E+09]];
CONST robtarget Target_703:=[[250.0, -175.0, 603.0],[0,0.924,-0.383,0],[0,0,0,0],[9E+09,9E+09,9E+09,9E+09,9E+09,9E+09]];
CONST robtarget Target_704:=[[250.0, -175.0, 603.0],[0,0.924,-0.383,0],[0,0,0,0],[9E+09,9E+09,9E+09,9E+09,9E+09,9E+09]];
CONST robtarget Target_705:=[[250.0, -175.0, 603.0],[0,0.924,-0.383,0],[0,0,0,0],[9E+09,9E+09,9E+09,9E+09,9E+09,9E+09]];
CONST robtarget Target_706:=[[250.0, -175.0, 603.0],[0,0.924,-0.383,0],[0,0,0,0],[9E+09,9E+09,9E+09,9E+09,9E+09,9E+09]];
CONST robtarget Target_707:=[[250.0, -175.0, 603.0],[0,0.924,-0.383,0],[0,0,0,0],[9E+09,9E+09,9E+09,9E+09,9E+09,9E+09]];
CONST robtarget Target_708:=[[250.0, -175.0, 603.0],[0,0.924,-0.383,0],[0,0,0,0],[9E+09,9E+09,9E+09,9E+09,9E+09,9E+09]];
CONST robtarget Target_709:=[[250.0, -175.0, 603.0],[0,0.924,-0.383,0],[0,0,0,0],[9E+09,9E+09,9E+09,9E+09,9E+09,9E+09]];
CONST robtarget Target_710:=[[250.0, -175.0, 603.0],[0,0.924,-0.383,0],[0,0,0,0],[9E+09,9E+09,9E+09,9E+09,9E+09,9E+09]];
CONST robtarget Target_711:=[[250.0, -175.0, 603.0],[0,0.924,-0.383,0],[0,0,0,0],[9E+09,9E+09,9E+09,9E+09,9E+09,9E+09]];
CONST robtarget Target_712:=[[250.0, -175.0, 603.0],[0,0.924,-0.383,0],[0,0,0,0],[9E+09,9E+09,9E+09,9E+09,9E+09,9E+09]];
CONST robtarget Target_713:=[[250.0, -175.0, 603.0],[0,0.924,-0.383,0],[0,0,0,0],[9E+09,9E+09,9E+09,9E+09,9E+09,9E+09]];
CONST robtarget Target_714:=[[250.0, -175.0, 603.0],[0,0.924,-0.383,0],[0,0,0,0],[9E+09,9E+09,9E+09,9E+09,9E+09,9E+09]];
CONST robtarget Target_715:=[[250.0, -175.0, 603.0],[0,0.924,-0.383,0],[0,0,0,0],[9E+09,9E+09,9E+09,9E+09,9E+09,9E+09]];
CONST robtarget Target_716:=[[250.0, -175.0, 603.0],[0,0.924,-0.383,0],[0,0,0,0],[9E+09,9E+09,9E+09,9E+09,9E+09,9E+09]];
CONST robtarget Target_717:=[[250.0, -175.0, 603.0],[0,0.924,-0.383,0],[0,0,0,0],[9E+09,9E+09,9E+09,9E+09,9E+09,9E+09]];
CONST robtarget Target_718:=[[250.0, -175.0, 603.0],[0,0.924,-0.383,0],[0,0,0,0],[9E+09,9E+09,9E+09,9E+09,9E+09,9E+09]];
CONST robtarget Target_719:=[[250.0, -175.0, 603.0],[0,0.924,-0.383,0],[0,0,0,0],[9E+09,9E+09,9E+09,9E+09,9E+09,9E+09]];
CONST robtarget Target_720:=[[250.0, -175.0, 603.0],[0,0.924,-0.383,0],[0,0,0,0],[9E+09,9E+09,9E+09,9E+09,9E+09,9E+09]];
CONST robtarget Target_721:=[[250.0, -175.0, 603.0],[0,0.924,-0.383,0],[0,0,0,0],[9E+09,9E+09,9E+09,9E+09,9E+09,9E+09]];
CONST robtarget Target_722:=[[250.0, -175.0, 603.0],[0,0.924,-0.383,0],[0,0,0,0],[9E+09,9E+09,9E+09,9E+09,9E+09,9E+09]];
CONST robtarget Target_723:=[[250.0, -175.0, 603.0],[0,0.924,-0.383,0],[0,0,0,0],[9E+09,9E+09,9E+09,9E+09,9E+09,9E+09]];
CONST robtarget Target_724:=[[250.0, -175.0, 603.0],[0,0.924,-0.383,0],[0,0,0,0],[9E+09,9E+09,9E+09,9E+09,9E+09,9E+09]];
CONST robtarget Target_725:=[[250.0, -175.0, 603.0],[0,0.924,-0.383,0],[0,0,0,0],[9E+09,9E+09,9E+09,9E+09,9E+09,9E+09]];
CONST robtarget Target_726:=[[250.0, -175.0, 603.0],[0,0.924,-0.383,0],[0,0,0,0],[9E+09,9E+09,9E+09,9E+09,9E+09,9E+09]];
CONST robtarget Target_727:=[[250.0, -175.0, 603.0],[0,0.924,-0.383,0],[0,0,0,0],[9E+09,9E+09,9E+09,9E+09,9E+09,9E+09]];
CONST robtarget Target_728:=[[250.0, -175.0, 603.0],[0,0.924,-0.383,0],[0,0,0,0],[9E+09,9E+09,9E+09,9E+09,9E+09,9E+09]];
CONST robtarget Target_729:=[[250.0, -175.0, 603.0],[0,0.924,-0.383,0],[0,0,0,0],[9E+09,9E+09,9E+09,9E+09,9E+09,9E+09]];
CONST robtarget Target_730:=[[250.0, -175.0, 603.0],[0,0.924,-0.383,0],[0,0,0,0],[9E+09,9E+09,9E+09,9E+09,9E+09,9E+09]];
CONST robtarget Target_731:=[[250.0, -175.0, 603.0],[0,0.924,-0.383,0],[0,0,0,0],[9E+09,9E+09,9E+09,9E+09,9E+09,9E+09]];
CONST robtarget Target_732:=[[249.49348427209182, -174.00807336617981, 600.4800842536569],[0,0.924,-0.383,0],[0,0,0,0],[9E+09,9E+09,9E+09,9E+09,9E+09,9E+09]];
CONST robtarget Target_733:=[[248.3903957477135, -171.8478583392723, 594.9922188448746],[0,0.924,-0.383,0],[0,0,0,0],[9E+09,9E+09,9E+09,9E+09,9E+09,9E+09]];
CONST robtarget Target_734:=[[247.28730722333518, -169.68764331236474, 589.5043534360925],[0,0.924,-0.383,0],[0,0,0,0],[9E+09,9E+09,9E+09,9E+09,9E+09,9E+09]];
CONST robtarget Target_735:=[[246.18421869895684, -167.52742828545718, 584.0164880273104],[0,0.924,-0.383,0],[0,0,0,0],[9E+09,9E+09,9E+09,9E+09,9E+09,9E+09]];
CONST robtarget Target_736:=[[245.08113017457853, -165.3672132585496, 578.5286226185282],[0,0.924,-0.383,0],[0,0,0,0],[9E+09,9E+09,9E+09,9E+09,9E+09,9E+09]];
CONST robtarget Target_737:=[[243.97804165020023, -163.2069982316421, 573.0407572097461],[0,0.924,-0.383,0],[0,0,0,0],[9E+09,9E+09,9E+09,9E+09,9E+09,9E+09]];
CONST robtarget Target_738:=[[242.8749531258219, -161.04678320473454, 567.552891800964],[0,0.924,-0.383,0],[0,0,0,0],[9E+09,9E+09,9E+09,9E+09,9E+09,9E+09]];
CONST robtarget Target_739:=[[241.77186460144355, -158.88656817782697, 562.0650263921817],[0,0.924,-0.383,0],[0,0,0,0],[9E+09,9E+09,9E+09,9E+09,9E+09,9E+09]];
CONST robtarget Target_740:=[[240.66877607706525, -156.72635315091946, 556.5771609833996],[0,0.924,-0.383,0],[0,0,0,0],[9E+09,9E+09,9E+09,9E+09,9E+09,9E+09]];
CONST robtarget Target_741:=[[239.56568755268694, -154.5661381240119, 551.0892955746175],[0,0.924,-0.383,0],[0,0,0,0],[9E+09,9E+09,9E+09,9E+09,9E+09,9E+09]];
CONST robtarget Target_742:=[[238.4625990283086, -152.40592309710433, 545.6014301658353],[0,0.924,-0.383,0],[0,0,0,0],[9E+09,9E+09,9E+09,9E+09,9E+09,9E+09]];
CONST robtarget Target_743:=[[237.35951050393027, -150.24570807019683, 540.1135647570532],[0,0.924,-0.383,0],[0,0,0,0],[9E+09,9E+09,9E+09,9E+09,9E+09,9E+09]];
CONST robtarget Target_744:=[[236.25642197955196, -148.08549304328926, 534.625699348271],[0,0.924,-0.383,0],[0,0,0,0],[9E+09,9E+09,9E+09,9E+09,9E+09,9E+09]];
CONST robtarget Target_745:=[[235.15333345517365, -145.92527801638175, 529.1378339394889],[0,0.924,-0.383,0],[0,0,0,0],[9E+09,9E+09,9E+09,9E+09,9E+09,9E+09]];
CONST robtarget Target_746:=[[234.05024493079532, -143.76506298947413, 523.6499685307067],[0,0.924,-0.383,0],[0,0,0,0],[9E+09,9E+09,9E+09,9E+09,9E+09,9E+09]];
